; generated by Slic3r 1.0.0 on 2015-07-31 at 21:08:47

; layer_height = 0.4
; perimeters = 3
; top_solid_layers = 3
; bottom_solid_layers = 3
; fill_density = 0.4
; perimeter_speed = 30
; infill_speed = 60
; travel_speed = 130
; nozzle_diameter = 0.5
; filament_diameter = 3
; extrusion_multiplier = 1
; perimeters extrusion width = 0.50mm
; infill extrusion width = 0.53mm
; solid infill extrusion width = 0.53mm
; top infill extrusion width = 0.53mm
; first layer extrusion width = 0.70mm

G21 ; set units to millimeters
M107
M104 S200 ; set temperature
G28 ; home all axes
G1 Z5 F5000 ; lift nozzle

M109 S200 ; wait for temperature to be reached
G90 ; use absolute coordinates
G92 E0
M82 ; use absolute distances for extrusion
G1 F1800.000 E-1.00000
G92 E0
G1 Z0.350 F7800.000
G1 X72.790 Y72.790 F7800.000
G1 E1.00000 F1800.000
G1 X73.800 Y71.960 E1.04253 F540.000
G1 X74.950 Y71.350 E1.08489
G1 X76.200 Y70.970 E1.12739
G1 X77.500 Y70.840 E1.16990
G1 X122.500 Y70.840 E2.63398
G1 X123.800 Y70.970 E2.67649
G1 X125.050 Y71.350 E2.71900
G1 X126.200 Y71.960 E2.76135
G1 X127.210 Y72.790 E2.80388
G1 X128.040 Y73.800 E2.84642
G1 X128.650 Y74.950 E2.88877
G1 X129.030 Y76.200 E2.93128
G1 X129.160 Y77.500 E2.97378
G1 X129.160 Y122.500 E4.43787
G1 X129.030 Y123.800 E4.48037
G1 X128.650 Y125.050 E4.52288
G1 X128.040 Y126.200 E4.56523
G1 X127.210 Y127.210 E4.60777
G1 X126.200 Y128.040 E4.65030
G1 X125.050 Y128.650 E4.69265
G1 X123.800 Y129.030 E4.73516
G1 X122.500 Y129.160 E4.77767
G1 X77.500 Y129.160 E6.24175
G1 X76.200 Y129.030 E6.28426
G1 X74.950 Y128.650 E6.32677
G1 X73.800 Y128.040 E6.36912
G1 X72.790 Y127.210 E6.41165
G1 X71.960 Y126.200 E6.45418
G1 X71.350 Y125.050 E6.49654
G1 X70.970 Y123.800 E6.53904
G1 X70.840 Y122.500 E6.58155
G1 X70.840 Y77.500 E8.04564
G1 X70.970 Y76.200 E8.08814
G1 X71.350 Y74.950 E8.13065
G1 X71.960 Y73.800 E8.17300
G1 X72.727 Y72.866 E8.21233
G1 F1800.000 E7.21233
G92 E0
G1 X79.164 Y79.164 F7800.000
G1 E1.00000 F1800.000
G1 X120.836 Y79.164 E2.35580 F540.000
G1 X120.836 Y120.836 E3.71159
G1 X79.164 Y120.836 E5.06739
G1 X79.164 Y79.263 E6.41998
G1 X78.507 Y78.507 F7800.000
G1 X121.493 Y78.507 E7.81854 F540.000
G1 X121.493 Y121.493 E9.21709
G1 X78.507 Y121.493 E10.61564
G1 X78.507 Y78.606 E12.01099
G1 X77.850 Y77.850 F7800.000
G1 X122.150 Y77.850 E13.45230 F378.000
G1 X122.150 Y122.150 E14.89361
G1 X77.850 Y122.150 E16.33492
G1 X77.850 Y77.949 E17.77302
G1 X78.419 Y78.179 F7800.000
G1 X120.369 Y79.650 F7800.000
G1 X120.350 Y79.631 E17.77395 F1080.000
G1 X119.413 Y79.631 E17.80462
G1 X120.369 Y80.587 E17.84893
G1 X120.369 Y81.523 E17.87961
G1 X118.477 Y79.631 E17.96731
G1 X117.541 Y79.631 E17.99799
G1 X120.369 Y82.459 E18.12907
G1 X120.369 Y83.395 E18.15975
G1 X116.605 Y79.631 E18.33422
G1 X115.669 Y79.631 E18.36489
G1 X120.369 Y84.331 E18.58275
G1 X120.369 Y85.267 E18.61343
G1 X114.733 Y79.631 E18.87467
G1 X113.797 Y79.631 E18.90535
G1 X120.369 Y86.203 E19.20997
G1 X120.369 Y87.139 E19.24065
G1 X112.861 Y79.631 E19.58866
G1 X111.925 Y79.631 E19.61934
G1 X120.369 Y88.075 E20.01074
G1 X120.369 Y89.011 E20.04142
G1 X110.989 Y79.631 E20.47621
G1 X110.053 Y79.631 E20.50688
G1 X120.369 Y89.947 E20.98505
G1 X120.369 Y90.883 E21.01573
G1 X109.117 Y79.631 E21.53729
G1 X108.181 Y79.631 E21.56797
G1 X120.369 Y91.819 E22.13291
G1 X120.369 Y92.755 E22.16359
G1 X107.245 Y79.631 E22.77192
G1 X106.309 Y79.631 E22.80260
G1 X120.369 Y93.691 E23.45432
G1 X120.369 Y94.628 E23.48499
G1 X105.372 Y79.631 E24.18010
G1 X104.436 Y79.631 E24.21078
G1 X120.369 Y95.564 E24.94926
G1 X120.369 Y96.500 E24.97994
G1 X103.500 Y79.631 E25.76182
G1 X102.564 Y79.631 E25.79250
G1 X120.369 Y97.436 E26.61776
G1 X120.369 Y98.372 E26.64843
G1 X101.628 Y79.631 E27.51708
G1 X100.692 Y79.631 E27.54776
G1 X120.369 Y99.308 E28.45979
G1 X120.369 Y100.244 E28.49047
G1 X99.756 Y79.631 E29.44589
G1 X98.820 Y79.631 E29.47657
G1 X120.369 Y101.180 E30.47537
G1 X120.369 Y102.116 E30.50605
G1 X97.884 Y79.631 E31.54824
G1 X96.948 Y79.631 E31.57892
G1 X120.369 Y103.052 E32.66450
G1 X120.369 Y103.988 E32.69518
G1 X96.012 Y79.631 E33.82414
G1 X95.076 Y79.631 E33.85482
G1 X120.369 Y104.924 E35.02717
G1 X120.369 Y105.860 E35.05785
G1 X94.140 Y79.631 E36.27359
G1 X93.204 Y79.631 E36.30426
G1 X120.369 Y106.796 E37.56339
G1 X120.369 Y107.733 E37.59407
G1 X92.267 Y79.631 E38.89657
G1 X91.331 Y79.631 E38.92725
G1 X120.369 Y108.669 E40.27315
G1 X120.369 Y109.605 E40.30383
G1 X90.395 Y79.631 E41.69311
G1 X89.459 Y79.631 E41.72379
G1 X120.369 Y110.541 E43.15645
G1 X120.369 Y111.477 E43.18713
G1 X88.523 Y79.631 E44.66318
G1 X87.587 Y79.631 E44.69386
G1 X120.369 Y112.413 E46.21330
G1 X120.369 Y113.349 E46.24398
G1 X86.651 Y79.631 E47.80681
G1 X85.715 Y79.631 E47.83748
G1 X120.369 Y114.285 E49.44370
G1 X120.369 Y115.221 E49.47437
G1 X84.779 Y79.631 E51.12397
G1 X83.843 Y79.631 E51.15465
G1 X120.369 Y116.157 E52.84763
G1 X120.369 Y117.093 E52.87831
G1 X82.907 Y79.631 E54.61468
G1 X81.971 Y79.631 E54.64536
G1 X120.369 Y118.029 E56.42512
G1 X120.369 Y118.965 E56.45580
G1 X81.035 Y79.631 E58.27894
G1 X80.099 Y79.631 E58.30962
G1 X120.369 Y119.901 E60.17615
G1 X119.901 Y120.369 E60.19784
G1 X79.631 Y80.099 E62.06437
G1 X79.631 Y81.035 E62.09505
G1 X118.965 Y120.369 E63.91820
G1 X118.029 Y120.369 E63.94888
G1 X79.631 Y81.971 E65.72864
G1 X79.631 Y82.907 E65.75931
G1 X117.093 Y120.369 E67.49569
G1 X116.157 Y120.369 E67.52637
G1 X79.631 Y83.843 E69.21935
G1 X79.631 Y84.779 E69.25003
G1 X115.221 Y120.369 E70.89963
G1 X114.285 Y120.369 E70.93031
G1 X79.631 Y85.715 E72.53653
G1 X79.631 Y86.651 E72.56721
G1 X113.349 Y120.369 E74.13004
G1 X112.413 Y120.369 E74.16071
G1 X79.631 Y87.587 E75.68016
G1 X79.631 Y88.523 E75.71084
G1 X111.477 Y120.369 E77.18689
G1 X110.541 Y120.369 E77.21757
G1 X79.631 Y89.459 E78.65024
G1 X79.631 Y90.395 E78.68092
G1 X109.605 Y120.369 E80.07020
G1 X108.669 Y120.369 E80.10088
G1 X79.631 Y91.331 E81.44678
G1 X79.631 Y92.267 E81.47746
G1 X107.733 Y120.369 E82.77997
G1 X106.797 Y120.369 E82.81065
G1 X79.631 Y93.203 E84.06978
G1 X79.631 Y94.140 E84.10045
G1 X105.860 Y120.369 E85.31619
G1 X104.924 Y120.369 E85.34687
G1 X79.631 Y95.076 E86.51923
G1 X79.631 Y96.012 E86.54991
G1 X103.988 Y120.369 E87.67887
G1 X103.052 Y120.369 E87.70955
G1 X79.631 Y96.948 E88.79513
G1 X79.631 Y97.884 E88.82581
G1 X102.116 Y120.369 E89.86801
G1 X101.180 Y120.369 E89.89868
G1 X79.631 Y98.820 E90.89749
G1 X79.631 Y99.756 E90.92817
G1 X100.244 Y120.369 E91.88359
G1 X99.308 Y120.369 E91.91427
G1 X79.631 Y100.692 E92.82631
G1 X79.631 Y101.628 E92.85699
G1 X98.372 Y120.369 E93.72564
G1 X97.436 Y120.369 E93.75632
G1 X79.631 Y102.564 E94.58158
G1 X79.631 Y103.500 E94.61226
G1 X96.500 Y120.369 E95.39414
G1 X95.564 Y120.369 E95.42482
G1 X79.631 Y104.436 E96.16331
G1 X79.631 Y105.372 E96.19399
G1 X94.628 Y120.369 E96.88909
G1 X93.692 Y120.369 E96.91977
G1 X79.631 Y106.308 E97.57149
G1 X79.631 Y107.245 E97.60217
G1 X92.755 Y120.369 E98.21050
G1 X91.819 Y120.369 E98.24118
G1 X79.631 Y108.181 E98.80613
G1 X79.631 Y109.117 E98.83681
G1 X90.883 Y120.369 E99.35837
G1 X89.947 Y120.369 E99.38905
G1 X79.631 Y110.053 E99.86722
G1 X79.631 Y110.989 E99.89790
G1 X89.011 Y120.369 E100.33269
G1 X88.075 Y120.369 E100.36337
G1 X79.631 Y111.925 E100.75477
G1 X79.631 Y112.861 E100.78545
G1 X87.139 Y120.369 E101.13347
G1 X86.203 Y120.369 E101.16414
G1 X79.631 Y113.797 E101.46878
G1 X79.631 Y114.733 E101.49945
G1 X85.267 Y120.369 E101.76070
G1 X84.331 Y120.369 E101.79138
G1 X79.631 Y115.669 E102.00923
G1 X79.631 Y116.605 E102.03991
G1 X83.395 Y120.369 E102.21438
G1 X82.459 Y120.369 E102.24506
G1 X79.631 Y117.541 E102.37615
G1 X79.631 Y118.477 E102.40683
G1 X81.523 Y120.369 E102.49453
G1 X80.587 Y120.369 E102.52521
G1 X79.631 Y119.413 E102.56952
G1 X79.631 Y120.349 E102.60020
G1 X79.651 Y120.369 E102.60112
G1 F1800.000 E101.60112
G92 E0
G1 Z0.750 F7800.000
G1 X78.750 Y121.250 F7800.000
G1 E1.00000 F1800.000
G1 X78.750 Y78.750 E2.20250 F1800
G1 X121.250 Y78.750 E3.40501
G1 X121.250 Y121.250 E4.60751
G1 X78.825 Y121.250 E5.80789
G1 X78.250 Y121.750 F7800.000
G1 X78.250 Y78.250 E7.03869 F1800
G1 X121.750 Y78.250 E8.26949
G1 X121.750 Y121.750 E9.50029
G1 X78.325 Y121.750 E10.72896
G1 X77.750 Y122.250 F7800.000
G1 X77.750 Y77.750 E11.98806 F1260
G1 X122.250 Y77.750 E13.24715
G1 X122.250 Y122.250 E14.50624
G1 X77.825 Y122.250 E15.76321
G1 X78.000 Y121.817 F7800.000
G1 X79.107 Y79.866 F7800.000
G1 X79.866 Y79.107 E15.79497 F3600
G1 X80.605 Y79.107 E15.81683
G1 X79.107 Y80.605 E15.87951
G1 X79.107 Y81.344 E15.90137
G1 X81.344 Y79.107 E15.99497
G1 X82.084 Y79.107 E16.01684
G1 X79.107 Y82.084 E16.14136
G1 X79.107 Y82.823 E16.16323
G1 X82.823 Y79.107 E16.31867
G1 X83.562 Y79.107 E16.34054
G1 X79.107 Y83.562 E16.52691
G1 X79.107 Y84.301 E16.54877
G1 X84.301 Y79.107 E16.76607
G1 X85.041 Y79.107 E16.78793
G1 X79.107 Y85.041 E17.03615
G1 X79.107 Y85.780 E17.05801
G1 X85.780 Y79.107 E17.33715
G1 X86.519 Y79.107 E17.35902
G1 X79.107 Y86.519 E17.66908
G1 X79.107 Y87.258 E17.69094
G1 X87.258 Y79.107 E18.03193
G1 X87.997 Y79.107 E18.05379
G1 X79.107 Y87.997 E18.42570
G1 X79.107 Y88.737 E18.44756
G1 X88.737 Y79.107 E18.85039
G1 X89.476 Y79.107 E18.87226
G1 X79.107 Y89.476 E19.30601
G1 X79.107 Y90.215 E19.32788
G1 X90.215 Y79.107 E19.79255
G1 X90.954 Y79.107 E19.81442
G1 X79.107 Y90.954 E20.31002
G1 X79.107 Y91.694 E20.33189
G1 X91.694 Y79.107 E20.85841
G1 X92.433 Y79.107 E20.88027
G1 X79.107 Y92.433 E21.43772
G1 X79.107 Y93.172 E21.45958
G1 X93.172 Y79.107 E22.04795
G1 X93.911 Y79.107 E22.06982
G1 X79.107 Y93.911 E22.68911
G1 X79.107 Y94.650 E22.71098
G1 X94.650 Y79.107 E23.36119
G1 X95.390 Y79.107 E23.38306
G1 X79.107 Y95.390 E24.06419
G1 X79.107 Y96.129 E24.08606
G1 X96.129 Y79.107 E24.79812
G1 X96.868 Y79.107 E24.81999
G1 X79.107 Y96.868 E25.56297
G1 X79.107 Y97.607 E25.58483
G1 X97.607 Y79.107 E26.35874
G1 X98.347 Y79.107 E26.38061
G1 X79.107 Y98.347 E27.18544
G1 X79.107 Y99.086 E27.20730
G1 X99.086 Y79.107 E28.04306
G1 X99.825 Y79.107 E28.06492
G1 X79.107 Y99.825 E28.93160
G1 X79.107 Y100.564 E28.95346
G1 X100.564 Y79.107 E29.85106
G1 X101.304 Y79.107 E29.87293
G1 X79.107 Y101.304 E30.80145
G1 X79.107 Y102.043 E30.82332
G1 X102.043 Y79.107 E31.78276
G1 X102.782 Y79.107 E31.80463
G1 X79.107 Y102.782 E32.79499
G1 X79.107 Y103.521 E32.81686
G1 X103.521 Y79.107 E33.83815
G1 X104.260 Y79.107 E33.86002
G1 X79.107 Y104.260 E34.91223
G1 X79.107 Y105.000 E34.93410
G1 X105.000 Y79.107 E36.01723
G1 X105.739 Y79.107 E36.03910
G1 X79.107 Y105.739 E37.15316
G1 X79.107 Y106.478 E37.17503
G1 X106.478 Y79.107 E38.32001
G1 X107.217 Y79.107 E38.34187
G1 X79.107 Y107.217 E39.51778
G1 X79.107 Y107.957 E39.53965
G1 X107.957 Y79.107 E40.74648
G1 X108.696 Y79.107 E40.76834
G1 X79.107 Y108.696 E42.00609
G1 X79.107 Y109.435 E42.02796
G1 X109.435 Y79.107 E43.29663
G1 X110.174 Y79.107 E43.31850
G1 X79.107 Y110.174 E44.61810
G1 X79.107 Y110.913 E44.63996
G1 X110.913 Y79.107 E45.97049
G1 X111.653 Y79.107 E45.99235
G1 X79.107 Y111.653 E47.35380
G1 X79.107 Y112.392 E47.37566
G1 X112.392 Y79.107 E48.76803
G1 X113.131 Y79.107 E48.78990
G1 X79.107 Y113.131 E50.21319
G1 X79.107 Y113.870 E50.23505
G1 X113.870 Y79.107 E51.68927
G1 X114.610 Y79.107 E51.71113
G1 X79.107 Y114.610 E53.19627
G1 X79.107 Y115.349 E53.21813
G1 X115.349 Y79.107 E54.73419
G1 X116.088 Y79.107 E54.75606
G1 X79.107 Y116.088 E56.30304
G1 X79.107 Y116.827 E56.32491
G1 X116.827 Y79.107 E57.90281
G1 X117.567 Y79.107 E57.92468
G1 X79.107 Y117.567 E59.53351
G1 X79.107 Y118.306 E59.55537
G1 X118.306 Y79.107 E61.19513
G1 X119.045 Y79.107 E61.21699
G1 X79.107 Y119.045 E62.88767
G1 X79.107 Y119.784 E62.90953
G1 X119.784 Y79.107 E64.61113
G1 X120.523 Y79.107 E64.63300
G1 X79.107 Y120.523 E66.36552
G1 X79.476 Y120.893 E66.38098
G1 X120.893 Y79.476 E68.11351
G1 X120.893 Y80.216 E68.13537
G1 X80.216 Y120.893 E69.83698
G1 X80.955 Y120.893 E69.85884
G1 X120.893 Y80.955 E71.52953
G1 X120.893 Y81.694 E71.55139
G1 X81.694 Y120.893 E73.19115
G1 X82.433 Y120.893 E73.21302
G1 X120.893 Y82.433 E74.82185
G1 X120.893 Y83.173 E74.84372
G1 X83.173 Y120.893 E76.42163
G1 X83.912 Y120.893 E76.44350
G1 X120.893 Y83.912 E77.99048
G1 X120.893 Y84.651 E78.01235
G1 X84.651 Y120.893 E79.52842
G1 X85.390 Y120.893 E79.55028
G1 X120.893 Y85.390 E81.03543
G1 X120.893 Y86.129 E81.05729
G1 X86.129 Y120.893 E82.51151
G1 X86.869 Y120.893 E82.53338
G1 X120.893 Y86.869 E83.95667
G1 X120.893 Y87.608 E83.97854
G1 X87.608 Y120.893 E85.37091
G1 X88.347 Y120.893 E85.39278
G1 X120.893 Y88.347 E86.75423
G1 X120.893 Y89.086 E86.77610
G1 X89.086 Y120.893 E88.10663
G1 X89.826 Y120.893 E88.12849
G1 X120.893 Y89.826 E89.42810
G1 X120.893 Y90.565 E89.44996
G1 X90.565 Y120.893 E90.71864
G1 X91.304 Y120.893 E90.74051
G1 X120.893 Y91.304 E91.97827
G1 X120.893 Y92.043 E92.00013
G1 X92.043 Y120.893 E93.20697
G1 X92.783 Y120.893 E93.22884
G1 X120.893 Y92.783 E94.40475
G1 X120.893 Y93.522 E94.42661
G1 X93.522 Y120.893 E95.57160
G1 X94.261 Y120.893 E95.59347
G1 X120.893 Y94.261 E96.70754
G1 X120.893 Y95.000 E96.72940
G1 X95.000 Y120.893 E97.81255
G1 X95.739 Y120.893 E97.83441
G1 X120.893 Y95.739 E98.88663
G1 X120.893 Y96.479 E98.90850
G1 X96.479 Y120.893 E99.92980
G1 X97.218 Y120.893 E99.95166
G1 X120.893 Y97.218 E100.94204
G1 X120.893 Y97.957 E100.96390
G1 X97.957 Y120.893 E101.92335
G1 X98.696 Y120.893 E101.94522
G1 X120.893 Y98.696 E102.87375
G1 X120.893 Y99.436 E102.89561
G1 X99.436 Y120.893 E103.79322
G1 X100.175 Y120.893 E103.81508
G1 X120.893 Y100.175 E104.68177
G1 X120.893 Y100.914 E104.70363
G1 X100.914 Y120.893 E105.53939
G1 X101.653 Y120.893 E105.56126
G1 X120.893 Y101.653 E106.36609
G1 X120.893 Y102.392 E106.38796
G1 X102.392 Y120.893 E107.16187
G1 X103.132 Y120.893 E107.18374
G1 X120.893 Y103.132 E107.92673
G1 X120.893 Y103.871 E107.94859
G1 X103.871 Y120.893 E108.66066
G1 X104.610 Y120.893 E108.68253
G1 X120.893 Y104.610 E109.36367
G1 X120.893 Y105.349 E109.38554
G1 X105.349 Y120.893 E110.03576
G1 X106.089 Y120.893 E110.05762
G1 X120.893 Y106.089 E110.67692
G1 X120.893 Y106.828 E110.69879
G1 X106.828 Y120.893 E111.28716
G1 X107.567 Y120.893 E111.30903
G1 X120.893 Y107.567 E111.86648
G1 X120.893 Y108.306 E111.88834
G1 X108.306 Y120.893 E112.41487
G1 X109.045 Y120.893 E112.43674
G1 X120.893 Y109.045 E112.93234
G1 X120.893 Y109.785 E112.95421
G1 X109.785 Y120.893 E113.41889
G1 X110.524 Y120.893 E113.44076
G1 X120.893 Y110.524 E113.87452
G1 X120.893 Y111.263 E113.89638
G1 X111.263 Y120.893 E114.29922
G1 X112.002 Y120.893 E114.32109
G1 X120.893 Y112.002 E114.69300
G1 X120.893 Y112.742 E114.71487
G1 X112.742 Y120.893 E115.05586
G1 X113.481 Y120.893 E115.07772
G1 X120.893 Y113.481 E115.38779
G1 X120.893 Y114.220 E115.40966
G1 X114.220 Y120.893 E115.68880
G1 X114.959 Y120.893 E115.71067
G1 X120.893 Y114.959 E115.95889
G1 X120.893 Y115.699 E115.98075
G1 X115.699 Y120.893 E116.19805
G1 X116.438 Y120.893 E116.21992
G1 X120.893 Y116.438 E116.40629
G1 X120.893 Y117.177 E116.42816
G1 X117.177 Y120.893 E116.58361
G1 X117.916 Y120.893 E116.60548
G1 X120.893 Y117.916 E116.73000
G1 X120.893 Y118.655 E116.75187
G1 X118.655 Y120.893 E116.84548
G1 X119.395 Y120.893 E116.86734
G1 X120.893 Y119.395 E116.93002
G1 X120.893 Y120.134 E116.95189
G1 X120.134 Y120.893 E116.98365
G1 X120.873 Y120.893 E117.00552
G1 X120.893 Y120.873 E117.00635
G1 F1800.000 E116.00635
G92 E0
G1 Z1.150 F7800.000
G1 X121.250 Y121.250 F7800.000
G1 E1.00000 F1800.000
G1 X78.750 Y121.250 E2.20250 F1800
G1 X78.750 Y78.750 E3.40501
G1 X121.250 Y78.750 E4.60751
G1 X121.250 Y121.175 E5.80789
G1 X121.750 Y121.750 F7800.000
G1 X78.250 Y121.750 E7.03869 F1800
G1 X78.250 Y78.250 E8.26949
G1 X121.750 Y78.250 E9.50029
G1 X121.750 Y121.675 E10.72896
G1 X122.250 Y122.250 F7800.000
G1 X77.750 Y122.250 E11.98806 F1260
G1 X77.750 Y77.750 E13.24715
G1 X122.250 Y77.750 E14.50624
G1 X122.250 Y122.175 E15.76321
G1 X121.817 Y122.000 F7800.000
G1 X79.127 Y120.893 F7800.000
G1 X79.107 Y120.873 E15.76405 F3600
G1 X79.107 Y120.134 E15.78592
G1 X79.866 Y120.893 E15.81767
G1 X80.605 Y120.893 E15.83954
G1 X79.107 Y119.395 E15.90222
G1 X79.107 Y118.655 E15.92409
G1 X81.345 Y120.893 E16.01770
