; generated by Slic3r 1.0.1 on 2014-09-03 at 20:03:06

; layer_height = 0.4
; perimeters = 3
; top_solid_layers = 3
; bottom_solid_layers = 3
; fill_density = 0.9
; perimeter_speed = 30
; infill_speed = 60
; travel_speed = 130
; nozzle_diameter = 0.5
; filament_diameter = 3
; extrusion_multiplier = 0.95
; perimeters extrusion width = 0.50mm
; infill extrusion width = 0.53mm
; solid infill extrusion width = 0.53mm
; top infill extrusion width = 0.53mm
; first layer extrusion width = 1.00mm

G21 ; set units to millimeters
M107
M190 S60 ; wait for bed temperature to be reached
M104 S190 ; set temperature
M117 homing;
G28 ; home all axes
G1 Z5 F5000 ; lift nozzle
M177 opwarmen;
M109 S190 ; wait for temperature to be reached
G90 ; use absolute coordinates
G92 E0
M82 ; use absolute distances for extrusion
G1 F1800.000 E-1.50000
G92 E0
G1 Z0.500 F7800.000
G1 X72.630 Y72.630 F7800.000
G1 E1.50000 F1800.000
G1 X73.670 Y71.770 E1.58096 F540.000
G1 X74.860 Y71.130 E1.66201
G1 X76.160 Y70.740 E1.74343
G1 X77.500 Y70.610 E1.82419
G1 X122.500 Y70.610 E4.52366
G1 X123.840 Y70.740 E4.60442
G1 X125.140 Y71.130 E4.68584
G1 X126.330 Y71.770 E4.76690
G1 X127.370 Y72.630 E4.84785
G1 X128.230 Y73.670 E4.92881
G1 X128.870 Y74.860 E5.00986
G1 X129.260 Y76.160 E5.09128
G1 X129.390 Y77.500 E5.17204
G1 X129.390 Y122.500 E7.87152
G1 X129.260 Y123.840 E7.95228
G1 X128.870 Y125.140 E8.03370
G1 X128.230 Y126.330 E8.11475
G1 X127.370 Y127.370 E8.19571
G1 X126.330 Y128.230 E8.27666
G1 X125.140 Y128.870 E8.35772
G1 X123.840 Y129.260 E8.43914
G1 X122.500 Y129.390 E8.51990
G1 X77.500 Y129.390 E11.21937
G1 X76.160 Y129.260 E11.30013
G1 X74.860 Y128.870 E11.38155
G1 X73.670 Y128.230 E11.46260
G1 X72.630 Y127.370 E11.54356
G1 X71.770 Y126.330 E11.62451
G1 X71.130 Y125.140 E11.70557
G1 X70.740 Y123.840 E11.78699
G1 X70.610 Y122.500 E11.86775
G1 X70.610 Y77.500 E14.56722
G1 X70.740 Y76.160 E14.64798
G1 X71.130 Y74.860 E14.72940
G1 X71.770 Y73.670 E14.81046
G1 X72.545 Y72.733 E14.88338
G1 F1800.000 E13.38338
G92 E0
G1 X79.785 Y79.785 F7800.000
G1 E1.50000 F1800.000
G1 X120.215 Y79.785 E3.92528 F540.000
G1 X120.215 Y120.215 E6.35056
G1 X79.785 Y120.215 E8.77583
G1 X79.785 Y79.919 E11.19308
G1 X78.893 Y78.893 F7800.000
G1 X121.107 Y78.893 E13.72546 F540.000
G1 X121.107 Y121.107 E16.25784
G1 X78.893 Y121.107 E18.79022
G1 X78.893 Y79.027 E21.31457
G1 X78.000 Y78.000 F7800.000
G1 X122.000 Y78.000 E23.95405 F378.000
G1 X122.000 Y122.000 E26.59354
G1 X78.000 Y122.000 E29.23302
G1 X78.000 Y78.134 E31.86447
G1 X78.773 Y78.446 F7800.000
G1 X119.577 Y80.443 F7800.000
G1 X119.557 Y80.423 E31.86619 F1080.000
G1 X118.274 Y80.423 E31.94442
G1 X119.577 Y81.726 E32.05678
G1 X119.577 Y83.009 E32.13501
G1 X116.991 Y80.423 E32.35800
G1 X115.708 Y80.423 E32.43623
G1 X119.577 Y84.292 E32.76986
G1 X119.577 Y85.575 E32.84809
G1 X114.425 Y80.423 E33.29235
G1 X113.142 Y80.423 E33.37058
G1 X119.577 Y86.858 E33.92547
G1 X119.577 Y88.141 E34.00370
G1 X111.859 Y80.423 E34.66923
G1 X110.576 Y80.423 E34.74746
G1 X119.577 Y89.424 E35.52362
G1 X119.577 Y90.707 E35.60185
G1 X109.293 Y80.423 E36.48865
G1 X108.009 Y80.423 E36.56688
G1 X119.577 Y91.991 E37.56431
G1 X119.577 Y93.274 E37.64254
G1 X106.726 Y80.423 E38.75060
G1 X105.443 Y80.423 E38.82883
G1 X119.577 Y94.557 E40.04753
G1 X119.577 Y95.840 E40.12576
G1 X104.160 Y80.423 E41.45509
G1 X102.877 Y80.423 E41.53332
G1 X119.577 Y97.123 E42.97328
G1 X119.577 Y98.406 E43.05151
G1 X101.594 Y80.423 E44.60211
G1 X100.311 Y80.423 E44.68034
G1 X119.577 Y99.689 E46.34158
G1 X119.577 Y100.972 E46.41981
G1 X99.028 Y80.423 E48.19167
G1 X97.745 Y80.423 E48.26990
G1 X119.577 Y102.255 E50.15241
G1 X119.577 Y103.539 E50.23064
G1 X96.461 Y80.423 E52.22377
G1 X95.178 Y80.423 E52.30200
G1 X119.577 Y104.822 E54.40577
G1 X119.577 Y106.105 E54.48400
G1 X93.895 Y80.423 E56.69840
G1 X92.612 Y80.423 E56.77663
G1 X119.577 Y107.388 E59.10167
G1 X119.577 Y108.671 E59.17990
G1 X91.329 Y80.423 E61.61557
G1 X90.046 Y80.423 E61.69380
G1 X119.577 Y109.954 E64.24011
G1 X119.577 Y111.237 E64.31834
G1 X88.763 Y80.423 E66.97527
G1 X87.480 Y80.423 E67.05350
G1 X119.577 Y112.520 E69.82108
G1 X119.577 Y113.803 E69.89931
G1 X86.197 Y80.423 E72.77751
G1 X84.913 Y80.423 E72.85574
G1 X119.577 Y115.087 E75.84459
G1 X119.577 Y116.370 E75.92282
G1 X83.630 Y80.423 E79.02229
G1 X82.347 Y80.423 E79.10052
G1 X119.577 Y117.653 E82.31063
G1 X119.577 Y118.936 E82.38886
G1 X81.064 Y80.423 E85.70960
G1 X80.423 Y81.064 E85.76492
G1 X118.936 Y119.577 E89.08566
G1 X117.653 Y119.577 E89.16389
G1 X80.423 Y82.347 E92.37400
G1 X80.423 Y83.630 E92.45223
G1 X116.370 Y119.577 E95.55171
G1 X115.087 Y119.577 E95.62994
G1 X80.423 Y84.913 E98.61878
G1 X80.423 Y86.197 E98.69701
G1 X113.803 Y119.577 E101.57522
G1 X112.520 Y119.577 E101.65345
G1 X80.423 Y87.480 E104.42102
G1 X80.423 Y88.763 E104.49925
G1 X111.237 Y119.577 E107.15619
G1 X109.954 Y119.577 E107.23442
G1 X80.423 Y90.046 E109.78073
G1 X80.423 Y91.329 E109.85896
G1 X108.671 Y119.577 E112.29463
G1 X107.388 Y119.577 E112.37286
G1 X80.423 Y92.612 E114.69789
G1 X80.423 Y93.895 E114.77612
G1 X106.105 Y119.577 E116.99053
G1 X104.822 Y119.577 E117.06876
G1 X80.423 Y95.178 E119.17253
G1 X80.423 Y96.461 E119.25076
G1 X103.539 Y119.577 E121.24389
G1 X102.255 Y119.577 E121.32212
G1 X80.423 Y97.745 E123.20463
G1 X80.423 Y99.028 E123.28286
G1 X100.972 Y119.577 E125.05472
G1 X99.689 Y119.577 E125.13295
G1 X80.423 Y100.311 E126.79419
G1 X80.423 Y101.594 E126.87242
G1 X98.406 Y119.577 E128.42302
G1 X97.123 Y119.577 E128.50125
G1 X80.423 Y102.877 E129.94121
G1 X80.423 Y104.160 E130.01944
G1 X95.840 Y119.577 E131.34878
G1 X94.557 Y119.577 E131.42701
G1 X80.423 Y105.443 E132.64570
G1 X80.423 Y106.726 E132.72393
G1 X93.274 Y119.577 E133.83200
G1 X91.991 Y119.577 E133.91023
G1 X80.423 Y108.009 E134.90766
G1 X80.423 Y109.293 E134.98589
G1 X90.707 Y119.577 E135.87268
G1 X89.424 Y119.577 E135.95091
G1 X80.423 Y110.576 E136.72708
G1 X80.423 Y111.859 E136.80531
G1 X88.141 Y119.577 E137.47084
G1 X86.858 Y119.577 E137.54907
G1 X80.423 Y113.142 E138.10396
G1 X80.423 Y114.425 E138.18219
G1 X85.575 Y119.577 E138.62645
G1 X84.292 Y119.577 E138.70468
G1 X80.423 Y115.708 E139.03831
G1 X80.423 Y116.991 E139.11654
G1 X83.009 Y119.577 E139.33953
G1 X81.726 Y119.577 E139.41776
G1 X80.423 Y118.274 E139.53012
G1 X80.423 Y119.557 E139.60835
G1 X80.443 Y119.577 E139.61007
M104 S180 ; set temperature
G1 F1800.000 E138.11007
G92 E0
G1 Z0.900 F7800.000
G1 X78.750 Y121.250 F7800.000
G1 E1.50000 F1800.000
G1 X78.750 Y78.750 E2.64238 F1800
G1 X121.250 Y78.750 E3.78476
G1 X121.250 Y121.250 E4.92714
G1 X78.825 Y121.250 E6.06750
G1 X78.250 Y121.750 F7800.000
G1 X78.250 Y78.250 E7.23676 F1800
G1 X121.750 Y78.250 E8.40602
G1 X121.750 Y121.750 E9.57527
G1 X78.325 Y121.750 E10.74252
G1 X77.750 Y122.250 F7800.000
G1 X77.750 Y77.750 E11.93865 F1260
G1 X122.250 Y77.750 E13.13479
G1 X122.250 Y122.250 E14.33093
G1 X77.825 Y122.250 E15.52505
G1 X78.000 Y121.817 F7800.000
G1 X79.107 Y79.866 F7800.000
G1 X79.866 Y79.107 E15.55522 F3600
G1 X80.605 Y79.107 E15.57599
G1 X79.107 Y80.605 E15.63553
G1 X79.107 Y81.344 E15.65631
G1 X81.344 Y79.107 E15.74522
G1 X82.084 Y79.107 E15.76600
G1 X79.107 Y82.084 E15.88429
G1 X79.107 Y82.823 E15.90507
G1 X82.823 Y79.107 E16.05274
G1 X83.562 Y79.107 E16.07351
G1 X79.107 Y83.562 E16.25056
G1 X79.107 Y84.301 E16.27133
G1 X84.301 Y79.107 E16.47776
G1 X85.041 Y79.107 E16.49853
G1 X79.107 Y85.041 E16.73434
G1 X79.107 Y85.780 E16.75511
G1 X85.780 Y79.107 E17.02029
G1 X86.519 Y79.107 E17.04106
G1 X79.107 Y86.519 E17.33562
G1 X79.107 Y87.258 E17.35639
G1 X87.258 Y79.107 E17.68033
G1 X87.997 Y79.107 E17.70110
G1 X79.107 Y87.997 E18.05441
G1 X79.107 Y88.737 E18.07519
G1 X88.737 Y79.107 E18.45787
G1 X89.476 Y79.107 E18.47865
G1 X79.107 Y89.476 E18.89071
G1 X79.107 Y90.215 E18.91148
G1 X90.215 Y79.107 E19.35293
G1 X90.954 Y79.107 E19.37370
G1 X79.107 Y90.954 E19.84452
G1 X79.107 Y91.694 E19.86529
G1 X91.694 Y79.107 E20.36549
G1 X92.433 Y79.107 E20.38626
G1 X79.107 Y92.433 E20.91583
G1 X79.107 Y93.172 E20.93661
G1 X93.172 Y79.107 E21.49556
G1 X93.911 Y79.107 E21.51633
G1 X79.107 Y93.911 E22.10465
G1 X79.107 Y94.650 E22.12543
G1 X94.650 Y79.107 E22.74313
G1 X95.390 Y79.107 E22.76390
G1 X79.107 Y95.390 E23.41098
G1 X79.107 Y96.129 E23.43176
G1 X96.129 Y79.107 E24.10821
G1 X96.868 Y79.107 E24.12899
G1 X79.107 Y96.868 E24.83482
G1 X79.107 Y97.607 E24.85559
G1 X97.607 Y79.107 E25.59080
G1 X98.347 Y79.107 E25.61158
G1 X79.107 Y98.347 E26.37617
G1 X79.107 Y99.086 E26.39694
G1 X99.086 Y79.107 E27.19090
G1 X99.825 Y79.107 E27.21168
G1 X79.107 Y99.825 E28.03502
G1 X79.107 Y100.564 E28.05579
G1 X100.564 Y79.107 E28.90851
G1 X101.304 Y79.107 E28.92928
G1 X79.107 Y101.304 E29.81138
G1 X79.107 Y102.043 E29.83215
G1 X102.043 Y79.107 E30.74362
G1 X102.782 Y79.107 E30.76439
G1 X79.107 Y102.782 E31.70524
G1 X79.107 Y103.521 E31.72602
G1 X103.521 Y79.107 E32.69624
G1 X104.260 Y79.107 E32.71702
G1 X79.107 Y104.260 E33.71662
G1 X79.107 Y105.000 E33.73739
G1 X105.000 Y79.107 E34.76637
G1 X105.739 Y79.107 E34.78714
G1 X79.107 Y105.739 E35.84550
G1 X79.107 Y106.478 E35.86627
G1 X106.478 Y79.107 E36.95401
G1 X107.217 Y79.107 E36.97478
G1 X79.107 Y107.217 E38.09189
G1 X79.107 Y107.957 E38.11266
G1 X107.957 Y79.107 E39.25915
G1 X108.696 Y79.107 E39.27992
G1 X79.107 Y108.696 E40.45579
G1 X79.107 Y109.435 E40.47656
G1 X109.435 Y79.107 E41.68180
G1 X110.174 Y79.107 E41.70258
G1 X79.107 Y110.174 E42.93719
G1 X79.107 Y110.913 E42.95797
G1 X110.913 Y79.107 E44.22196
G1 X111.653 Y79.107 E44.24273
G1 X79.107 Y111.653 E45.53611
G1 X79.107 Y112.392 E45.55688
G1 X112.392 Y79.107 E46.87963
G1 X113.131 Y79.107 E46.90040
G1 X79.107 Y113.131 E48.25253
G1 X79.107 Y113.870 E48.27330
G1 X113.870 Y79.107 E49.65480
G1 X114.610 Y79.107 E49.67557
G1 X79.107 Y114.610 E51.08645
G1 X79.107 Y115.349 E51.10723
G1 X115.349 Y79.107 E52.54748
G1 X116.088 Y79.107 E52.56826
G1 X79.107 Y116.088 E54.03789
G1 X79.107 Y116.827 E54.05866
G1 X116.827 Y79.107 E55.55767
G1 X117.567 Y79.107 E55.57845
G1 X79.107 Y117.567 E57.10683
G1 X79.107 Y118.306 E57.12761
G1 X118.306 Y79.107 E58.68537
G1 X119.045 Y79.107 E58.70614
G1 X79.107 Y119.045 E60.29328
G1 X79.107 Y119.784 E60.31406
G1 X119.784 Y79.107 E61.93057
G1 X120.523 Y79.107 E61.95135
G1 X79.107 Y120.523 E63.59724
G1 X79.476 Y120.893 E63.61193
G1 X120.893 Y79.476 E65.25783
G1 X120.893 Y80.216 E65.27860
G1 X80.216 Y120.893 E66.89513
G1 X80.955 Y120.893 E66.91590
G1 X120.893 Y80.955 E68.50305
G1 X120.893 Y81.694 E68.52382
G1 X81.694 Y120.893 E70.08159
G1 X82.433 Y120.893 E70.10236
G1 X120.893 Y82.433 E71.63076
G1 X120.893 Y83.173 E71.65153
G1 X83.173 Y120.893 E73.15055
G1 X83.912 Y120.893 E73.17132
G1 X120.893 Y83.912 E74.64096
G1 X120.893 Y84.651 E74.66173
G1 X84.651 Y120.893 E76.10200
G1 X85.390 Y120.893 E76.12277
G1 X120.893 Y85.390 E77.53365
G1 X120.893 Y86.129 E77.55443
G1 X86.129 Y120.893 E78.93594
G1 X86.869 Y120.893 E78.95671
G1 X120.893 Y86.869 E80.30884
G1 X120.893 Y87.608 E80.32961
G1 X87.608 Y120.893 E81.65237
G1 X88.347 Y120.893 E81.67314
G1 X120.893 Y88.347 E82.96652
G1 X120.893 Y89.086 E82.98729
G1 X89.086 Y120.893 E84.25129
G1 X89.826 Y120.893 E84.27207
G1 X120.893 Y89.826 E85.50669
G1 X120.893 Y90.565 E85.52746
G1 X90.565 Y120.893 E86.73271
G1 X91.304 Y120.893 E86.75348
G1 X120.893 Y91.304 E87.92935
G1 X120.893 Y92.043 E87.95013
G1 X92.043 Y120.893 E89.09662
G1 X92.783 Y120.893 E89.11739
G1 X120.893 Y92.783 E90.23451
G1 X120.893 Y93.522 E90.25528
G1 X93.522 Y120.893 E91.34302
G1 X94.261 Y120.893 E91.36380
G1 X120.893 Y94.261 E92.42216
G1 X120.893 Y95.000 E92.44293
G1 X95.000 Y120.893 E93.47192
G1 X95.739 Y120.893 E93.49269
G1 X120.893 Y95.739 E94.49230
G1 X120.893 Y96.479 E94.51307
G1 X96.479 Y120.893 E95.48331
G1 X97.218 Y120.893 E95.50408
G1 X120.893 Y97.218 E96.44493
G1 X120.893 Y97.957 E96.46571
G1 X97.957 Y120.893 E97.37719
G1 X98.696 Y120.893 E97.39796
G1 X120.893 Y98.696 E98.28006
G1 X120.893 Y99.436 E98.30083
G1 X99.436 Y120.893 E99.15356
G1 X100.175 Y120.893 E99.17433
G1 X120.893 Y100.175 E99.99768
G1 X120.893 Y100.914 E100.01845
G1 X100.914 Y120.893 E100.81242
G1 X101.653 Y120.893 E100.83319
G1 X120.893 Y101.653 E101.59779
G1 X120.893 Y102.392 E101.61856
G1 X102.392 Y120.893 E102.35378
G1 X103.132 Y120.893 E102.37455
G1 X120.893 Y103.132 E103.08039
G1 X120.893 Y103.871 E103.10116
G1 X103.871 Y120.893 E103.77763
G1 X104.610 Y120.893 E103.79840
G1 X120.893 Y104.610 E104.44549
G1 X120.893 Y105.349 E104.46626
G1 X105.349 Y120.893 E105.08397
G1 X106.089 Y120.893 E105.10474
G1 X120.893 Y106.089 E105.69307
G1 X120.893 Y106.828 E105.71385
G1 X106.828 Y120.893 E106.27280
G1 X107.567 Y120.893 E106.29358
G1 X120.893 Y107.567 E106.82316
G1 X120.893 Y108.306 E106.84393
G1 X108.306 Y120.893 E107.34413
G1 X109.045 Y120.893 E107.36490
G1 X120.893 Y109.045 E107.83573
G1 X120.893 Y109.785 E107.85650
G1 X109.785 Y120.893 E108.29795
G1 X110.524 Y120.893 E108.31872
G1 X120.893 Y110.524 E108.73079
G1 X120.893 Y111.263 E108.75157
G1 X111.263 Y120.893 E109.13426
G1 X112.002 Y120.893 E109.15503
G1 X120.893 Y112.002 E109.50835
G1 X120.893 Y112.742 E109.52912
G1 X112.742 Y120.893 E109.85306
G1 X113.481 Y120.893 E109.87384
G1 X120.893 Y113.481 E110.16840
G1 X120.893 Y114.220 E110.18917
G1 X114.220 Y120.893 E110.45436
G1 X114.959 Y120.893 E110.47513
G1 X120.893 Y114.959 E110.71094
G1 X120.893 Y115.699 E110.73171
G1 X115.699 Y120.893 E110.93815
G1 X116.438 Y120.893 E110.95892
G1 X120.893 Y116.438 E111.13598
G1 X120.893 Y117.177 E111.15675
G1 X117.177 Y120.893 E111.30443
G1 X117.916 Y120.893 E111.32520
G1 X120.893 Y117.916 E111.44350
G1 X120.893 Y118.655 E111.46428
G1 X118.655 Y120.893 E111.55320
G1 X119.395 Y120.893 E111.57397
G1 X120.893 Y119.395 E111.63352
G1 X120.893 Y120.134 E111.65430
G1 X120.134 Y120.893 E111.68447
G1 X120.873 Y120.893 E111.70524
G1 X120.893 Y120.873 E111.70604
G1 F1800.000 E110.20604
G92 E0
G1 Z1.300 F7800.000
G1 X121.250 Y121.250 F7800.000
G1 E1.50000 F1800.000
G1 X78.750 Y121.250 E2.64238 F1800
G1 X78.750 Y78.750 E3.78476
G1 X121.250 Y78.750 E4.92714
G1 X121.250 Y121.175 E6.06750
G1 X121.750 Y121.750 F7800.000
G1 X78.250 Y121.750 E7.23676 F1800
G1 X78.250 Y78.250 E8.40602
G1 X121.750 Y78.250 E9.57527
G1 X121.750 Y121.675 E10.74252
G1 X122.250 Y122.250 F7800.000
G1 X77.750 Y122.250 E11.93865 F1260
G1 X77.750 Y77.750 E13.13479
G1 X122.250 Y77.750 E14.33093
G1 X122.250 Y122.175 E15.52505
G1 X121.817 Y122.000 F7800.000
G1 X79.127 Y120.893 F7800.000
G1 X79.107 Y120.873 E15.52585 F3600
G1 X79.107 Y120.134 E15.54662
G1 X79.866 Y120.893 E15.57679
G1 X80.605 Y120.893 E15.59756
G1 X79.107 Y119.395 E15.65711
G1 X79.107 Y118.655 E15.67789
G1 X81.345 Y120.893 E15.76681
G1 X82.084 Y120.893 E15.78758
G1 X79.107 Y117.916 E15.90589
G1 X79.107 Y117.177 E15.92666
G1 X82.823 Y120.893 E16.07434
G1 X83.562 Y120.893 E16.09511
G1 X79.107 Y116.438 E16.27217
G1 X79.107 Y115.699 E16.29294
G1 X84.301 Y120.893 E16.49937
G1 X85.041 Y120.893 E16.52014
G1 X79.107 Y114.959 E16.75595
G1 X79.107 Y114.220 E16.77673
G1 X85.780 Y120.893 E17.04191
G1 X86.519 Y120.893 E17.06269
G1 X79.107 Y113.481 E17.35725
G1 X79.107 Y112.742 E17.37802
G1 X87.258 Y120.893 E17.70196
G1 X87.998 Y120.893 E17.72274
G1 X79.107 Y112.002 E18.07605
G1 X79.107 Y111.263 E18.09683
G1 X88.737 Y120.893 E18.47952
G1 X89.476 Y120.893 E18.50029
G1 X79.107 Y110.524 E18.91237
G1 X79.107 Y109.785 E18.93314
G1 X90.215 Y120.893 E19.37459
G1 X90.955 Y120.893 E19.39536
G1 X79.107 Y109.045 E19.86618
G1 X79.107 Y108.306 E19.88696
G1 X91.694 Y120.893 E20.38716
G1 X92.433 Y120.893 E20.40793
G1 X79.107 Y107.567 E20.93751
G1 X79.107 Y106.828 E20.95828
G1 X93.172 Y120.893 E21.51724
G1 X93.911 Y120.893 E21.53801
G1 X79.107 Y106.089 E22.12634
G1 X79.107 Y105.349 E22.14712
G1 X94.651 Y120.893 E22.76483
G1 X95.390 Y120.893 E22.78560
G1 X79.107 Y104.610 E23.43269
G1 X79.107 Y103.871 E23.45346
G1 X96.129 Y120.893 E24.12992
G1 X96.868 Y120.893 E24.15069
G1 X79.107 Y103.132 E24.85654
G1 X79.107 Y102.392 E24.87731
G1 X97.608 Y120.893 E25.61253
G1 X98.347 Y120.893 E25.63330
G1 X79.107 Y101.653 E26.39789
G1 X79.107 Y100.914 E26.41866
