; generated by Slic3r 1.0.1 on 2014-09-04 at 15:32:47

; layer_height = 0.4
; perimeters = 3
; top_solid_layers = 3
; bottom_solid_layers = 3
; fill_density = 0.9
; perimeter_speed = 30
; infill_speed = 60
; travel_speed = 130
; nozzle_diameter = 0.5
; filament_diameter = 3
; extrusion_multiplier = 0.95
; perimeters extrusion width = 0.50mm
; infill extrusion width = 0.53mm
; solid infill extrusion width = 0.53mm
; top infill extrusion width = 0.53mm
; first layer extrusion width = 1.00mm

G21 ; set units to millimeters
M107
M190 S60 ; wait for bed temperature to be reached
M104 S190 ; set temperature
M117 homing;
G28 ; home all axes
G1 Z5 F5000 ; lift nozzle
M177 opwarmen;
M109 S190 ; wait for temperature to be reached
G90 ; use absolute coordinates
G92 E0
M82 ; use absolute distances for extrusion
G1 F1800.000 E-1.50000
G92 E0
G1 Z0.500 F7800.000
G1 X89.260 Y87.060 F7800.000
G1 E1.50000 F1800.000
G1 X90.080 Y86.360 E1.56468 F540.000
G1 X90.990 Y85.790 E1.62909
G1 X93.770 Y84.370 E1.81635
G1 X94.770 Y83.960 E1.88119
G1 X95.820 Y83.700 E1.94608
G1 X98.870 Y83.210 E2.13139
G1 X99.960 Y83.130 E2.19695
G1 X101.080 Y83.210 E2.26431
G1 X104.160 Y83.700 E2.45140
G1 X105.220 Y83.960 E2.51687
G1 X106.220 Y84.370 E2.58170
G1 X109.000 Y85.790 E2.76897
G1 X109.910 Y86.360 E2.83338
G1 X110.730 Y87.060 E2.89806
G1 X112.930 Y89.260 E3.08470
G1 X113.630 Y90.080 E3.14937
G1 X114.200 Y90.990 E3.21379
G1 X115.620 Y93.770 E3.40105
G1 X116.030 Y94.770 E3.46589
G1 X116.290 Y95.830 E3.53136
G1 X116.780 Y98.910 E3.71845
G1 X116.860 Y99.990 E3.78341
G1 X116.780 Y101.070 E3.84837
G1 X116.290 Y104.160 E4.03605
G1 X116.030 Y105.210 E4.10094
G1 X115.620 Y106.220 E4.16633
G1 X114.200 Y109.000 E4.35360
G1 X113.630 Y109.910 E4.41801
G1 X112.930 Y110.730 E4.48269
G1 X110.730 Y112.930 E4.66933
G1 X109.910 Y113.630 E4.73400
G1 X109.000 Y114.200 E4.79842
G1 X106.220 Y115.620 E4.98568
G1 X105.210 Y116.030 E5.05107
G1 X104.160 Y116.290 E5.11596
G1 X101.070 Y116.780 E5.30364
G1 X99.990 Y116.860 E5.36861
G1 X98.910 Y116.780 E5.43357
G1 X95.830 Y116.290 E5.62066
G1 X94.770 Y116.030 E5.68613
G1 X93.770 Y115.620 E5.75097
G1 X90.990 Y114.200 E5.93823
G1 X90.080 Y113.630 E6.00264
G1 X89.260 Y112.930 E6.06732
G1 X87.060 Y110.730 E6.25396
G1 X86.360 Y109.910 E6.31863
G1 X85.790 Y109.000 E6.38305
G1 X84.370 Y106.220 E6.57031
G1 X83.960 Y105.220 E6.63515
G1 X83.700 Y104.160 E6.70062
G1 X83.210 Y101.080 E6.88771
G1 X83.130 Y100.000 E6.95267
G1 X83.210 Y98.920 E7.01764
G1 X83.700 Y95.830 E7.20532
G1 X83.960 Y94.780 E7.27021
G1 X84.370 Y93.770 E7.33560
G1 X85.790 Y90.990 E7.52286
G1 X86.360 Y90.080 E7.58727
G1 X87.060 Y89.260 E7.65195
G1 X89.165 Y87.155 E7.83056
G1 F1800.000 E6.33056
G92 E0
G1 X97.112 Y96.025 F7800.000
G1 E1.50000 F1800.000
G1 X98.482 Y95.327 E1.59223 F540.000
G1 X100.000 Y95.086 E1.68445
G1 X101.518 Y95.327 E1.77668
G1 X102.888 Y96.025 E1.86891
G1 X103.975 Y97.112 E1.96113
G1 X104.673 Y98.482 E2.05336
G1 X104.914 Y100.000 E2.14558
G1 X104.673 Y101.519 E2.23781
G1 X103.975 Y102.888 E2.33004
G1 X102.888 Y103.975 E2.42226
G1 X101.519 Y104.673 E2.51448
G1 X100.000 Y104.914 E2.60671
G1 X98.482 Y104.673 E2.69894
G1 X97.112 Y103.975 E2.79117
G1 X96.025 Y102.888 E2.88339
G1 X95.327 Y101.518 E2.97562
G1 X95.086 Y100.000 E3.06784
G1 X95.327 Y98.482 E3.16007
G1 X96.025 Y97.112 E3.25230
G1 X97.017 Y96.119 E3.33649
G1 X97.643 Y96.756 F7800.000
G1 X98.761 Y96.186 E3.41175 F540.000
G1 X100.000 Y95.990 E3.48702
G1 X101.239 Y96.186 E3.56228
G1 X102.357 Y96.756 E3.63754
G1 X103.244 Y97.643 E3.71280
G1 X103.814 Y98.761 E3.78807
G1 X104.010 Y100.000 E3.86333
G1 X103.814 Y101.239 E3.93859
G1 X103.244 Y102.357 E4.01386
G1 X102.357 Y103.244 E4.08912
G1 X101.239 Y103.814 E4.16437
G1 X100.000 Y104.010 E4.23964
G1 X98.761 Y103.814 E4.31490
G1 X97.643 Y103.244 E4.39017
G1 X96.756 Y102.357 E4.46543
G1 X96.186 Y101.239 E4.54069
G1 X95.990 Y100.000 E4.61596
G1 X96.186 Y98.761 E4.69122
G1 X96.756 Y97.643 E4.76648
G1 X97.548 Y96.850 E4.83371
G1 X98.174 Y97.487 F7800.000
G1 X99.040 Y97.046 E4.89201 F540.000
G1 X100.000 Y96.894 E4.95031
G1 X100.960 Y97.046 E5.00861
G1 X101.826 Y97.487 E5.06691
G1 X102.513 Y98.174 E5.12521
G1 X102.954 Y99.040 E5.18351
G1 X103.106 Y100.000 E5.24180
G1 X102.954 Y100.960 E5.30010
G1 X102.513 Y101.826 E5.35840
G1 X101.826 Y102.513 E5.41670
G1 X100.960 Y102.954 E5.47500
G1 X100.000 Y103.106 E5.53330
G1 X99.040 Y102.954 E5.59160
G1 X98.174 Y102.513 E5.64990
G1 X97.487 Y101.826 E5.70820
G1 X97.046 Y100.960 E5.76650
G1 X96.894 Y100.000 E5.82480
G1 X97.046 Y99.040 E5.88310
G1 X97.487 Y98.174 E5.94140
G1 X98.080 Y97.582 E5.99166
G1 X98.127 Y96.596 F7800.000
G1 X95.497 Y93.802 F7800.000
G1 X97.633 Y92.714 E6.13545 F540.000
G1 X100.000 Y92.339 E6.27924
G1 X102.367 Y92.714 E6.42302
G1 X104.503 Y93.802 E6.56681
G1 X106.198 Y95.497 E6.71060
G1 X107.286 Y97.633 E6.85439
G1 X107.661 Y100.000 E6.99817
G1 X107.286 Y102.367 E7.14196
G1 X106.198 Y104.503 E7.28575
G1 X104.503 Y106.198 E7.42953
G1 X102.367 Y107.286 E7.57332
G1 X100.000 Y107.661 E7.71711
G1 X97.633 Y107.286 E7.86090
G1 X95.497 Y106.198 E8.00468
G1 X93.802 Y104.503 E8.14847
G1 X92.714 Y102.367 E8.29226
G1 X92.339 Y100.000 E8.43605
G1 X92.714 Y97.633 E8.57983
G1 X93.802 Y95.497 E8.72362
G1 X95.402 Y93.897 E8.85938
G1 X94.966 Y93.071 F7800.000
G1 X97.353 Y91.854 E9.02013 F540.000
G1 X100.000 Y91.435 E9.18088
G1 X102.647 Y91.854 E9.34163
G1 X105.034 Y93.071 E9.50238
G1 X106.929 Y94.966 E9.66313
G1 X108.146 Y97.353 E9.82388
G1 X108.565 Y100.000 E9.98463
G1 X108.146 Y102.647 E10.14538
G1 X106.929 Y105.034 E10.30613
G1 X105.034 Y106.929 E10.46688
G1 X102.647 Y108.146 E10.62763
G1 X100.000 Y108.565 E10.78838
G1 X97.353 Y108.146 E10.94913
G1 X94.966 Y106.929 E11.10989
G1 X93.071 Y105.034 E11.27064
G1 X91.854 Y102.647 E11.43139
G1 X91.435 Y100.000 E11.59214
G1 X91.854 Y97.353 E11.75289
G1 X93.071 Y94.966 E11.91364
G1 X94.871 Y93.166 E12.06636
G1 X94.434 Y92.340 F7800.000
G1 X97.074 Y90.995 E12.24407 F378.000
G1 X100.000 Y90.531 E12.42179
G1 X102.926 Y90.995 E12.59950
G1 X105.566 Y92.340 E12.77721
G1 X107.660 Y94.434 E12.95493
G1 X109.005 Y97.074 E13.13264
G1 X109.469 Y100.000 E13.31036
G1 X109.005 Y102.926 E13.48807
G1 X107.660 Y105.566 E13.66578
G1 X105.566 Y107.660 E13.84350
G1 X102.926 Y109.005 E14.02121
G1 X100.000 Y109.469 E14.19893
G1 X97.074 Y109.005 E14.37664
G1 X94.434 Y107.660 E14.55436
G1 X92.340 Y105.566 E14.73207
G1 X90.995 Y102.926 E14.90978
G1 X90.531 Y100.000 E15.08750
G1 X90.995 Y97.074 E15.26521
G1 X92.340 Y94.434 E15.44293
G1 X94.340 Y92.434 E15.61261
G1 X95.230 Y92.745 F7800.000
G1 X104.095 Y94.309 F7800.000
G1 X105.691 Y95.905 E15.75252 F1080.000
G1 F1800.000 E14.25252
G92 E0
G1 X93.260 Y101.741 F7800.000
G1 E1.50000 F1800.000
G1 X98.259 Y106.740 E1.93835 F1080.000
G1 X97.933 Y105.109 E2.04151
G1 X99.810 Y106.986 E2.20609
G1 X99.629 Y105.500 E2.29887
G1 X100.988 Y106.859 E2.41805
G1 X102.114 Y106.681 E2.48876
G1 X100.857 Y105.423 E2.59904
G1 X101.921 Y105.183 E2.66671
G1 X102.991 Y106.253 E2.76051
G1 X103.856 Y105.813 E2.82066
G1 X102.786 Y104.743 E2.91446
G1 X103.556 Y104.209 E2.97260
G1 X104.567 Y105.219 E3.06119
G1 X105.219 Y104.567 E3.11839
G1 X104.209 Y103.556 E3.20699
G1 X104.743 Y102.786 E3.26512
G1 X105.813 Y103.856 E3.35893
G1 X106.253 Y102.991 E3.41908
G1 X105.183 Y101.921 E3.51288
G1 X105.423 Y100.857 E3.58055
G1 X106.681 Y102.114 E3.69083
G1 X106.859 Y100.988 E3.76153
G1 X105.500 Y99.629 E3.88072
G1 X105.109 Y97.933 E3.98864
G1 X106.986 Y99.810 E4.15322
G1 X106.740 Y98.259 E4.25053
G1 X101.741 Y93.260 E4.68889
G1 X102.067 Y94.891 E4.79204
G1 X100.190 Y93.014 E4.95662
G1 X99.012 Y93.140 E5.03010
G1 X100.371 Y94.500 E5.14928
G1 X99.143 Y94.577 E5.22556
G1 X97.886 Y93.319 E5.33584
G1 X97.009 Y93.747 E5.39633
G1 X98.079 Y94.817 E5.49014
G1 X97.214 Y95.257 E5.55028
G1 X96.144 Y94.187 E5.64409
G1 X95.433 Y94.781 E5.70152
G1 X96.444 Y95.791 E5.79012
G1 X95.791 Y96.444 E5.84732
G1 X94.781 Y95.433 E5.93592
G1 X94.187 Y96.144 E5.99335
G1 X95.257 Y97.214 E6.08716
G1 X94.817 Y98.079 E6.14731
G1 X93.747 Y97.009 E6.24111
G1 X93.319 Y97.886 E6.30161
G1 X94.577 Y99.143 E6.41188
G1 X94.500 Y100.371 E6.48816
G1 X93.140 Y99.012 E6.60734
G1 X93.014 Y100.190 E6.68082
G1 X94.891 Y102.067 E6.84540
G1 X94.309 Y104.095 E6.97618
G1 X95.905 Y105.691 E7.11609
M106 S255
M104 S180 ; set temperature
G1 F1800.000 E5.61609
G92 E0
G1 Z0.900 F7800.000
G1 X97.728 Y103.127 F7800.000
G1 E1.50000 F1800.000
G1 X96.873 Y102.272 E1.53251 F846.709
G1 X96.324 Y101.195 E1.56502
G1 X96.290 Y100.985 E1.57072
G1 X96.134 Y100.000 E1.59753
G1 X96.324 Y98.805 E1.63003
G1 X96.873 Y97.728 E1.66255
G1 X97.728 Y96.873 E1.69505
G1 X98.805 Y96.324 E1.72756
G1 X99.790 Y96.168 E1.75437
G1 X100.000 Y96.134 E1.76007
G1 X101.195 Y96.324 E1.79258
G1 X102.272 Y96.873 E1.82509
G1 X103.127 Y97.728 E1.85759
G1 X103.676 Y98.805 E1.89010
G1 X103.866 Y100.000 E1.92261
G1 X103.676 Y101.195 E1.95512
G1 X103.127 Y102.272 E1.98763
G1 X102.272 Y103.127 E2.02014
G1 X101.195 Y103.676 E2.05265
G1 X100.000 Y103.866 E2.08515
G1 X98.805 Y103.676 E2.11767
G1 X97.795 Y103.161 E2.14816
G1 X98.025 Y102.718 F7800.000
G1 X97.282 Y101.975 E2.17641 F846.709
G1 X96.805 Y101.038 E2.20466
G1 X96.784 Y100.907 E2.20823
G1 X96.641 Y100.000 E2.23291
G1 X96.805 Y98.962 E2.26116
G1 X97.282 Y98.025 E2.28941
G1 X98.025 Y97.282 E2.31766
G1 X98.962 Y96.805 E2.34592
G1 X99.869 Y96.661 E2.37059
G1 X100.000 Y96.641 E2.37417
G1 X101.038 Y96.805 E2.40242
G1 X101.975 Y97.282 E2.43067
G1 X102.718 Y98.025 E2.45892
G1 X103.195 Y98.962 E2.48717
G1 X103.359 Y100.000 E2.51542
G1 X103.195 Y101.038 E2.54367
G1 X102.718 Y101.975 E2.57193
G1 X101.975 Y102.718 E2.60018
G1 X101.038 Y103.195 E2.62843
G1 X100.000 Y103.359 E2.65668
G1 X98.962 Y103.195 E2.68493
G1 X98.092 Y102.752 E2.71117
G1 X98.323 Y102.308 F7800.000
G1 X97.692 Y101.677 E2.73516 F846.709
G1 X97.287 Y100.882 E2.75915
G1 X97.278 Y100.828 E2.76060
G1 X97.147 Y100.000 E2.78315
G1 X97.287 Y99.118 E2.80714
G1 X97.692 Y98.323 E2.83114
G1 X98.323 Y97.692 E2.85513
G1 X99.118 Y97.287 E2.87912
G1 X100.000 Y97.147 E2.90312
G1 X100.828 Y97.278 E2.92567
G1 X100.882 Y97.287 E2.92711
G1 X101.677 Y97.692 E2.95111
G1 X102.308 Y98.323 E2.97510
G1 X102.713 Y99.118 E2.99909
G1 X102.853 Y100.000 E3.02309
G1 X102.713 Y100.882 E3.04708
G1 X102.308 Y101.677 E3.07108
G1 X101.677 Y102.308 E3.09507
G1 X100.882 Y102.713 E3.11906
G1 X100.000 Y102.853 E3.14306
G1 X99.118 Y102.713 E3.16705
G1 X98.390 Y102.342 E3.18903
G1 X97.856 Y102.487 F7800.000
G1 X94.907 Y107.010 F7800.000
G1 X92.990 Y105.093 E3.26190 F846.709
G1 X91.760 Y102.677 E3.33476
G1 X91.336 Y100.000 E3.40763
G1 X91.760 Y97.323 E3.48049
G1 X92.990 Y94.907 E3.55336
G1 X94.907 Y92.990 E3.62622
G1 X97.323 Y91.760 E3.69909
G1 X100.000 Y91.336 E3.77196
G1 X102.677 Y91.760 E3.84482
G1 X105.093 Y92.990 E3.91769
G1 X107.010 Y94.907 E3.99055
G1 X108.240 Y97.323 E4.06342
G1 X108.664 Y100.000 E4.13628
G1 X108.240 Y102.677 E4.20915
G1 X107.010 Y105.093 E4.28202
G1 X105.093 Y107.010 E4.35488
G1 X102.677 Y108.240 E4.42775
G1 X100.000 Y108.664 E4.50061
G1 X97.323 Y108.240 E4.57348
G1 X94.974 Y107.044 E4.64433
G1 X94.610 Y107.419 F7800.000
G1 X92.581 Y105.390 E4.72145 F846.709
G1 X91.278 Y102.834 E4.79857
G1 X90.829 Y100.000 E4.87570
G1 X91.278 Y97.166 E4.95282
G1 X92.581 Y94.610 E5.02994
G1 X94.610 Y92.581 E5.10707
G1 X97.166 Y91.278 E5.18419
G1 X100.000 Y90.829 E5.26131
G1 X102.834 Y91.278 E5.33844
G1 X105.390 Y92.581 E5.41556
G1 X107.419 Y94.610 E5.49268
G1 X108.722 Y97.166 E5.56980
G1 X109.171 Y100.000 E5.64693
G1 X108.722 Y102.834 E5.72405
G1 X107.419 Y105.390 E5.80117
G1 X105.390 Y107.419 E5.87830
G1 X102.834 Y108.722 E5.95542
G1 X100.000 Y109.171 E6.03254
G1 X97.166 Y108.722 E6.10966
G1 X94.676 Y107.453 E6.18477
G1 X94.355 Y107.851 F7800.000
G1 X94.312 Y107.829 E6.18606 F600.000
G1 X92.171 Y105.688 E6.26744
G1 X90.797 Y102.990 E6.34882
G1 X90.323 Y100.000 E6.43020
G1 X90.797 Y97.010 E6.51158
G1 X92.171 Y94.312 E6.59296
G1 X94.312 Y92.171 E6.67434
G1 X97.010 Y90.797 E6.75572
G1 X99.953 Y90.331 E6.83581
G1 X100.000 Y90.323 E6.83710
G1 X102.990 Y90.797 E6.91848
G1 X105.688 Y92.171 E6.99986
G1 X107.829 Y94.312 E7.08124
G1 X109.203 Y97.010 E7.16262
G1 X109.677 Y100.000 E7.24401
G1 X109.203 Y102.990 E7.32539
G1 X107.829 Y105.688 E7.40677
G1 X105.688 Y107.829 E7.48815
G1 X102.990 Y109.203 E7.56953
G1 X100.000 Y109.677 E7.65091
G1 X97.010 Y109.203 E7.73229
G1 X94.422 Y107.885 E7.81036
G1 X94.352 Y107.803 F7800.000
G1 X101.874 Y103.731 F7800.000
G1 X97.671 Y107.934 E7.97925 F1693.418
G1 X97.121 Y107.737 E7.99585
G1 X100.749 Y104.108 E8.14163
G1 X99.899 Y104.211 E8.16596
G1 X96.626 Y107.485 E8.29748
G1 X96.131 Y107.232 E8.31327
G1 X99.254 Y104.109 E8.43876
G1 X98.629 Y103.987 E8.45686
G1 X95.635 Y106.980 E8.57712
G1 X95.142 Y106.726 E8.59288
G1 X98.134 Y103.735 E8.71306
G1 X97.639 Y103.482 E8.72884
G1 X94.769 Y106.352 E8.84414
G1 X94.395 Y105.979 E8.85916
G1 X97.235 Y103.139 E8.97324
G1 X96.861 Y102.765 E8.98826
G1 X94.021 Y105.605 E9.10234
G1 X93.648 Y105.231 E9.11736
G1 X96.518 Y102.361 E9.23266
G1 X96.265 Y101.866 E9.24844
G1 X93.274 Y104.858 E9.36862
G1 X93.020 Y104.365 E9.38438
G1 X96.013 Y101.371 E9.50464
G1 X95.891 Y100.746 E9.52274
G1 X92.768 Y103.869 E9.64824
G1 X92.515 Y103.374 E9.66402
G1 X95.789 Y100.101 E9.79555
G1 X95.892 Y99.251 E9.81987
G1 X92.263 Y102.879 E9.96566
G1 X92.066 Y102.329 E9.98226
G1 X96.270 Y98.125 E10.15115
G1 X98.125 Y96.270 F7800.000
G1 X102.329 Y92.066 E10.32003 F1693.418
G1 X101.684 Y91.964 E10.33859
G1 X91.964 Y101.684 E10.72911
G1 X91.861 Y101.039 E10.74767
G1 X101.039 Y91.861 E11.11638
G1 X100.394 Y91.759 E11.13494
G1 X91.759 Y100.394 E11.48183
G1 X91.752 Y99.654 E11.50285
G1 X99.654 Y91.752 E11.82032
G1 X98.766 Y91.892 E11.84586
G1 X91.892 Y98.766 E12.12202
G1 X92.033 Y97.878 E12.14756
G1 X97.878 Y92.033 E12.38238
G1 X96.672 Y92.492 F7800.000
G1 X92.492 Y96.672 E12.55033 F1693.418
G1 X93.268 Y95.148 F7800.000
G1 X95.148 Y93.268 E12.62587 F1693.418
G1 X99.251 Y95.892 F7800.000
G1 X102.879 Y92.263 E12.77166 F1693.418
G1 X103.374 Y92.515 E12.78744
G1 X100.101 Y95.789 E12.91897
G1 X100.746 Y95.891 E12.93752
G1 X103.869 Y92.768 E13.06302
G1 X104.365 Y93.020 E13.07880
G1 X101.371 Y96.013 E13.19906
G1 X101.866 Y96.265 E13.21485
G1 X104.858 Y93.274 E13.33503
G1 X105.231 Y93.648 E13.35004
G1 X102.361 Y96.518 E13.46534
G1 X102.765 Y96.861 E13.48040
G1 X105.605 Y94.021 E13.59449
G1 X105.979 Y94.395 E13.60950
G1 X103.139 Y97.235 E13.72359
G1 X103.482 Y97.639 E13.73865
G1 X106.352 Y94.769 E13.85395
G1 X106.726 Y95.142 E13.86896
G1 X103.735 Y98.134 E13.98914
G1 X103.987 Y98.629 E14.00492
G1 X106.980 Y95.635 E14.12518
G1 X107.232 Y96.131 E14.14097
G1 X104.109 Y99.254 E14.26646
G1 X104.211 Y99.899 E14.28502
G1 X107.485 Y96.626 E14.41654
G1 X107.737 Y97.121 E14.43233
G1 X104.108 Y100.749 E14.57811
G1 X103.730 Y101.874 F7800.000
G1 X107.934 Y97.671 E14.74700 F1693.418
G1 X108.036 Y98.316 E14.76555
G1 X98.316 Y108.036 E15.15608
G1 X98.961 Y108.139 E15.17463
G1 X108.139 Y98.961 E15.54334
G1 X108.241 Y99.606 E15.56190
G1 X99.606 Y108.241 E15.90880
G1 X100.346 Y108.248 E15.92981
G1 X108.248 Y100.346 E16.24729
G1 X108.108 Y101.234 E16.27283
G1 X101.234 Y108.108 E16.54899
G1 X102.122 Y107.967 E16.57453
G1 X107.967 Y102.122 E16.80935
G1 X107.508 Y103.328 F7800.000
G1 X103.328 Y107.508 E16.97731 F1693.418
G1 X104.852 Y106.732 F7800.000
G1 X106.732 Y104.852 E17.05286 F1693.418
G1 F1800.000 E15.55286
G92 E0
G1 Z1.300 F7800.000
G1 X103.127 Y102.272 F7800.000
G1 E1.50000 F1800.000
G1 X102.272 Y103.127 E1.53251 F844.784
G1 X101.195 Y103.676 E1.56502
G1 X100.000 Y103.866 E1.59753
G1 X98.805 Y103.676 E1.63004
G1 X97.728 Y103.127 E1.66254
G1 X96.873 Y102.272 E1.69505
G1 X96.324 Y101.195 E1.72756
G1 X96.134 Y100.000 E1.76007
G1 X96.324 Y98.805 E1.79258
G1 X96.873 Y97.728 E1.82509
G1 X97.728 Y96.873 E1.85760
G1 X98.805 Y96.324 E1.89010
G1 X99.782 Y96.169 E1.91669
G1 X100.000 Y96.134 E1.92261
G1 X101.195 Y96.324 E1.95512
G1 X102.272 Y96.873 E1.98763
G1 X103.127 Y97.728 E2.02014
G1 X103.676 Y98.805 E2.05265
G1 X103.866 Y100.000 E2.08515
G1 X103.676 Y101.195 E2.11766
G1 X103.161 Y102.205 E2.14816
