;PYCAM-META-DATA: Filename: /home/mvn/cutter-parts/parts_all_plate.stl
;PYCAM-META-DATA: Timestamp: 2015-06-06 22:54:09.435971
;PYCAM-META-DATA: Version: 0.5.1
;Estimated machine time: 3276 minutes
G40 (disable tool radius compensation)
G49 (disable tool length compensation)
G80 (cancel modal motion)
G54 (select coordinate system 1)
G90 (disable incremental moves)
G21 (metric)
G61 (exact path mode)
F200.00000
S1000.00000
;PYCAM_TOOLPATH_SETTINGS: START
;[Bounds]
;maxz = 3.0
;maxx = 362.704
;maxy = 291.0
;minx = 1.0
;miny = 1.0
;minz = -3.0
;
;[Tool]
;torus_radius = 0.125
;speed = 1000.0
;shape = SphericalCutter
;tool_radius = 1.0
;feedrate = 200.0
;
;[Process]
;engrave_offset = 0.0
;step_down = 1.0
;generator = PushCutter
;postprocessor = SimpleCutter
;milling_style = ignore
;material_allowance = 0.5
;pocketing_type = none
;path_direction = x
;
;PYCAM_TOOLPATH_SETTINGS: END
T1 M6
G0 Z25.0000
M3 (start spindle)
G04 P3 (wait for 3 seconds)
 X123.5092 Y1.0000
G1 Z3.0000
 X149.8820
G0 Z25.0000
 X274.5092
G1 Z3.0000
 X302.5860
 Y3.0000
 X276.8927
G0 Z25.0000
 X149.8820
G1 Z3.0000
 X125.8927
G0 Z25.0000
 X128.2763 Y5.0000
G1 Z3.0000
 X149.8820
G0 Z25.0000
 X279.2763
G1 Z3.0000
 X302.5860
G0 Z25.0000
 X309.0616
G1 Z3.0000
 X311.1464
G0 Z25.0000
 X356.2616
G1 Z3.0000
 X358.3464
G0 Z25.0000
 X358.6860 Y7.0000
G1 Z3.0000
 X355.9220
G0 Z25.0000
 X311.4860
G1 Z3.0000
 X308.7220
G0 Z25.0000
 X302.5860
G1 Z3.0000
 X281.6599
G0 Z25.0000
 X188.3820
G1 Z3.0000
 X183.6180
G0 Z25.0000
 X168.3820
G1 Z3.0000
 X163.6180
G0 Z25.0000
 X149.8820
G1 Z3.0000
 X130.6599
G0 Z25.0000
 X37.3820
G1 Z3.0000
 X32.6180
G0 Z25.0000
 X17.3820
G1 Z3.0000
 X12.6180
 Y9.0000
 X17.3820
G0 Z25.0000
 X32.6180
G1 Z3.0000
 X37.3820
G0 Z25.0000
 X133.0435
G1 Z3.0000
 X149.8820
G0 Z25.0000
 X163.6180
G1 Z3.0000
 X168.3820
G0 Z25.0000
 X183.6180
G1 Z3.0000
 X188.3820
G0 Z25.0000
 X284.0435
G1 Z3.0000
 X302.5860
 Y11.0000
 X286.4271
G0 Z25.0000
 X149.8820
G1 Z3.0000
 X135.4271
G0 Z25.0000
 X137.5817 Y13.0000
G1 Z3.0000
 X149.8820
G0 Z25.0000
 X288.5817
G1 Z3.0000
 X302.5860
G0 Z25.0000
 X326.1767
G1 Z3.0000
 X341.2313
G0 Z25.0000
 X344.7239 Y15.0000
G1 Z3.0000
 X322.6841
G0 Z25.0000
 X302.5860
G1 Z3.0000
 X290.6334
G0 Z25.0000
 X149.8820
G1 Z3.0000
 X139.6334
G0 Z25.0000
 X141.6851 Y17.0000
G1 Z3.0000
 X149.8820
G0 Z25.0000
 X292.6851
G1 Z3.0000
 X302.5860
G0 Z25.0000
 X320.3263
G1 Z3.0000
 X347.0817
G0 Z25.0000
 X348.8826 Y19.0000
G1 Z3.0000
 X318.5254
G0 Z25.0000
 X302.5860
G1 Z3.0000
 X294.5391
G0 Z25.0000
 X149.8820
G1 Z3.0000
 X143.5391
G0 Z25.0000
 X14.3006 Y21.0000
G1 Z3.0000
 X15.6994
G0 Z25.0000
 X34.3006
G1 Z3.0000
 X35.6994
G0 Z25.0000
 X145.0946
G1 Z3.0000
 X149.8820
G0 Z25.0000
 X165.3004
G1 Z3.0000
 X166.6996
G0 Z25.0000
 X185.3004
G1 Z3.0000
 X186.6996
G0 Z25.0000
 X296.0946
G1 Z3.0000
 X302.5860
G0 Z25.0000
 X317.3383
G1 Z3.0000
 X350.0703
G0 Z25.0000
 X351.1037 Y23.0000
G1 Z3.0000
 X316.3053
G0 Z25.0000
 X302.5860
G1 Z3.0000
 X297.6500
G0 Z25.0000
 X249.8165
G1 Z3.0000
 X239.8263
G0 Z25.0000
 X186.6996
G1 Z3.0000
 X185.3004
G0 Z25.0000
 X166.6996
G1 Z3.0000
 X165.3004
G0 Z25.0000
 X149.8820
G1 Z3.0000
 X146.6500
G0 Z25.0000
 X98.8163
G1 Z3.0000
 X88.8266
G0 Z25.0000
 X35.6994
G1 Z3.0000
 X34.3006
G0 Z25.0000
 X15.6994
G1 Z3.0000
 X14.3006
G0 Z25.0000
 X80.7921 Y25.0000
G1 Z3.0000
 X107.3691
G0 Z25.0000
 X148.2055
G1 Z3.0000
 X149.8820
G0 Z25.0000
 X231.7922
G1 Z3.0000
 X258.3691
G0 Z25.0000
 X299.2055
G1 Z3.0000
 X302.5860
G0 Z25.0000
 X315.6555
G1 Z3.0000
 X351.7535
G0 Z25.0000
 X352.2437 Y27.0000
G1 Z3.0000
 X315.1651
G0 Z25.0000
 X302.5860
G1 Z3.0000
 X299.6716
G0 Z25.0000
 X262.9574
G1 Z3.0000
 X226.5660
G0 Z25.0000
 X188.3820
G1 Z3.0000
 X183.6180
G0 Z25.0000
 X168.3820
G1 Z3.0000
 X163.6180
G0 Z25.0000
 X149.8820
G1 Z3.0000
 X148.6716
G0 Z25.0000
 X111.9574
G1 Z3.0000
 X75.5660
G0 Z25.0000
 X37.3820
G1 Z3.0000
 X32.6180
G0 Z25.0000
 X17.3820
G1 Z3.0000
 X12.6180
 Y29.0000
 X17.3820
G0 Z25.0000
 X32.6180
G1 Z3.0000
 X37.3820
G0 Z25.0000
 X72.4095
G1 Z3.0000
 X115.4972
G0 Z25.0000
 X146.4605
G1 Z3.0000
 X149.8820
G0 Z25.0000
 X163.6180
G1 Z3.0000
 X168.3820
G0 Z25.0000
 X183.6180
G1 Z3.0000
 X188.3820
G0 Z25.0000
 X223.4096
G1 Z3.0000
 X233.5000
G0 Z25.0000
 X243.5874
G1 Z3.0000
 X251.7546
G0 Z25.0000
 X257.6966
G1 Z3.0000
 X266.4972
G0 Z25.0000
 X297.4605
G1 Z3.0000
 X302.5860
G0 Z25.0000
 X314.9544
G1 Z3.0000
 X352.4539
G0 Z25.0000
 X352.4955 Y31.0000
G1 Z3.0000
 X314.9127
G0 Z25.0000
 X302.5860
G1 Z3.0000
 X295.0129
G0 Z25.0000
 X269.3200
G1 Z3.0000
 X264.4185
G0 Z25.0000
 X250.9562
G1 Z3.0000
 X246.5980
G0 Z25.0000
 X232.8820
G1 Z3.0000
 X220.2533
G0 Z25.0000
 X188.3820
G1 Z3.0000
 X183.6180
G0 Z25.0000
 X168.3820
G1 Z3.0000
 X163.6180
G0 Z25.0000
 X149.8820
G1 Z3.0000
 X144.0129
G0 Z25.0000
 X118.3200
G1 Z3.0000
 X69.2531
G0 Z25.0000
 X37.3820
G1 Z3.0000
 X32.6180
G0 Z25.0000
 X17.3820
G1 Z3.0000
 X12.6180
G0 Z25.0000
 X66.9492 Y33.0000
G1 Z3.0000
 X75.5000
G0 Z25.0000
 X88.5000
G1 Z3.0000
 X121.1365
G0 Z25.0000
 X140.9631
G1 Z3.0000
 X149.8820
G0 Z25.0000
 X217.9494
G1 Z3.0000
 X232.8820
G0 Z25.0000
 X247.1180
G1 Z3.0000
 X250.1816
G0 Z25.0000
 X268.6295
G1 Z3.0000
 X272.1365
G0 Z25.0000
 X291.9631
G1 Z3.0000
 X302.5860
G0 Z25.0000
 X315.1233
G1 Z3.0000
 X352.2854
G0 Z25.0000
 X351.8823 Y35.0000
G1 Z3.0000
 X315.5267
G0 Z25.0000
 X302.5860
G1 Z3.0000
 X287.9295
G0 Z25.0000
 X276.1460
G1 Z3.0000
 X271.5481
G0 Z25.0000
 X249.7828
G1 Z3.0000
 X247.1180
G0 Z25.0000
 X232.8820
G1 Z3.0000
 X215.8956
G0 Z25.0000
 X149.8820
G1 Z3.0000
 X136.9295
G0 Z25.0000
 X125.1460
G1 Z3.0000
 X89.9787
G0 Z25.0000
 X74.8820
G1 Z3.0000
 X64.8952
G0 Z25.0000
 X13.7385 Y37.0000
G1 Z3.0000
 X16.2615
G0 Z25.0000
 X33.7385
G1 Z3.0000
 X36.2615
G0 Z25.0000
 X62.8413
G1 Z3.0000
 X74.8820
G0 Z25.0000
 X91.2729
G1 Z3.0000
 X107.3518
G0 Z25.0000
 X117.4905
G1 Z3.0000
 X149.8820
G0 Z25.0000
 X164.7384
G1 Z3.0000
 X167.2616
G0 Z25.0000
 X184.7384
G1 Z3.0000
 X187.2616
G0 Z25.0000
 X213.8417
G1 Z3.0000
 X232.8820
G0 Z25.0000
 X247.1180
G1 Z3.0000
 X249.3866
G0 Z25.0000
 X274.0183
G1 Z3.0000
 X302.5860
G0 Z25.0000
 X316.1765
G1 Z3.0000
 X351.2325
G0 Z25.0000
 X350.2989 Y39.0000
G1 Z3.0000
 X317.1097
G0 Z25.0000
 X302.5860
G1 Z3.0000
 X275.9496
G0 Z25.0000
 X249.3457
G1 Z3.0000
 X247.1180
G0 Z25.0000
 X232.8820
G1 Z3.0000
 X212.2692
G0 Z25.0000
 X149.8820
G1 Z3.0000
 X122.5381
G0 Z25.0000
 X106.5606
G1 Z3.0000
 X92.5670
G0 Z25.0000
 X74.8820
G1 Z3.0000
 X61.2691
G0 Z25.0000
 X59.8255 Y41.0000
G1 Z3.0000
 X74.8820
G0 Z25.0000
 X79.7102
G1 Z3.0000
 X82.2898
G0 Z25.0000
 X93.8611
G1 Z3.0000
 X105.9822
G0 Z25.0000
 X126.0889
G1 Z3.0000
 X149.8820
G0 Z25.0000
 X210.8254
G1 Z3.0000
 X232.8820
G0 Z25.0000
 X247.1180
G1 Z3.0000
 X249.3121
G0 Z25.0000
 X277.8809
G1 Z3.0000
 X302.5860
G0 Z25.0000
 X318.2638
G1 Z3.0000
 X349.1443
G0 Z25.0000
 X347.4379 Y43.0000
G1 Z3.0000
 X319.9701
G0 Z25.0000
 X302.5860
G1 Z3.0000
 X279.8123
G0 Z25.0000
 X249.6011
G1 Z3.0000
 X247.1180
G0 Z25.0000
 X232.8820
G1 Z3.0000
 X209.5045
G0 Z25.0000
 X149.8820
G1 Z3.0000
 X129.0072
G0 Z25.0000
 X105.5835
G1 Z3.0000
 X95.1552
G0 Z25.0000
 X74.8820
G1 Z3.0000
 X58.5048
G0 Z25.0000
 X57.4687 Y45.0000
G1 Z3.0000
 X74.8820
G0 Z25.0000
 X96.4493
G1 Z3.0000
 X105.3625
G0 Z25.0000
 X130.9840
G1 Z3.0000
 X149.8820
G0 Z25.0000
 X208.4686
G1 Z3.0000
 X232.8820
G0 Z25.0000
 X247.1180
G1 Z3.0000
 X249.9298
G0 Z25.0000
 X262.0011
G1 Z3.0000
 X263.9353
G0 Z25.0000
 X281.7436
G1 Z3.0000
 X302.5860
G0 Z25.0000
 X322.1397
G1 Z3.0000
 X345.2683
G0 Z25.0000
 X342.1199 Y47.0000
G1 Z3.0000
 X325.2881
G0 Z25.0000
 X302.5860
G1 Z3.0000
 X283.3961
G0 Z25.0000
 X266.3186
G1 Z3.0000
 X263.5737
G0 Z25.0000
 X250.5754
G1 Z3.0000
 X247.1180
G0 Z25.0000
 X232.8820
G1 Z3.0000
 X207.4326
G0 Z25.0000
 X149.8820
G1 Z3.0000
 X132.9153
G0 Z25.0000
 X105.3289
G1 Z3.0000
 X97.7434
G0 Z25.0000
 X74.8820
G1 Z3.0000
 X56.4327
G0 Z25.0000
 X55.5960 Y49.0000
G1 Z3.0000
 X75.1327
G0 Z25.0000
 X99.0376
G1 Z3.0000
 X105.4368
G0 Z25.0000
 X134.8466
G1 Z3.0000
 X149.8820
G0 Z25.0000
 X206.5959
G1 Z3.0000
 X232.8820
G0 Z25.0000
 X247.1180
G1 Z3.0000
 X251.2895
G0 Z25.0000
 X284.6460
G1 Z3.0000
 X302.5860
 Y51.0000
 X285.8958
G0 Z25.0000
 X252.3758
G1 Z3.0000
 X247.1180
G0 Z25.0000
 X232.8820
G1 Z3.0000
 X205.9092
G0 Z25.0000
 X149.8820
G1 Z3.0000
 X136.7779
G0 Z25.0000
 X105.7655
G1 Z3.0000
 X100.3317
G0 Z25.0000
 X75.7327
G1 Z3.0000
 X54.9093
G0 Z25.0000
 X54.2227 Y53.0000
G1 Z3.0000
 X76.3327
G0 Z25.0000
 X101.6258
G1 Z3.0000
 X106.2184
G0 Z25.0000
 X118.3817
G1 Z3.0000
 X121.1269
G0 Z25.0000
 X138.7092
G1 Z3.0000
 X149.8820
G0 Z25.0000
 X205.2226
G1 Z3.0000
 X232.8820
G0 Z25.0000
 X247.1180
G1 Z3.0000
 X253.5463
G0 Z25.0000
 X287.1456
G1 Z3.0000
 X302.5860
G0 Z25.0000
 X308.7304
G1 Z3.0000
 X311.4776
G0 Z25.0000
 X355.9304
G1 Z3.0000
 X358.6776
G0 Z25.0000
 X358.5102 Y55.0000
G1 Z3.0000
 X356.0978
G0 Z25.0000
 X311.3102
G1 Z3.0000
 X308.8978
G0 Z25.0000
 X302.5860
G1 Z3.0000
 X288.3954
G0 Z25.0000
 X255.2401
G1 Z3.0000
 X247.1180
G0 Z25.0000
 X240.6996
G1 Z3.0000
 X239.3004
G0 Z25.0000
 X232.8820
G1 Z3.0000
 X204.7632
G0 Z25.0000
 X149.8820
G1 Z3.0000
 X140.0210
G0 Z25.0000
 X122.7737
G1 Z3.0000
 X120.7658
G0 Z25.0000
 X106.9324
G1 Z3.0000
 X102.9199
G0 Z25.0000
 X76.9327
G1 Z3.0000
 X53.7634
G0 Z25.0000
 X53.4185 Y57.0000
G1 Z3.0000
 X77.5327
G0 Z25.0000
 X104.2140
G1 Z3.0000
 X107.7993
G0 Z25.0000
 X141.2709
G1 Z3.0000
 X149.8820
G0 Z25.0000
 X204.4183
G1 Z3.0000
 X232.8820
G0 Z25.0000
 X239.3004
G1 Z3.0000
 X240.6996
G0 Z25.0000
 X247.1180
G1 Z3.0000
 X257.0050
G0 Z25.0000
 X289.6453
G1 Z3.0000
 X302.5860
 Y59.0000
 X290.6551
G0 Z25.0000
 X258.8524
G1 Z3.0000
 X247.1180
G0 Z25.0000
 X232.5168
G1 Z3.0000
 X204.0735
G0 Z25.0000
 X149.8820
G1 Z3.0000
 X142.5207
G0 Z25.0000
 X108.9523
G1 Z3.0000
 X105.5081
G0 Z25.0000
 X78.1327
G1 Z3.0000
 X53.0737
G0 Z25.0000
 X52.8159 Y61.0000
G1 Z3.0000
 X78.7327
G0 Z25.0000
 X106.8023
G1 Z3.0000
 X110.3931
G0 Z25.0000
 X143.7705
G1 Z3.0000
 X149.8820
G0 Z25.0000
 X203.8157
G1 Z3.0000
 X210.8820
G0 Z25.0000
 X247.1180
G1 Z3.0000
 X260.6999
G0 Z25.0000
 X291.3828
G1 Z3.0000
 X302.7650
G0 Z25.0000
 X303.3150 Y63.0000
G1 Z3.0000
 X292.1106
G0 Z25.0000
 X262.3397
G1 Z3.0000
 X247.1180
G0 Z25.0000
 X210.8820
G1 Z3.0000
 X203.8146
G0 Z25.0000
 X149.8820
G1 Z3.0000
 X145.0204
G0 Z25.0000
 X112.0871
G1 Z3.0000
 X108.0964
G0 Z25.0000
 X79.3327
G1 Z3.0000
 X52.8148
 X52.8137 Y65.0000
 X79.9327
G0 Z25.0000
 X109.3905
G1 Z3.0000
 X113.9287
G0 Z25.0000
 X146.2699
G1 Z3.0000
 X149.8820
G0 Z25.0000
 X203.8134
G1 Z3.0000
 X210.8820
G0 Z25.0000
 X247.1180
G1 Z3.0000
 X263.5370
G0 Z25.0000
 X292.8384
G1 Z3.0000
 X303.8650
G0 Z25.0000
 X304.4150 Y67.0000
G1 Z3.0000
 X293.5661
G0 Z25.0000
 X264.7343
G1 Z3.0000
 X247.1180
G0 Z25.0000
 X210.8820
G1 Z3.0000
 X203.8123
G0 Z25.0000
 X149.8857
G1 Z3.0000
 X147.0189
G0 Z25.0000
 X115.7762
G1 Z3.0000
 X110.6846
G0 Z25.0000
 X80.5327
G1 Z3.0000
 X52.8126
G0 Z25.0000
 X53.0848 Y69.0000
G1 Z3.0000
 X80.8820
G0 Z25.0000
 X111.1180
G1 Z3.0000
 X117.6236
G0 Z25.0000
 X147.7467
G1 Z3.0000
 X151.6182
G0 Z25.0000
 X204.0845
G1 Z3.0000
 X210.8820
G0 Z25.0000
 X247.1180
G1 Z3.0000
 X265.9316
G0 Z25.0000
 X294.2939
G1 Z3.0000
 X304.9650
G0 Z25.0000
 X326.4140
G1 Z3.0000
 X326.8576
G0 Z25.0000
 X331.6220
G1 Z3.0000
 X336.7860
G0 Z25.0000
 X341.4824
G1 Z3.0000
 X341.9260
G0 Z25.0000
 X352.8050
G1 Z3.0000
 X357.9680
 Y71.0000
 X352.8050
G0 Z25.0000
 X342.6618
G1 Z3.0000
 X340.7468
G0 Z25.0000
 X336.7860
G1 Z3.0000
 X331.6220
G0 Z25.0000
 X327.5932
G1 Z3.0000
 X325.6782
G0 Z25.0000
 X305.5150
G1 Z3.0000
 X295.0217
G0 Z25.0000
 X266.7709
G1 Z3.0000
 X247.1180
G0 Z25.0000
 X210.8820
G1 Z3.0000
 X204.4275
G0 Z25.0000
 X153.7873
G1 Z3.0000
 X148.4745
G0 Z25.0000
 X118.9383
G1 Z3.0000
 X111.1180
G0 Z25.0000
 X80.8820
G1 Z3.0000
 X53.4279
G0 Z25.0000
 X2.7873
G1 Z3.0000
 X1.0000
 Y73.0000
 X4.9564
G0 Z25.0000
 X53.7710
G1 Z3.0000
 X80.8820
G0 Z25.0000
 X111.1180
G1 Z3.0000
 X120.1357
G0 Z25.0000
 X149.2023
G1 Z3.0000
 X155.9564
G0 Z25.0000
 X204.7706
G1 Z3.0000
 X210.8820
G0 Z25.0000
 X247.1180
G1 Z3.0000
 X267.4630
G0 Z25.0000
 X295.3618
G1 Z3.0000
 X306.0650
G0 Z25.0000
 X306.6150 Y75.0000
G1 Z3.0000
 X295.6429
G0 Z25.0000
 X268.1551
G1 Z3.0000
 X247.1180
G0 Z25.0000
 X210.8820
G1 Z3.0000
 X205.2741
G0 Z25.0000
 X158.1255
G1 Z3.0000
 X149.9300
G0 Z25.0000
 X121.3330
G1 Z3.0000
 X111.1180
G0 Z25.0000
 X93.9308
G1 Z3.0000
 X91.1180
G0 Z25.0000
 X80.8820
G1 Z3.0000
 X54.2746
G0 Z25.0000
 X7.1255
G1 Z3.0000
 X1.0000
 Y77.0000
 X9.2946
G0 Z25.0000
 X55.0293
G1 Z3.0000
 X80.8820
G0 Z25.0000
 X91.1180
G1 Z3.0000
 X94.8820
G0 Z25.0000
 X99.3006
G1 Z3.0000
 X100.6996
G0 Z25.0000
 X111.1180
G1 Z3.0000
 X122.4248
G0 Z25.0000
 X150.6578
G1 Z3.0000
 X160.2946
G0 Z25.0000
 X206.0288
G1 Z3.0000
 X210.8820
G0 Z25.0000
 X238.7101
G1 Z3.0000
 X241.2899
G0 Z25.0000
 X247.1180
G1 Z3.0000
 X268.8473
G0 Z25.0000
 X295.9239
G1 Z3.0000
 X307.1650
G0 Z25.0000
 X307.7150 Y79.0000
G1 Z3.0000
 X296.2050
G0 Z25.0000
 X269.2195
G1 Z3.0000
 X247.1180
G0 Z25.0000
 X210.8820
G1 Z3.0000
 X206.7834
G0 Z25.0000
 X162.4637
G1 Z3.0000
 X151.2212
G0 Z25.0000
 X123.1169
G1 Z3.0000
 X111.1180
G0 Z25.0000
 X100.6996
G1 Z3.0000
 X99.3006
G0 Z25.0000
 X94.8820
G1 Z3.0000
 X91.1180
G0 Z25.0000
 X80.8820
G1 Z3.0000
 X55.7839
G0 Z25.0000
 X11.4637
G1 Z3.0000
 X1.0000
 Y81.0000
 X13.6328
G0 Z25.0000
 X56.5386
G1 Z3.0000
 X80.8820
G0 Z25.0000
 X91.1180
G1 Z3.0000
 X93.9308
G0 Z25.0000
 X111.1180
G1 Z3.0000
 X123.8091
G0 Z25.0000
 X151.5023
G1 Z3.0000
 X164.6328
G0 Z25.0000
 X207.5381
G1 Z3.0000
 X210.8820
G0 Z25.0000
 X246.8895
G1 Z3.0000
 X269.4748
G0 Z25.0000
 X296.4861
G1 Z3.0000
 X308.2650
G0 Z25.0000
 X308.8150 Y83.0000
G1 Z3.0000
 X296.7672
G0 Z25.0000
 X269.7301
G1 Z3.0000
 X245.6789
G0 Z25.0000
 X210.8820
G1 Z3.0000
 X208.6167
G0 Z25.0000
 X166.8018
G1 Z3.0000
 X151.7834
G0 Z25.0000
 X124.5012
G1 Z3.0000
 X111.1180
G0 Z25.0000
 X80.8820
G1 Z3.0000
 X57.6171
G0 Z25.0000
 X15.8018
G1 Z3.0000
 X1.0000
 Y85.0000
 X17.9709
G0 Z25.0000
 X58.8880
G1 Z3.0000
 X80.8820
G0 Z25.0000
 X111.1180
G1 Z3.0000
 X125.0919
G0 Z25.0000
 X152.0645
G1 Z3.0000
 X168.9709
G0 Z25.0000
 X209.8878
G1 Z3.0000
 X269.9853
G0 Z25.0000
 X297.0483
G1 Z3.0000
 X309.3650
G0 Z25.0000
 X309.9150 Y87.0000
G1 Z3.0000
 X296.9417
G0 Z25.0000
 X270.0097
G1 Z3.0000
 X211.1589
G0 Z25.0000
 X171.1400
G1 Z3.0000
 X152.3456
G0 Z25.0000
 X125.3472
G1 Z3.0000
 X111.1180
G0 Z25.0000
 X80.8820
G1 Z3.0000
 X60.1590
G0 Z25.0000
 X20.1400
G1 Z3.0000
 X1.0000
 Y89.0000
 X22.3091
G0 Z25.0000
 X61.5892
G1 Z3.0000
 X80.8820
G0 Z25.0000
 X111.1180
G1 Z3.0000
 X125.6024
G0 Z25.0000
 X152.6267
G1 Z3.0000
 X173.3091
G0 Z25.0000
 X212.5892
G1 Z3.0000
 X269.8508
G0 Z25.0000
 X296.8019
G1 Z3.0000
 X310.4650
G0 Z25.0000
 X326.4140
G1 Z3.0000
 X326.8576
G0 Z25.0000
 X331.6220
G1 Z3.0000
 X336.7860
G0 Z25.0000
 X341.4824
G1 Z3.0000
 X341.9260
G0 Z25.0000
 X352.8050
G1 Z3.0000
 X357.9680
 Y91.0000
 X352.8050
G0 Z25.0000
 X342.6618
G1 Z3.0000
 X340.7468
G0 Z25.0000
 X336.7860
G1 Z3.0000
 X331.6220
G0 Z25.0000
 X327.5932
G1 Z3.0000
 X325.6782
G0 Z25.0000
 X311.0150
G1 Z3.0000
 X296.6621
G0 Z25.0000
 X269.6919
G1 Z3.0000
 X214.5346
G0 Z25.0000
 X175.4782
G1 Z3.0000
 X152.9077
G0 Z25.0000
 X125.8577
G1 Z3.0000
 X111.1180
G0 Z25.0000
 X80.8820
G1 Z3.0000
 X63.5345
G0 Z25.0000
 X24.4782
G1 Z3.0000
 X1.0000
 Y93.0000
 X26.6473
G0 Z25.0000
 X65.4798
G1 Z3.0000
 X80.8820
G0 Z25.0000
 X111.1180
G1 Z3.0000
 X126.0892
G0 Z25.0000
 X153.0117
G1 Z3.0000
 X177.6473
G0 Z25.0000
 X216.4800
G1 Z3.0000
 X269.5329
G0 Z25.0000
 X296.5223
G1 Z3.0000
 X311.5650
G0 Z25.0000
 X312.1150 Y95.0000
G1 Z3.0000
 X296.3825
G0 Z25.0000
 X269.2187
G1 Z3.0000
 X218.4305
G0 Z25.0000
 X179.8164
G1 Z3.0000
 X152.8718
G0 Z25.0000
 X125.9303
G1 Z3.0000
 X111.1180
G0 Z25.0000
 X80.8820
G1 Z3.0000
 X67.4304
G0 Z25.0000
 X28.8164
G1 Z3.0000
 X1.0000
 Y97.0000
 X30.9855
G0 Z25.0000
 X69.3259
G1 Z3.0000
 X80.8820
G0 Z25.0000
 X99.3006
G1 Z3.0000
 X100.6996
G0 Z25.0000
 X111.1180
G1 Z3.0000
 X125.7713
G0 Z25.0000
 X152.7320
G1 Z3.0000
 X181.9855
G0 Z25.0000
 X220.3256
G1 Z3.0000
 X268.6315
G0 Z25.0000
 X296.2427
G1 Z3.0000
 X312.6650
G0 Z25.0000
 X313.2150 Y99.0000
G1 Z3.0000
 X296.1029
G0 Z25.0000
 X268.0443
G1 Z3.0000
 X221.8495
G0 Z25.0000
 X184.1546
G1 Z3.0000
 X152.5922
G0 Z25.0000
 X125.6124
G1 Z3.0000
 X111.1180
G0 Z25.0000
 X100.6996
G1 Z3.0000
 X99.3006
G0 Z25.0000
 X80.8820
G1 Z3.0000
 X70.8499
G0 Z25.0000
 X33.1546
G1 Z3.0000
 X1.0000
 Y101.0000
 X35.3236
G0 Z25.0000
 X72.0386
G1 Z3.0000
 X80.8820
G0 Z25.0000
 X111.1180
G1 Z3.0000
 X125.4535
G0 Z25.0000
 X152.4524
G1 Z3.0000
 X186.3236
G0 Z25.0000
 X223.0387
G1 Z3.0000
 X267.4572
G0 Z25.0000
 X295.5629
G1 Z3.0000
 X313.5860
 Y103.0000
 X294.9895
G0 Z25.0000
 X266.7126
G1 Z3.0000
 X223.9100
G0 Z25.0000
 X188.4927
G1 Z3.0000
 X152.3126
G0 Z25.0000
 X124.9252
G1 Z3.0000
 X111.1180
G0 Z25.0000
 X80.8820
G1 Z3.0000
 X72.9101
G0 Z25.0000
 X37.4927
G1 Z3.0000
 X1.0000
 Y105.0000
 X39.6618
G0 Z25.0000
 X73.5453
G1 Z3.0000
 X80.8820
G0 Z25.0000
 X111.1180
G1 Z3.0000
 X124.3380
G0 Z25.0000
 X152.1728
G1 Z3.0000
 X190.6618
G0 Z25.0000
 X224.5453
G1 Z3.0000
 X265.6409
G0 Z25.0000
 X294.4161
G1 Z3.0000
 X313.5860
 Y107.0000
 X293.8427
G0 Z25.0000
 X264.5693
G1 Z3.0000
 X224.9762
G0 Z25.0000
 X192.8309
G1 Z3.0000
 X151.8496
G0 Z25.0000
 X123.7508
G1 Z3.0000
 X111.1180
G0 Z25.0000
 X80.8820
G1 Z3.0000
 X73.9758
G0 Z25.0000
 X41.8309
G1 Z3.0000
 X1.0000
 Y109.0000
 X44.0000
G0 Z25.0000
 X74.1177
G1 Z3.0000
 X79.6703
G0 Z25.0000
 X110.5716
G1 Z3.0000
 X123.1636
G0 Z25.0000
 X151.2762
G1 Z3.0000
 X195.0000
G0 Z25.0000
 X225.1178
G1 Z3.0000
 X263.4977
G0 Z25.0000
 X293.2693
G1 Z3.0000
 X313.5860
 Y111.0000
 X292.6959
G0 Z25.0000
 X262.0524
G1 Z3.0000
 X225.0604
G0 Z25.0000
 X197.1691
G1 Z3.0000
 X150.7028
G0 Z25.0000
 X122.1767
G1 Z3.0000
 X108.4764
G0 Z25.0000
 X77.9560
G1 Z3.0000
 X74.0603
G0 Z25.0000
 X46.1691
G1 Z3.0000
 X1.0000
 Y113.0000
 X48.3382
G0 Z25.0000
 X73.8285
G1 Z3.0000
 X76.2417
G0 Z25.0000
 X106.3811
G1 Z3.0000
 X121.1051
G0 Z25.0000
 X150.1294
G1 Z3.0000
 X199.3382
G0 Z25.0000
 X224.8287
G1 Z3.0000
 X260.3742
G0 Z25.0000
 X292.0345
G1 Z3.0000
 X313.5860
 Y115.0000
 X309.5000
G0 Z25.0000
 X294.4124
G1 Z3.0000
 X290.9710
G0 Z25.0000
 X258.6960
G1 Z3.0000
 X224.4002
G0 Z25.0000
 X201.6756
G1 Z3.0000
 X195.1194
G0 Z25.0000
 X181.9239
G1 Z3.0000
 X149.5560
G0 Z25.0000
 X120.0335
G1 Z3.0000
 X104.2859
G0 Z25.0000
 X74.8820
G1 Z3.0000
 X73.4002
G0 Z25.0000
 X50.6756
G1 Z3.0000
 X1.0000
 Y117.0000
 X53.4209
G0 Z25.0000
 X72.6598
G1 Z3.0000
 X74.8820
G0 Z25.0000
 X102.1907
G1 Z3.0000
 X118.8915
G0 Z25.0000
 X148.9826
G1 Z3.0000
 X176.5856
G0 Z25.0000
 X200.4533
G1 Z3.0000
 X204.4207
G0 Z25.0000
 X223.6598
G1 Z3.0000
 X256.6786
G0 Z25.0000
 X289.9074
G1 Z3.0000
 X291.4020
G0 Z25.0000
 X310.1180
G1 Z3.0000
 X313.5860
 Y119.0000
 X310.1180
G0 Z25.0000
 X290.8820
G1 Z3.0000
 X288.8439
G0 Z25.0000
 X254.1354
G1 Z3.0000
 X222.8915
G0 Z25.0000
 X207.1659
G1 Z3.0000
 X204.0442
G0 Z25.0000
 X173.1440
G1 Z3.0000
 X148.4092
G0 Z25.0000
 X117.2133
G1 Z3.0000
 X100.0954
G0 Z25.0000
 X74.8820
G1 Z3.0000
 X71.8915
G0 Z25.0000
 X56.1662
G1 Z3.0000
 X1.0000
 Y121.0000
 X59.3598
G0 Z25.0000
 X70.9953
G1 Z3.0000
 X74.8820
G0 Z25.0000
 X80.3000
G1 Z3.0000
 X81.7000
G0 Z25.0000
 X98.0002
G1 Z3.0000
 X115.5351
G0 Z25.0000
 X147.5027
G1 Z3.0000
 X173.5036
G0 Z25.0000
 X207.1561
G1 Z3.0000
 X210.3599
G0 Z25.0000
 X221.9953
G1 Z3.0000
 X251.5922
G0 Z25.0000
 X287.7803
G1 Z3.0000
 X290.8820
G0 Z25.0000
 X310.1180
G1 Z3.0000
 X313.5860
G0 Z25.0000
 X337.9683 Y123.0000
G1 Z3.0000
 X329.4398
G0 Z25.0000
 X313.5860
G1 Z3.0000
 X310.1180
G0 Z25.0000
 X290.8820
G1 Z3.0000
 X286.7168
G0 Z25.0000
 X247.8687
G1 Z3.0000
 X220.8562
G0 Z25.0000
 X214.2394
G1 Z3.0000
 X210.2679
G0 Z25.0000
 X174.5368
G1 Z3.0000
 X169.5000
G0 Z25.0000
 X148.5000
G1 Z3.0000
 X146.4392
G0 Z25.0000
 X113.8569
G1 Z3.0000
 X95.9049
G0 Z25.0000
 X81.7000
G1 Z3.0000
 X80.3000
G0 Z25.0000
 X74.8820
G1 Z3.0000
 X69.8562
G0 Z25.0000
 X63.2395
G1 Z3.0000
 X54.3582
G0 Z25.0000
 X34.6657
G1 Z3.0000
 X1.0000
 Y125.0000
 X30.7407
G0 Z25.0000
 X58.2903
G1 Z3.0000
 X67.4986
 X68.5000
 X74.8820
G0 Z25.0000
 X93.8097
G1 Z3.0000
 X111.4070
G0 Z25.0000
 X145.3756
G1 Z3.0000
 X147.8820
G0 Z25.0000
 X170.1180
G1 Z3.0000
 X175.5699
G0 Z25.0000
 X215.1461
G1 Z3.0000
 X218.4986
 X219.5000
 X243.8327
G0 Z25.0000
 X285.6494
G1 Z3.0000
 X290.8820
G0 Z25.0000
 X310.1180
G1 Z3.0000
 X313.5860
G0 Z25.0000
 X327.1759
G1 Z3.0000
 X340.2331
G0 Z25.0000
 X341.4237 Y127.0000
G1 Z3.0000
 X325.9843
G0 Z25.0000
 X313.5860
G1 Z3.0000
 X310.1180
G0 Z25.0000
 X290.8820
G1 Z3.0000
 X283.9839
G0 Z25.0000
 X236.4117
G1 Z3.0000
 X222.7757
G0 Z25.0000
 X195.2343
G1 Z3.0000
 X193.2263
G0 Z25.0000
 X176.6035
G1 Z3.0000
 X170.1180
G0 Z25.0000
 X147.8820
G1 Z3.0000
 X144.3121
G0 Z25.0000
 X108.8638
G1 Z3.0000
 X91.7145
G0 Z25.0000
 X74.8820
G1 Z3.0000
 X61.6000
G0 Z25.0000
 X29.0008
G1 Z3.0000
 X1.0000
G0 Z25.0000
 X21.1785 Y129.0000
G1 Z3.0000
 X30.0199
G0 Z25.0000
 X64.7121
G1 Z3.0000
 X74.8820
G0 Z25.0000
 X89.6192
G1 Z3.0000
 X105.8867
G0 Z25.0000
 X143.2485
G1 Z3.0000
 X147.8820
G0 Z25.0000
 X158.2997
G1 Z3.0000
 X159.7003
G0 Z25.0000
 X170.1180
G1 Z3.0000
 X178.0612
G0 Z25.0000
 X194.8729
G1 Z3.0000
 X197.6177
G0 Z25.0000
 X282.3059
G1 Z3.0000
 X290.8820
G0 Z25.0000
 X310.1180
G1 Z3.0000
 X313.5860
G0 Z25.0000
 X325.4544
G1 Z3.0000
 X341.9536
G0 Z25.0000
 X341.9953 Y131.0000
G1 Z3.0000
 X325.4127
G0 Z25.0000
 X313.6572
G1 Z3.0000
 X310.1180
G0 Z25.0000
 X290.8820
G1 Z3.0000
 X280.6278
G0 Z25.0000
 X179.5307
G1 Z3.0000
 X170.1180
G0 Z25.0000
 X159.7003
G1 Z3.0000
 X158.2997
G0 Z25.0000
 X147.8820
G1 Z3.0000
 X142.1850
G0 Z25.0000
 X101.8508
G1 Z3.0000
 X68.5283
G0 Z25.0000
 X31.0532
G1 Z3.0000
 X21.8452
G0 Z25.0000
 X22.5120 Y133.0000
G1 Z3.0000
 X32.0864
G0 Z25.0000
 X73.7643
G1 Z3.0000
 X96.2653
G0 Z25.0000
 X140.8230
G1 Z3.0000
 X147.8820
G0 Z25.0000
 X170.1180
G1 Z3.0000
 X181.0002
G0 Z25.0000
 X278.9497
G1 Z3.0000
 X290.8820
G0 Z25.0000
 X310.1180
G1 Z3.0000
 X313.8473
G0 Z25.0000
 X325.8558
G1 Z3.0000
 X341.5522
G0 Z25.0000
 X340.5505 Y135.0000
G1 Z3.0000
 X326.8584
G0 Z25.0000
 X314.2372
G1 Z3.0000
 X310.1180
G0 Z25.0000
 X290.8820
G1 Z3.0000
 X277.2716
G0 Z25.0000
 X182.9152
G1 Z3.0000
 X170.1180
G0 Z25.0000
 X147.8820
G1 Z3.0000
 X139.1449
G0 Z25.0000
 X52.4258
G1 Z3.0000
 X49.6809
G0 Z25.0000
 X33.3264
G1 Z3.0000
 X23.1787
G0 Z25.0000
 X3.7102 Y137.0000
G1 Z3.0000
 X6.2898
G0 Z25.0000
 X23.8454
G1 Z3.0000
 X34.7959
G0 Z25.0000
 X52.0647
G1 Z3.0000
 X53.9983
G0 Z25.0000
 X137.4668
G1 Z3.0000
 X147.8820
G0 Z25.0000
 X170.1180
G1 Z3.0000
 X184.9348
G0 Z25.0000
 X275.0541
G1 Z3.0000
 X290.8820
G0 Z25.0000
 X310.1180
G1 Z3.0000
 X314.8212
G0 Z25.0000
 X328.8949
G1 Z3.0000
 X338.5136
G0 Z25.0000
 X315.7048 Y139.0000
G1 Z3.0000
 X310.1180
G0 Z25.0000
 X290.8820
G1 Z3.0000
 X272.4941
G0 Z25.0000
 X186.9931
G1 Z3.0000
 X170.1180
G0 Z25.0000
 X147.8820
G1 Z3.0000
 X135.7887
G0 Z25.0000
 X36.2654
G1 Z3.0000
 X24.5121
G0 Z25.0000
 X25.1789 Y141.0000
G1 Z3.0000
 X37.9053
G0 Z25.0000
 X134.1106
G1 Z3.0000
 X147.8820
G0 Z25.0000
 X170.1180
G1 Z3.0000
 X189.9583
G0 Z25.0000
 X269.9341
G1 Z3.0000
 X290.8820
G0 Z25.0000
 X297.2997
G1 Z3.0000
 X298.7003
G0 Z25.0000
 X310.1180
G1 Z3.0000
 X316.7322
G0 Z25.0000
 X362.7040 Y143.0000
G1 Z3.0000
 X358.8518
G0 Z25.0000
 X318.2832
G1 Z3.0000
 X310.1180
G0 Z25.0000
 X298.7003
G1 Z3.0000
 X297.2997
G0 Z25.0000
 X290.8820
G1 Z3.0000
 X267.3741
G0 Z25.0000
 X192.9236
G1 Z3.0000
 X170.1180
G0 Z25.0000
 X147.8820
G1 Z3.0000
 X132.3341
G0 Z25.0000
 X39.9249
G1 Z3.0000
 X25.8456
G0 Z25.0000
 X26.5123 Y145.0000
G1 Z3.0000
 X41.9446
G0 Z25.0000
 X129.7741
G1 Z3.0000
 X147.8820
G0 Z25.0000
 X170.1180
G1 Z3.0000
 X195.8888
G0 Z25.0000
 X264.3629
G1 Z3.0000
 X290.8820
G0 Z25.0000
 X310.4831
G1 Z3.0000
 X320.1987
G0 Z25.0000
 X352.8727
G1 Z3.0000
 X362.7040
 Y147.0000
 X346.8937
G0 Z25.0000
 X322.7523
G1 Z3.0000
 X319.1180
G0 Z25.0000
 X290.8820
G1 Z3.0000
 X260.2621
G0 Z25.0000
 X199.0956
G1 Z3.0000
 X170.1180
G0 Z25.0000
 X147.8820
G1 Z3.0000
 X127.2141
G0 Z25.0000
 X44.4756
G1 Z3.0000
 X27.5189
G0 Z25.0000
 X1.0000 Y149.0000
G1 Z3.0000
 X1.3550
G0 Z25.0000
 X42.5876
G1 Z3.0000
 X47.4408
G0 Z25.0000
 X124.6541
G1 Z3.0000
 X147.8820
G0 Z25.0000
 X158.2997
G1 Z3.0000
 X159.7003
G0 Z25.0000
 X170.1180
G1 Z3.0000
 X204.0457
G0 Z25.0000
 X256.1612
G1 Z3.0000
 X290.8820
G0 Z25.0000
 X319.1180
G1 Z3.0000
 X326.7845
G0 Z25.0000
 X340.9146
G1 Z3.0000
 X362.7040
 Y151.0000
 X319.1180
G0 Z25.0000
 X290.8820
G1 Z3.0000
 X251.2067
G0 Z25.0000
 X208.9958
G1 Z3.0000
 X170.1180
G0 Z25.0000
 X159.7003
G1 Z3.0000
 X158.2997
G0 Z25.0000
 X147.8820
G1 Z3.0000
 X122.0941
G0 Z25.0000
 X50.4059
G1 Z3.0000
 X45.5977
G0 Z25.0000
 X1.8820
G1 Z3.0000
 X1.0000
 Y153.0000
 X1.8820
G0 Z25.0000
 X46.1180
G1 Z3.0000
 X53.3710
G0 Z25.0000
 X118.3125
G1 Z3.0000
 X147.8820
G0 Z25.0000
 X170.1180
G1 Z3.0000
 X217.1022
G0 Z25.0000
 X243.1870
G1 Z3.0000
 X290.8820
G0 Z25.0000
 X319.1180
G1 Z3.0000
 X322.5000
G0 Z25.0000
 X321.8820 Y155.0000
G1 Z3.0000
 X319.1180
G0 Z25.0000
 X290.8820
G1 Z3.0000
 X209.5015
G0 Z25.0000
 X147.8820
G1 Z3.0000
 X114.2116
G0 Z25.0000
 X57.5702
G1 Z3.0000
 X46.1180
G0 Z25.0000
 X1.8820
G1 Z3.0000
 X1.0000
 Y157.0000
 X1.8820
G0 Z25.0000
 X32.3676
G1 Z3.0000
 X34.7028
G0 Z25.0000
 X46.0444
G1 Z3.0000
 X62.5203
G0 Z25.0000
 X110.1107
G1 Z3.0000
 X147.8820
G0 Z25.0000
 X213.8655
G1 Z3.0000
 X290.8820
G0 Z25.0000
 X319.1180
G1 Z3.0000
 X321.8820
 Y159.0000
 X319.1180
G0 Z25.0000
 X290.8820
G1 Z3.0000
 X218.2294
G0 Z25.0000
 X147.8820
G1 Z3.0000
 X103.1967
G0 Z25.0000
 X67.4808
G1 Z3.0000
 X41.7963
G0 Z25.0000
 X13.7000
G1 Z3.0000
 X12.3000
G0 Z25.0000
 X1.8820
G1 Z3.0000
 X1.0000
 Y161.0000
 X1.8820
G0 Z25.0000
 X12.3000
G1 Z3.0000
 X13.7000
G0 Z25.0000
 X38.8626
G1 Z3.0000
 X65.0306
G0 Z25.0000
 X68.4754
G1 Z3.0000
 X78.7744
G0 Z25.0000
 X94.1722
G1 Z3.0000
 X129.8820
G0 Z25.0000
 X221.1160
G1 Z3.0000
 X290.8820
G0 Z25.0000
 X319.1180
G1 Z3.0000
 X321.8820
 Y163.0000
 X319.1180
G0 Z25.0000
 X299.2899
G1 Z3.0000
 X296.7101
G0 Z25.0000
 X290.8820
G1 Z3.0000
 X222.6000
G0 Z25.0000
 X129.8820
G1 Z3.0000
 X75.7962
G0 Z25.0000
 X58.1093
G1 Z3.0000
 X36.9287
G0 Z25.0000
 X1.8820
G1 Z3.0000
 X1.0000
 Y165.0000
 X1.8820
G0 Z25.0000
 X35.5405
G1 Z3.0000
 X54.9016
G0 Z25.0000
 X79.5452
G1 Z3.0000
 X129.8820
G0 Z25.0000
 X223.3640
G1 Z3.0000
 X290.8820
G0 Z25.0000
 X319.1180
G1 Z3.0000
 X321.8820
G0 Z25.0000
 X351.7101
G1 Z3.0000
 X354.2899
G0 Z25.0000
 X321.8820 Y167.0000
G1 Z3.0000
 X319.1180
G0 Z25.0000
 X291.1105
G1 Z3.0000
 X223.6005
G0 Z25.0000
 X216.2899
G1 Z3.0000
 X213.7101
G0 Z25.0000
 X184.2899
G1 Z3.0000
 X181.7101
G0 Z25.0000
 X169.6810
G1 Z3.0000
 X167.3190
G0 Z25.0000
 X138.6810
G1 Z3.0000
 X136.3190
G0 Z25.0000
 X129.8820
G1 Z3.0000
 X83.0410
G0 Z25.0000
 X52.6854
G1 Z3.0000
 X34.6599
G0 Z25.0000
 X1.8820
G1 Z3.0000
 X1.0000
 Y169.0000
 X1.8820
G0 Z25.0000
 X34.0894
G1 Z3.0000
 X50.9287
G0 Z25.0000
 X86.5368
G1 Z3.0000
 X129.8820
G0 Z25.0000
 X223.3657
G1 Z3.0000
 X292.3209
G0 Z25.0000
 X319.1180
G1 Z3.0000
 X320.6162
G0 Z25.0000
 X319.1156 Y171.0000
G1 Z3.0000
 X222.6280
G0 Z25.0000
 X129.8820
G1 Z3.0000
 X90.0327
G0 Z25.0000
 X49.6119
G1 Z3.0000
 X33.7391
G0 Z25.0000
 X1.8820
G1 Z3.0000
 X1.0000
 Y173.0000
 X1.8820
G0 Z25.0000
 X33.7391
G1 Z3.0000
 X48.6359
G0 Z25.0000
 X64.5726
G1 Z3.0000
 X69.4274
G0 Z25.0000
 X93.5285
G1 Z3.0000
 X129.8820
G0 Z25.0000
 X146.9852
G1 Z3.0000
 X159.0148
G0 Z25.0000
 X221.5521
G1 Z3.0000
 X274.8820
G0 Z25.0000
 X314.1180
G1 Z3.0000
 X317.9846
G0 Z25.0000
 X328.4624
G1 Z3.0000
 X337.5376
G0 Z25.0000
 X339.7073 Y175.0000
G1 Z3.0000
 X326.2927
G0 Z25.0000
 X317.1709
G1 Z3.0000
 X314.1180
G0 Z25.0000
 X274.8820
G1 Z3.0000
 X272.5000
G0 Z25.0000
 X231.5000
G1 Z3.0000
 X220.4696
G0 Z25.0000
 X203.5376
G1 Z3.0000
 X194.4624
G0 Z25.0000
 X161.2519
G1 Z3.0000
 X144.7481
G0 Z25.0000
 X129.8820
G1 Z3.0000
 X97.0244
G0 Z25.0000
 X72.8064
G1 Z3.0000
 X61.1936
G0 Z25.0000
 X47.8348
G1 Z3.0000
 X34.0030
G0 Z25.0000
 X1.9560
G1 Z3.0000
 X1.0000
 Y177.0000
 X6.9310
G0 Z25.0000
 X34.4790
G1 Z3.0000
 X47.3771
G0 Z25.0000
 X59.6909
G1 Z3.0000
 X74.3091
G0 Z25.0000
 X100.5202
G1 Z3.0000
 X129.8820
G0 Z25.0000
 X143.3968
G1 Z3.0000
 X162.6032
G0 Z25.0000
 X192.2927
G1 Z3.0000
 X205.7073
G0 Z25.0000
 X219.3872
G1 Z3.0000
 X230.8820
G0 Z25.0000
 X273.1180
G1 Z3.0000
 X274.8820
G0 Z25.0000
 X314.1180
G1 Z3.0000
 X316.7271
G0 Z25.0000
 X325.2160
G1 Z3.0000
 X340.7840
G0 Z25.0000
 X341.2705 Y179.0000
G1 Z3.0000
 X324.7295
G0 Z25.0000
 X316.4540
G1 Z3.0000
 X314.1180
G0 Z25.0000
 X304.2899
G1 Z3.0000
 X301.7101
G0 Z25.0000
 X284.2899
G1 Z3.0000
 X281.7101
G0 Z25.0000
 X274.8820
G1 Z3.0000
 X273.1180
G0 Z25.0000
 X230.8820
G1 Z3.0000
 X218.3047
G0 Z25.0000
 X206.7840
G1 Z3.0000
 X191.2160
G0 Z25.0000
 X163.3978
G1 Z3.0000
 X142.6022
G0 Z25.0000
 X129.8820
G1 Z3.0000
 X104.0160
G0 Z25.0000
 X75.1087
G1 Z3.0000
 X58.8913
G0 Z25.0000
 X47.0128
G1 Z3.0000
 X35.3599
G0 Z25.0000
 X13.7000
G1 Z3.0000
 X12.3000
G0 Z25.0000
 X7.8820
G1 Z3.0000
 X1.0000
 Y181.0000
 X7.8820
G0 Z25.0000
 X12.3000
G1 Z3.0000
 X13.7000
G0 Z25.0000
 X36.6351
G1 Z3.0000
 X46.9733
G0 Z25.0000
 X58.6242
G1 Z3.0000
 X75.3758
G0 Z25.0000
 X107.5119
G1 Z3.0000
 X129.8820
G0 Z25.0000
 X142.2296
G1 Z3.0000
 X163.7704
G0 Z25.0000
 X190.7295
G1 Z3.0000
 X207.2705
G0 Z25.0000
 X217.2223
G1 Z3.0000
 X230.8820
G0 Z25.0000
 X241.2997
G1 Z3.0000
 X242.7003
G0 Z25.0000
 X261.2997
G1 Z3.0000
 X262.7003
G0 Z25.0000
 X273.1180
G1 Z3.0000
 X274.8820
G0 Z25.0000
 X314.1180
G1 Z3.0000
 X316.4540
G0 Z25.0000
 X324.7295
G1 Z3.0000
 X341.2705
G0 Z25.0000
 X340.7840 Y183.0000
G1 Z3.0000
 X325.2160
G0 Z25.0000
 X316.7271
G1 Z3.0000
 X314.1180
G0 Z25.0000
 X274.8820
G1 Z3.0000
 X273.1180
G0 Z25.0000
 X262.7003
G1 Z3.0000
 X261.2997
G0 Z25.0000
 X242.7003
G1 Z3.0000
 X241.2997
G0 Z25.0000
 X230.8820
G1 Z3.0000
 X216.1398
G0 Z25.0000
 X207.2705
G1 Z3.0000
 X190.7295
G0 Z25.0000
 X163.7704
G1 Z3.0000
 X142.2296
G0 Z25.0000
 X129.8820
G1 Z3.0000
 X111.0077
G0 Z25.0000
 X75.1087
G1 Z3.0000
 X58.8913
G0 Z25.0000
 X47.0158
G1 Z3.0000
 X38.4152
G0 Z25.0000
 X6.9310
G1 Z3.0000
 X1.0000
 Y185.0000
 X1.9560
G0 Z25.0000
 X41.1040
G1 Z3.0000
 X47.3770
G0 Z25.0000
 X59.6909
G1 Z3.0000
 X74.3091
G0 Z25.0000
 X114.5035
G1 Z3.0000
 X129.8820
G0 Z25.0000
 X142.6022
G1 Z3.0000
 X163.3978
G0 Z25.0000
 X191.2160
G1 Z3.0000
 X206.7840
G0 Z25.0000
 X215.0574
G1 Z3.0000
 X230.8820
G0 Z25.0000
 X273.1180
G1 Z3.0000
 X274.8820
G0 Z25.0000
 X314.1180
G1 Z3.0000
 X317.1709
G0 Z25.0000
 X326.2927
G1 Z3.0000
 X339.7073
G0 Z25.0000
 X337.5376 Y187.0000
G1 Z3.0000
 X328.4624
G0 Z25.0000
 X317.9846
G1 Z3.0000
 X314.1180
G0 Z25.0000
 X274.8820
G1 Z3.0000
 X273.1180
G0 Z25.0000
 X230.8820
G1 Z3.0000
 X213.9749
G0 Z25.0000
 X205.7073
G1 Z3.0000
 X192.2927
G0 Z25.0000
 X162.6032
G1 Z3.0000
 X143.3968
G0 Z25.0000
 X129.8820
G1 Z3.0000
 X115.1180
G0 Z25.0000
 X72.8064
G1 Z3.0000
 X61.1936
G0 Z25.0000
 X47.8291
G1 Z3.0000
 X45.7706
G0 Z25.0000
 X34.5327
G1 Z3.0000
 X32.5377
G0 Z25.0000
 X1.8820
G1 Z3.0000
 X1.0000
 Y189.0000
 X1.8820
G0 Z25.0000
 X46.1180
G1 Z3.0000
 X48.4624
G0 Z25.0000
 X64.5726
G1 Z3.0000
 X69.4274
G0 Z25.0000
 X115.1180
G1 Z3.0000
 X129.8820
G0 Z25.0000
 X144.7481
G1 Z3.0000
 X161.2519
G0 Z25.0000
 X194.4624
G1 Z3.0000
 X203.5376
G0 Z25.0000
 X212.8925
G1 Z3.0000
 X230.8820
G0 Z25.0000
 X273.1180
G1 Z3.0000
 X274.8820
G0 Z25.0000
 X314.1180
G1 Z3.0000
 X319.1156
G0 Z25.0000
 X320.6162 Y191.0000
G1 Z3.0000
 X314.1180
G0 Z25.0000
 X274.8820
G1 Z3.0000
 X273.1180
G0 Z25.0000
 X230.8820
G1 Z3.0000
 X211.8100
G0 Z25.0000
 X159.0148
G1 Z3.0000
 X146.9852
G0 Z25.0000
 X129.8820
G1 Z3.0000
 X115.1180
G0 Z25.0000
 X49.1314
G1 Z3.0000
 X46.1180
G0 Z25.0000
 X1.7195
G1 Z3.0000
 X1.0000
 Y193.0000
 X1.4195
G0 Z25.0000
 X45.5977
G1 Z3.0000
 X49.8004
G0 Z25.0000
 X115.1180
G1 Z3.0000
 X129.8820
G0 Z25.0000
 X210.7275
G1 Z3.0000
 X230.8820
G0 Z25.0000
 X273.1180
G1 Z3.0000
 X274.8820
G0 Z25.0000
 X314.1180
G1 Z3.0000
 X321.8820
G0 Z25.0000
 X354.2899 Y195.0000
G1 Z3.0000
 X351.7101
G0 Z25.0000
 X321.8820
G1 Z3.0000
 X314.1180
G0 Z25.0000
 X274.8820
G1 Z3.0000
 X273.1180
G0 Z25.0000
 X230.8820
G1 Z3.0000
 X210.1180
G0 Z25.0000
 X129.8820
G1 Z3.0000
 X115.1180
G0 Z25.0000
 X107.7003
G1 Z3.0000
 X106.2997
G0 Z25.0000
 X87.7000
G1 Z3.0000
 X86.3000
G0 Z25.0000
 X50.4693
G1 Z3.0000
 X42.5876
G0 Z25.0000
 X1.1195
G1 Z3.0000
 X1.0000
G0 Z25.0000
 X27.9739 Y197.0000
G1 Z3.0000
 X51.1383
G0 Z25.0000
 X86.3000
G1 Z3.0000
 X87.7000
G0 Z25.0000
 X106.2997
G1 Z3.0000
 X107.7003
G0 Z25.0000
 X115.1180
G1 Z3.0000
 X129.8820
G0 Z25.0000
 X210.1180
G1 Z3.0000
 X230.8820
G0 Z25.0000
 X253.9040
G1 Z3.0000
 X254.1184
G0 Z25.0000
 X261.9040
G1 Z3.0000
 X262.1184
G0 Z25.0000
 X273.1180
G1 Z3.0000
 X274.8820
G0 Z25.0000
 X314.1180
G1 Z3.0000
 X321.8820
 Y199.0000
 X314.1180
G0 Z25.0000
 X304.2899
G1 Z3.0000
 X301.7101
G0 Z25.0000
 X284.2899
G1 Z3.0000
 X281.7101
G0 Z25.0000
 X274.8820
G1 Z3.0000
 X273.1180
G0 Z25.0000
 X230.8820
G1 Z3.0000
 X210.1180
G0 Z25.0000
 X129.8820
G1 Z3.0000
 X115.1180
G0 Z25.0000
 X51.8073
G1 Z3.0000
 X26.9814
G0 Z25.0000
 X26.5147 Y201.0000
G1 Z3.0000
 X52.4762
G0 Z25.0000
 X115.1180
G1 Z3.0000
 X129.8820
G0 Z25.0000
 X210.1180
G1 Z3.0000
 X230.8820
G0 Z25.0000
 X273.1180
G1 Z3.0000
 X274.8820
G0 Z25.0000
 X314.1180
G1 Z3.0000
 X321.8820
 Y203.0000
 X314.1180
G0 Z25.0000
 X274.8820
G1 Z3.0000
 X272.8895
G0 Z25.0000
 X231.1105
G1 Z3.0000
 X210.1180
G0 Z25.0000
 X129.8820
G1 Z3.0000
 X115.1180
G0 Z25.0000
 X53.1452
G1 Z3.0000
 X26.0480
G0 Z25.0000
 X25.5814 Y205.0000
G1 Z3.0000
 X53.8142
G0 Z25.0000
 X115.1180
G1 Z3.0000
 X130.5000
G0 Z25.0000
 X210.1180
G1 Z3.0000
 X232.3209
G0 Z25.0000
 X271.6791
G1 Z3.0000
 X274.8820
G0 Z25.0000
 X314.1180
G1 Z3.0000
 X321.8820
G0 Z25.0000
 X322.5000 Y207.0000
G1 Z3.0000
 X210.1180
G0 Z25.0000
 X147.8820
G1 Z3.0000
 X115.1180
G0 Z25.0000
 X54.4831
G1 Z3.0000
 X25.1147
G0 Z25.0000
 X24.6480 Y209.0000
G1 Z3.0000
 X55.1521
G0 Z25.0000
 X115.1180
G1 Z3.0000
 X148.5000
G0 Z25.0000
 X209.5000
G1 Z3.0000
 X293.5000
G0 Z25.0000
 X351.5000
G1 Z3.0000
 X362.7040
 Y211.0000
 X352.5134
G0 Z25.0000
 X292.8820
G1 Z3.0000
 X172.1180
G0 Z25.0000
 X135.8820
G1 Z3.0000
 X115.1180
G0 Z25.0000
 X55.8211
G1 Z3.0000
 X24.1814
G0 Z25.0000
 X23.7147 Y213.0000
G1 Z3.0000
 X135.8820
G0 Z25.0000
 X172.1180
G1 Z3.0000
 X292.8820
G0 Z25.0000
 X353.1824
G1 Z3.0000
 X362.7040
 Y215.0000
 X353.8514
G0 Z25.0000
 X292.8820
G1 Z3.0000
 X172.1180
G0 Z25.0000
 X135.8820
G1 Z3.0000
 X23.2481
G0 Z25.0000
 X5.7000
G1 Z3.0000
 X4.3000
 Y217.0000
 X5.7000
G0 Z25.0000
 X22.7814
G1 Z3.0000
 X39.8165
G0 Z25.0000
 X66.1180
G1 Z3.0000
 X67.3820
G0 Z25.0000
 X126.6749
G1 Z3.0000
 X135.8820
G0 Z25.0000
 X172.1180
G1 Z3.0000
 X292.8820
G0 Z25.0000
 X354.5204
G1 Z3.0000
 X362.7040
 Y219.0000
 X355.1894
G0 Z25.0000
 X292.8820
G1 Z3.0000
 X272.1180
G0 Z25.0000
 X237.8820
G1 Z3.0000
 X237.1180
G0 Z25.0000
 X180.8249
G1 Z3.0000
 X172.1180
G0 Z25.0000
 X135.8820
G1 Z3.0000
 X127.3205
G0 Z25.0000
 X67.3820
G1 Z3.0000
 X66.1180
G0 Z25.0000
 X36.4616
G1 Z3.0000
 X22.3147
G0 Z25.0000
 X21.8481 Y221.0000
G1 Z3.0000
 X33.1066
G0 Z25.0000
 X66.1180
G1 Z3.0000
 X67.3820
G0 Z25.0000
 X127.9662
G1 Z3.0000
 X135.8820
G0 Z25.0000
 X172.1180
G1 Z3.0000
 X180.1779
G0 Z25.0000
 X237.1180
G1 Z3.0000
 X237.8820
G0 Z25.0000
 X272.1180
G1 Z3.0000
 X292.8820
G0 Z25.0000
 X355.8584
G1 Z3.0000
 X362.7040
 Y223.0000
 X356.5274
G0 Z25.0000
 X292.8820
G1 Z3.0000
 X272.1180
G0 Z25.0000
 X237.8820
G1 Z3.0000
 X237.1180
G0 Z25.0000
 X179.5308
G1 Z3.0000
 X172.1180
G0 Z25.0000
 X135.8820
G1 Z3.0000
 X128.6118
G0 Z25.0000
 X67.3820
G1 Z3.0000
 X66.1180
G0 Z25.0000
 X29.7516
G1 Z3.0000
 X21.3814
G0 Z25.0000
 X20.5000 Y225.0000
G1 Z3.0000
 X26.3966
G0 Z25.0000
 X66.1180
G1 Z3.0000
 X67.3820
G0 Z25.0000
 X129.2575
G1 Z3.0000
 X135.8820
G0 Z25.0000
 X143.2997
G1 Z3.0000
 X144.7003
G0 Z25.0000
 X163.2997
G1 Z3.0000
 X164.7003
G0 Z25.0000
 X172.1180
G1 Z3.0000
 X178.8837
G0 Z25.0000
 X237.1180
G1 Z3.0000
 X237.8820
G0 Z25.0000
 X272.1180
G1 Z3.0000
 X292.8820
G0 Z25.0000
 X299.7101
G1 Z3.0000
 X302.2899
G0 Z25.0000
 X319.7101
G1 Z3.0000
 X322.2899
G0 Z25.0000
 X357.1964
G1 Z3.0000
 X362.7040
 Y227.0000
 X357.8654
G0 Z25.0000
 X341.7590
G1 Z3.0000
 X340.3160
G0 Z25.0000
 X292.8820
G1 Z3.0000
 X272.1180
G0 Z25.0000
 X256.2899
G1 Z3.0000
 X253.7101
G0 Z25.0000
 X237.8820
G1 Z3.0000
 X237.1180
G0 Z25.0000
 X178.2367
G1 Z3.0000
 X172.1180
G0 Z25.0000
 X164.7003
G1 Z3.0000
 X163.2997
G0 Z25.0000
 X144.7003
G1 Z3.0000
 X143.2997
G0 Z25.0000
 X135.8820
G1 Z3.0000
 X129.9032
G0 Z25.0000
 X67.3820
G1 Z3.0000
 X66.1180
G0 Z25.0000
 X23.0416
G1 Z3.0000
 X1.0000
 Y229.0000
 X19.6867
G0 Z25.0000
 X66.1180
G1 Z3.0000
 X67.3820
G0 Z25.0000
 X130.5488
G1 Z3.0000
 X135.8820
G0 Z25.0000
 X172.1180
G1 Z3.0000
 X177.5896
G0 Z25.0000
 X237.1180
G1 Z3.0000
 X237.8820
G0 Z25.0000
 X272.1180
G1 Z3.0000
 X292.8820
G0 Z25.0000
 X358.5344
G1 Z3.0000
 X362.7040
 Y231.0000
 X359.2035
G0 Z25.0000
 X292.8820
G1 Z3.0000
 X272.1180
G0 Z25.0000
 X237.8820
G1 Z3.0000
 X237.1180
G0 Z25.0000
 X176.9426
G1 Z3.0000
 X172.1180
G0 Z25.0000
 X135.8820
G1 Z3.0000
 X131.1945
G0 Z25.0000
 X96.2000
G1 Z3.0000
 X94.8000
G0 Z25.0000
 X76.2000
G1 Z3.0000
 X74.8000
G0 Z25.0000
 X67.3820
G1 Z3.0000
 X66.1180
G0 Z25.0000
 X60.1183
G1 Z3.0000
 X59.9041
G0 Z25.0000
 X46.1183
G1 Z3.0000
 X45.9041
G0 Z25.0000
 X16.3317
G1 Z3.0000
 X1.0000
 Y233.0000
 X12.9767
G0 Z25.0000
 X66.1180
G1 Z3.0000
 X67.3820
G0 Z25.0000
 X74.8000
G1 Z3.0000
 X76.2000
G0 Z25.0000
 X94.8000
G1 Z3.0000
 X96.2000
G0 Z25.0000
 X131.8402
G1 Z3.0000
 X135.8820
G0 Z25.0000
 X172.1180
G1 Z3.0000
 X176.2955
G0 Z25.0000
 X237.1180
G1 Z3.0000
 X237.8820
G0 Z25.0000
 X272.1180
G1 Z3.0000
 X292.8820
G0 Z25.0000
 X336.4624
G1 Z3.0000
 X345.5376
G0 Z25.0000
 X359.8725
G1 Z3.0000
 X362.7040
 Y235.0000
 X360.3971
G0 Z25.0000
 X347.7073
G1 Z3.0000
 X334.2927
G0 Z25.0000
 X292.8820
G1 Z3.0000
 X272.1180
G0 Z25.0000
 X237.8820
G1 Z3.0000
 X237.1180
G0 Z25.0000
 X175.6484
G1 Z3.0000
 X172.1180
G0 Z25.0000
 X136.3302
G1 Z3.0000
 X132.4858
G0 Z25.0000
 X67.3820
G1 Z3.0000
 X66.1180
G0 Z25.0000
 X9.6217
G1 Z3.0000
 X1.0000
 Y237.0000
 X6.2667
G0 Z25.0000
 X66.1180
G1 Z3.0000
 X67.3820
G0 Z25.0000
 X133.1315
G1 Z3.0000
 X136.8102
G0 Z25.0000
 X172.1180
G1 Z3.0000
 X175.0014
G0 Z25.0000
 X237.1180
G1 Z3.0000
 X237.8820
G0 Z25.0000
 X272.1180
G1 Z3.0000
 X295.2444
G0 Z25.0000
 X333.2160
G1 Z3.0000
 X348.7840
G0 Z25.0000
 X360.8487
G1 Z3.0000
 X362.7040
 Y239.0000
 X361.0050
G0 Z25.0000
 X349.2705
G1 Z3.0000
 X332.7295
G0 Z25.0000
 X298.7402
G1 Z3.0000
 X272.1180
G0 Z25.0000
 X237.8820
G1 Z3.0000
 X237.1180
G0 Z25.0000
 X174.3543
G1 Z3.0000
 X172.1180
G0 Z25.0000
 X137.2902
G1 Z3.0000
 X133.7772
G0 Z25.0000
 X117.9278
G1 Z3.0000
 X113.0722
G0 Z25.0000
 X67.3820
G1 Z3.0000
 X66.1180
G0 Z25.0000
 X3.0455
G1 Z3.0000
 X1.0000
 Y241.0000
 X1.0079
G0 Z25.0000
 X66.1180
G1 Z3.0000
 X67.8302
G0 Z25.0000
 X109.6938
G1 Z3.0000
 X121.3062
G0 Z25.0000
 X134.4228
G1 Z3.0000
 X137.7702
G0 Z25.0000
 X171.8826
G1 Z3.0000
 X173.7073
G0 Z25.0000
 X237.1180
G1 Z3.0000
 X237.8820
G0 Z25.0000
 X272.1180
G1 Z3.0000
 X302.2359
G0 Z25.0000
 X332.7295
G1 Z3.0000
 X349.2705
G0 Z25.0000
 X361.0475
G1 Z3.0000
 X362.7040
 Y243.0000
 X360.8049
G0 Z25.0000
 X348.7840
G1 Z3.0000
 X333.2160
G0 Z25.0000
 X305.7317
G1 Z3.0000
 X302.5524
G0 Z25.0000
 X289.5738
G1 Z3.0000
 X272.1180
G0 Z25.0000
 X237.8820
G1 Z3.0000
 X237.1180
G0 Z25.0000
 X173.0602
G1 Z3.0000
 X171.3270
G0 Z25.0000
 X138.2502
G1 Z3.0000
 X135.0685
G0 Z25.0000
 X122.8095
G1 Z3.0000
 X108.1905
G0 Z25.0000
 X68.3102
G1 Z3.0000
 X66.3898
G0 Z25.0000
 X7.3000 Y245.0000
G1 Z3.0000
 X8.7000
G0 Z25.0000
 X39.3000
G1 Z3.0000
 X40.7000
G0 Z25.0000
 X66.8698
G1 Z3.0000
 X68.7902
G0 Z25.0000
 X107.3913
G1 Z3.0000
 X123.6087
G0 Z25.0000
 X135.7142
G1 Z3.0000
 X138.7302
G0 Z25.0000
 X170.7715
G1 Z3.0000
 X172.4131
G0 Z25.0000
 X237.1180
G1 Z3.0000
 X237.8820
G0 Z25.0000
 X272.1180
G1 Z3.0000
 X285.4069
G0 Z25.0000
 X306.7977
G1 Z3.0000
 X309.2275
G0 Z25.0000
 X334.2927
G1 Z3.0000
 X347.7073
G0 Z25.0000
 X360.4409
G1 Z3.0000
 X362.7040
 Y247.0000
 X359.7648
G0 Z25.0000
 X345.5376
G1 Z3.0000
 X336.4624
G0 Z25.0000
 X312.7233
G1 Z3.0000
 X310.2935
G0 Z25.0000
 X282.6810
G1 Z3.0000
 X272.1180
G0 Z25.0000
 X256.2899
G1 Z3.0000
 X253.7101
G0 Z25.0000
 X237.8820
G1 Z3.0000
 X237.1180
G0 Z25.0000
 X171.7661
G1 Z3.0000
 X170.2159
G0 Z25.0000
 X139.2102
G1 Z3.0000
 X136.3598
G0 Z25.0000
 X123.8758
G1 Z3.0000
 X107.1242
G0 Z25.0000
 X69.2702
G1 Z3.0000
 X67.3498
G0 Z25.0000
 X40.7000
G1 Z3.0000
 X39.3000
G0 Z25.0000
 X8.7000
G1 Z3.0000
 X7.3000
G0 Z25.0000
 X67.8298 Y249.0000
G1 Z3.0000
 X69.7502
G0 Z25.0000
 X107.3913
G1 Z3.0000
 X123.6087
G0 Z25.0000
 X137.0055
G1 Z3.0000
 X139.6902
G0 Z25.0000
 X169.6604
G1 Z3.0000
 X171.1190
G0 Z25.0000
 X237.1180
G1 Z3.0000
 X237.8820
G0 Z25.0000
 X272.1180
G1 Z3.0000
 X280.6899
G0 Z25.0000
 X295.3160
G1 Z3.0000
 X296.7590
G0 Z25.0000
 X313.7893
G1 Z3.0000
 X316.2191
G0 Z25.0000
 X358.9637
G1 Z3.0000
 X362.7040
 Y251.0000
 X357.7296
G0 Z25.0000
 X319.7149
G1 Z3.0000
 X317.2851
G0 Z25.0000
 X279.2704
G1 Z3.0000
 X272.1180
G0 Z25.0000
 X237.8820
G1 Z3.0000
 X237.1180
G0 Z25.0000
 X170.4720
G1 Z3.0000
 X169.1048
G0 Z25.0000
 X140.1702
G1 Z3.0000
 X137.6512
G0 Z25.0000
 X122.8095
G1 Z3.0000
 X108.1905
G0 Z25.0000
 X70.2302
G1 Z3.0000
 X68.3098
G0 Z25.0000
 X26.4274
G1 Z3.0000
 X21.5726
G0 Z25.0000
 X1.0000 Y253.0000
G1 Z3.0000
 X1.2034
G0 Z25.0000
 X18.1936
G1 Z3.0000
 X29.8064
G0 Z25.0000
 X68.7898
G1 Z3.0000
 X70.7102
G0 Z25.0000
 X109.6938
G1 Z3.0000
 X121.3062
G0 Z25.0000
 X138.2968
G1 Z3.0000
 X140.6502
G0 Z25.0000
 X168.5493
G1 Z3.0000
 X169.8820
G0 Z25.0000
 X237.1180
G1 Z3.0000
 X237.8820
G0 Z25.0000
 X272.1180
G1 Z3.0000
 X278.0363
G0 Z25.0000
 X320.7809
G1 Z3.0000
 X323.2107
G0 Z25.0000
 X340.3160
G1 Z3.0000
 X341.7590
G0 Z25.0000
 X356.3101
G1 Z3.0000
 X362.7040
 Y255.0000
 X354.3190
G0 Z25.0000
 X326.7065
G1 Z3.0000
 X324.2767
G0 Z25.0000
 X300.5376
G1 Z3.0000
 X291.4624
G0 Z25.0000
 X277.2352
G1 Z3.0000
 X272.1180
G0 Z25.0000
 X237.8820
G1 Z3.0000
 X204.1180
G0 Z25.0000
 X169.8820
G1 Z3.0000
 X167.9937
G0 Z25.0000
 X141.1302
G1 Z3.0000
 X138.9425
G0 Z25.0000
 X117.9278
G1 Z3.0000
 X113.0722
G0 Z25.0000
 X71.1902
G1 Z3.0000
 X69.2698
G0 Z25.0000
 X31.3091
G1 Z3.0000
 X16.6909
G0 Z25.0000
 X1.8491
G1 Z3.0000
 X1.0000
 Y257.0000
 X2.4947
G0 Z25.0000
 X15.8913
G1 Z3.0000
 X32.1087
G0 Z25.0000
 X69.7498
G1 Z3.0000
 X71.6702
G0 Z25.0000
 X139.5882
G1 Z3.0000
 X141.6102
G0 Z25.0000
 X167.4381
G1 Z3.0000
 X169.8820
G0 Z25.0000
 X204.1180
G1 Z3.0000
 X204.8820
G0 Z25.0000
 X272.1180
G1 Z3.0000
 X276.5591
G0 Z25.0000
 X289.2927
G1 Z3.0000
 X302.7073
G0 Z25.0000
 X327.7725
G1 Z3.0000
 X330.2023
G0 Z25.0000
 X351.5931
G1 Z3.0000
 X362.7040
 Y259.0000
 X347.4262
G0 Z25.0000
 X334.4476
G1 Z3.0000
 X331.2683
G0 Z25.0000
 X303.7840
G1 Z3.0000
 X288.2160
G0 Z25.0000
 X276.1951
G1 Z3.0000
 X271.5280
G0 Z25.0000
 X204.8820
G1 Z3.0000
 X204.1180
G0 Z25.0000
 X169.8820
G1 Z3.0000
 X167.1180
G0 Z25.0000
 X141.8820
G1 Z3.0000
 X140.0427
G0 Z25.0000
 X132.2003
G1 Z3.0000
 X130.7997
G0 Z25.0000
 X100.2003
G1 Z3.0000
 X98.8000
G0 Z25.0000
 X72.1502
G1 Z3.0000
 X70.2298
G0 Z25.0000
 X32.3758
G1 Z3.0000
 X15.6242
G0 Z25.0000
 X3.1404
G1 Z3.0000
 X1.0000
 Y261.0000
 X3.7860
G0 Z25.0000
 X15.8913
G1 Z3.0000
 X32.1087
G0 Z25.0000
 X70.7098
G1 Z3.0000
 X72.6302
G0 Z25.0000
 X98.8000
G1 Z3.0000
 X100.2003
G0 Z25.0000
 X130.7997
G1 Z3.0000
 X132.2003
G0 Z25.0000
 X140.0498
G1 Z3.0000
 X141.8820
G0 Z25.0000
 X167.1180
G1 Z3.0000
 X169.8820
G0 Z25.0000
 X204.1180
G1 Z3.0000
 X204.8820
G0 Z25.0000
 X270.8810
G1 Z3.0000
 X275.9525
G0 Z25.0000
 X287.7295
G1 Z3.0000
 X304.2705
G0 Z25.0000
 X334.7641
G1 Z3.0000
 X362.7040
 Y263.0000
 X338.2598
G0 Z25.0000
 X304.2705
G1 Z3.0000
 X287.7295
G0 Z25.0000
 X275.9950
G1 Z3.0000
 X270.2339
G0 Z25.0000
 X204.8820
G1 Z3.0000
 X204.1180
G0 Z25.0000
 X188.2899
G1 Z3.0000
 X185.7101
G0 Z25.0000
 X169.8820
G1 Z3.0000
 X167.1180
G0 Z25.0000
 X141.8820
G1 Z3.0000
 X139.5785
G0 Z25.0000
 X73.1102
G1 Z3.0000
 X71.1898
G0 Z25.0000
 X31.3091
G1 Z3.0000
 X16.6909
G0 Z25.0000
 X4.4317
G1 Z3.0000
 X1.0000
 Y265.0000
 X5.0773
G0 Z25.0000
 X18.1936
G1 Z3.0000
 X29.8064
G0 Z25.0000
 X71.6698
G1 Z3.0000
 X73.3820
G0 Z25.0000
 X138.4922
G1 Z3.0000
 X141.8820
G0 Z25.0000
 X167.1180
G1 Z3.0000
 X169.8820
G0 Z25.0000
 X204.1180
G1 Z3.0000
 X204.8820
G0 Z25.0000
 X269.5869
G1 Z3.0000
 X276.1513
G0 Z25.0000
 X288.2160
G1 Z3.0000
 X303.7840
G0 Z25.0000
 X341.7556
G1 Z3.0000
 X362.7040
 Y267.0000
 X344.1180
G0 Z25.0000
 X302.7073
G1 Z3.0000
 X289.2927
G0 Z25.0000
 X276.6029
G1 Z3.0000
 X268.9398
G0 Z25.0000
 X204.8820
G1 Z3.0000
 X204.1180
G0 Z25.0000
 X169.8820
G1 Z3.0000
 X167.1180
G0 Z25.0000
 X141.8820
G1 Z3.0000
 X136.4547
G0 Z25.0000
 X73.3820
G1 Z3.0000
 X72.1180
G0 Z25.0000
 X26.4274
G1 Z3.0000
 X21.5726
G0 Z25.0000
 X5.7230
G1 Z3.0000
 X1.0000
 Y269.0000
 X6.3686
G0 Z25.0000
 X72.1180
G1 Z3.0000
 X73.3820
G0 Z25.0000
 X133.2334
G1 Z3.0000
 X141.8820
G0 Z25.0000
 X167.1180
G1 Z3.0000
 X169.8820
G0 Z25.0000
 X204.1180
G1 Z3.0000
 X204.8820
G0 Z25.0000
 X268.2927
G1 Z3.0000
 X277.1275
G0 Z25.0000
 X291.4624
G1 Z3.0000
 X300.5376
G0 Z25.0000
 X344.1180
G1 Z3.0000
 X362.7040
 Y271.0000
 X344.1180
G0 Z25.0000
 X277.7965
G1 Z3.0000
 X267.6457
G0 Z25.0000
 X204.8820
G1 Z3.0000
 X204.1180
G0 Z25.0000
 X169.8820
G1 Z3.0000
 X167.1180
G0 Z25.0000
 X141.8820
G1 Z3.0000
 X129.8784
G0 Z25.0000
 X73.3820
G1 Z3.0000
 X72.1180
G0 Z25.0000
 X7.0143
G1 Z3.0000
 X1.0000
 Y273.0000
 X7.6599
G0 Z25.0000
 X43.3000
G1 Z3.0000
 X44.7000
G0 Z25.0000
 X63.3000
G1 Z3.0000
 X64.7000
G0 Z25.0000
 X72.1180
G1 Z3.0000
 X73.3820
G0 Z25.0000
 X126.5234
G1 Z3.0000
 X141.8820
G0 Z25.0000
 X167.1180
G1 Z3.0000
 X169.8820
G0 Z25.0000
 X204.1180
G1 Z3.0000
 X204.8820
G0 Z25.0000
 X266.9986
G1 Z3.0000
 X278.4656
G0 Z25.0000
 X344.1180
G1 Z3.0000
 X362.7040
 Y275.0000
 X344.1180
G0 Z25.0000
 X296.7590
G1 Z3.0000
 X295.3160
G0 Z25.0000
 X279.1346
G1 Z3.0000
 X266.3516
G0 Z25.0000
 X204.8820
G1 Z3.0000
 X204.1180
G0 Z25.0000
 X169.8820
G1 Z3.0000
 X167.1180
G0 Z25.0000
 X141.8820
G1 Z3.0000
 X123.1684
G0 Z25.0000
 X93.6183
G1 Z3.0000
 X93.4041
G0 Z25.0000
 X79.6183
G1 Z3.0000
 X79.4041
G0 Z25.0000
 X73.3820
G1 Z3.0000
 X72.1180
G0 Z25.0000
 X64.7000
G1 Z3.0000
 X63.3000
G0 Z25.0000
 X44.7000
G1 Z3.0000
 X43.3000
G0 Z25.0000
 X8.3056
G1 Z3.0000
 X1.0000
 Y277.0000
 X8.9512
G0 Z25.0000
 X72.1180
G1 Z3.0000
 X73.3820
G0 Z25.0000
 X119.8134
G1 Z3.0000
 X141.8820
G0 Z25.0000
 X147.9040
G1 Z3.0000
 X148.1184
G0 Z25.0000
 X161.9040
G1 Z3.0000
 X162.1184
G0 Z25.0000
 X167.1180
G1 Z3.0000
 X169.8820
G0 Z25.0000
 X204.1180
G1 Z3.0000
 X204.8820
G0 Z25.0000
 X265.7045
G1 Z3.0000
 X279.8036
G0 Z25.0000
 X314.7101
G1 Z3.0000
 X317.2899
G0 Z25.0000
 X334.7101
G1 Z3.0000
 X337.2899
G0 Z25.0000
 X344.1180
G1 Z3.0000
 X362.7040
 Y279.0000
 X344.1180
G0 Z25.0000
 X280.4726
G1 Z3.0000
 X265.0574
G0 Z25.0000
 X204.8820
G1 Z3.0000
 X204.1180
G0 Z25.0000
 X169.8820
G1 Z3.0000
 X167.1180
G0 Z25.0000
 X141.8820
G1 Z3.0000
 X116.4584
G0 Z25.0000
 X73.3820
G1 Z3.0000
 X72.1180
G0 Z25.0000
 X9.5969
G1 Z3.0000
 X1.0000
 Y281.0000
 X10.2425
G0 Z25.0000
 X72.1180
G1 Z3.0000
 X73.3820
G0 Z25.0000
 X113.1034
G1 Z3.0000
 X141.8820
G0 Z25.0000
 X167.1180
G1 Z3.0000
 X169.8820
G0 Z25.0000
 X204.1180
G1 Z3.0000
 X204.8820
G0 Z25.0000
 X264.4104
G1 Z3.0000
 X281.1416
G0 Z25.0000
 X344.1180
G1 Z3.0000
 X362.7040
 Y283.0000
 X344.1180
G0 Z25.0000
 X281.8106
G1 Z3.0000
 X263.7633
G0 Z25.0000
 X204.8820
G1 Z3.0000
 X204.1180
G0 Z25.0000
 X188.2899
G1 Z3.0000
 X185.7101
G0 Z25.0000
 X169.8820
G1 Z3.0000
 X167.1180
G0 Z25.0000
 X141.8820
G1 Z3.0000
 X109.7484
G0 Z25.0000
 X73.3820
G1 Z3.0000
 X72.1180
G0 Z25.0000
 X10.8882
G1 Z3.0000
 X1.0000
 Y285.0000
 X11.5339
G0 Z25.0000
 X72.1180
G1 Z3.0000
 X73.3820
G0 Z25.0000
 X106.3935
G1 Z3.0000
 X141.8820
G0 Z25.0000
 X167.1180
G1 Z3.0000
 X169.8820
G0 Z25.0000
 X204.1180
G1 Z3.0000
 X204.8820
G0 Z25.0000
 X263.1163
G1 Z3.0000
 X282.4796
G0 Z25.0000
 X344.1180
G1 Z3.0000
 X362.7040
 Y287.0000
 X344.1180
G0 Z25.0000
 X283.1486
G1 Z3.0000
 X262.4692
G0 Z25.0000
 X204.8820
G1 Z3.0000
 X204.1180
G0 Z25.0000
 X169.8820
G1 Z3.0000
 X167.1180
G0 Z25.0000
 X141.8820
G1 Z3.0000
 X103.0385
G0 Z25.0000
 X73.3820
G1 Z3.0000
 X72.1180
G0 Z25.0000
 X12.1795
G1 Z3.0000
 X1.0000
 Y289.0000
 X12.8252
G0 Z25.0000
 X72.1180
G1 Z3.0000
 X73.3820
G0 Z25.0000
 X99.6835
G1 Z3.0000
 X141.8820
G0 Z25.0000
 X167.1180
G1 Z3.0000
 X169.8820
G0 Z25.0000
 X204.1180
G1 Z3.0000
 X204.8820
G0 Z25.0000
 X261.8221
G1 Z3.0000
 X283.8176
G0 Z25.0000
 X344.1180
G1 Z3.0000
 X362.7040
 Y291.0000
 X344.1180
G0 Z25.0000
 X284.4866
G1 Z3.0000
 X261.1751
G0 Z25.0000
 X204.8820
G1 Z3.0000
 X204.1180
G0 Z25.0000
 X169.8820
G1 Z3.0000
 X167.1180
G0 Z25.0000
 X141.8820
G1 Z3.0000
 X1.0000
 Z2.0000
 X141.5000
G0 Z25.0000
 X167.5000
G1 Z2.0000
 X169.5000
G0 Z25.0000
 X261.5766
G1 Z2.0000
 X284.0838
G0 Z25.0000
 X344.5000
G1 Z2.0000
 X362.7040
 Y289.0000
 X344.5000
G0 Z25.0000
 X283.4146
G1 Z2.0000
 X262.2236
G0 Z25.0000
 X169.5000
G1 Z2.0000
 X167.5000
G0 Z25.0000
 X141.5000
G1 Z2.0000
 X100.4294
G0 Z25.0000
 X73.0000
G1 Z2.0000
 X72.5000
G0 Z25.0000
 X12.4238
G1 Z2.0000
 X1.0000
 Y287.0000
 X11.7781
G0 Z25.0000
 X72.5000
G1 Z2.0000
 X73.0000
G0 Z25.0000
 X103.7844
G1 Z2.0000
 X141.5000
G0 Z25.0000
 X167.5000
G1 Z2.0000
 X169.5000
G0 Z25.0000
 X204.5000
G1 Z2.0000
G0 Z25.0000
 X262.8707
G1 Z2.0000
 X282.7458
G0 Z25.0000
 X344.5000
G1 Z2.0000
 X362.7040
 Y285.0000
 X344.5000
G0 Z25.0000
 X282.0768
G1 Z2.0000
 X263.5177
G0 Z25.0000
 X169.5000
G1 Z2.0000
 X167.5000
G0 Z25.0000
 X141.5000
G1 Z2.0000
 X107.1394
G0 Z25.0000
 X73.0000
G1 Z2.0000
 X72.5000
G0 Z25.0000
 X11.1325
G1 Z2.0000
 X1.0000
 Y283.0000
 X10.4868
G0 Z25.0000
 X72.5000
G1 Z2.0000
 X73.0000
G0 Z25.0000
 X110.4944
G1 Z2.0000
 X141.5000
G0 Z25.0000
 X167.5000
G1 Z2.0000
 X169.5000
G0 Z25.0000
 X186.1235
G1 Z2.0000
 X187.8765
G0 Z25.0000
 X204.5000
G1 Z2.0000
G0 Z25.0000
 X264.1648
G1 Z2.0000
 X281.4078
G0 Z25.0000
 X344.5000
G1 Z2.0000
 X362.7040
 Y281.0000
 X344.5000
G0 Z25.0000
 X280.7388
G1 Z2.0000
 X264.8118
G0 Z25.0000
 X169.5000
G1 Z2.0000
 X167.5000
G0 Z25.0000
 X141.5000
G1 Z2.0000
 X113.8494
G0 Z25.0000
 X73.0000
G1 Z2.0000
 X72.5000
G0 Z25.0000
 X9.8412
G1 Z2.0000
 X1.0000
 Y279.0000
 X9.1955
G0 Z25.0000
 X72.5000
G1 Z2.0000
 X73.0000
G0 Z25.0000
 X117.2044
G1 Z2.0000
 X141.5000
G0 Z25.0000
 X167.5000
G1 Z2.0000
 X169.5000
G0 Z25.0000
 X204.5000
G1 Z2.0000
G0 Z25.0000
 X265.4589
G1 Z2.0000
 X280.0698
G0 Z25.0000
 X344.5000
G1 Z2.0000
 X362.7040
 Y277.0000
 X344.5000
G0 Z25.0000
 X336.8765
G1 Z2.0000
 X335.1235
G0 Z25.0000
 X316.8765
G1 Z2.0000
 X315.1235
G0 Z25.0000
 X279.4008
G1 Z2.0000
 X266.1060
G0 Z25.0000
 X169.5000
G1 Z2.0000
 X167.5000
G0 Z25.0000
 X141.5000
G1 Z2.0000
 X120.5594
G0 Z25.0000
 X73.0000
G1 Z2.0000
 X72.5000
G0 Z25.0000
 X8.5499
G1 Z2.0000
 X1.0000
 Y275.0000
 X7.9042
G0 Z25.0000
 X72.5000
G1 Z2.0000
 X73.0000
G0 Z25.0000
 X123.9144
G1 Z2.0000
 X141.5000
G0 Z25.0000
 X167.5000
G1 Z2.0000
 X169.5000
G0 Z25.0000
 X204.5000
G1 Z2.0000
G0 Z25.0000
 X266.7530
G1 Z2.0000
 X278.7318
G0 Z25.0000
 X295.6980
G1 Z2.0000
 X296.3350
G0 Z25.0000
 X344.5000
G1 Z2.0000
 X362.7040
 Y273.0000
 X344.5000
G0 Z25.0000
 X278.0628
G1 Z2.0000
 X267.4001
G0 Z25.0000
 X169.5000
G1 Z2.0000
 X167.5000
G0 Z25.0000
 X141.5000
G1 Z2.0000
 X127.2694
G0 Z25.0000
 X73.0000
G1 Z2.0000
 X72.5000
G0 Z25.0000
 X7.2586
G1 Z2.0000
 X1.0000
 Y271.0000
 X6.6129
G0 Z25.0000
 X72.5000
G1 Z2.0000
 X73.0000
G0 Z25.0000
 X130.6246
G1 Z2.0000
 X141.5000
G0 Z25.0000
 X167.5000
G1 Z2.0000
 X169.5000
G0 Z25.0000
 X204.5000
G1 Z2.0000
G0 Z25.0000
 X268.0471
G1 Z2.0000
 X277.3938
G0 Z25.0000
 X344.5000
G1 Z2.0000
 X362.7040
 Y269.0000
 X344.5000
G0 Z25.0000
 X299.8200
G1 Z2.0000
 X292.1800
G0 Z25.0000
 X276.7248
G1 Z2.0000
 X268.6942
G0 Z25.0000
 X169.5000
G1 Z2.0000
 X167.5000
G0 Z25.0000
 X141.5000
G1 Z2.0000
 X133.9794
G0 Z25.0000
 X73.0000
G1 Z2.0000
 X72.5000
G0 Z25.0000
 X5.9673
G1 Z2.0000
 X1.0000
 Y267.0000
 X5.3216
G0 Z25.0000
 X72.5000
G1 Z2.0000
 X73.0000
G0 Z25.0000
 X137.0861
G1 Z2.0000
 X141.5000
G0 Z25.0000
 X167.5000
G1 Z2.0000
 X169.5000
G0 Z25.0000
 X204.5000
G1 Z2.0000
G0 Z25.0000
 X269.3413
G1 Z2.0000
 X276.2113
G0 Z25.0000
 X289.8069
G1 Z2.0000
 X302.1931
G0 Z25.0000
 X344.5000
G1 Z2.0000
 X362.7040
 Y265.0000
 X342.5248
G0 Z25.0000
 X303.3824
G1 Z2.0000
 X288.6176
G0 Z25.0000
 X275.7597
G1 Z2.0000
 X269.9883
G0 Z25.0000
 X169.5000
G1 Z2.0000
 X167.5000
G0 Z25.0000
 X141.5000
G1 Z2.0000
 X138.9830
G0 Z25.0000
 X73.0000
G1 Z2.0000
 X72.0626
G0 Z25.0000
 X29.2636
G1 Z2.0000
 X18.7364
G0 Z25.0000
 X4.6760
G1 Z2.0000
 X1.0000
 Y263.0000
 X4.0303
G0 Z25.0000
 X17.1320
G1 Z2.0000
 X30.8680
G0 Z25.0000
 X71.5826
G1 Z2.0000
 X72.7174
G0 Z25.0000
 X139.9757
G1 Z2.0000
 X141.5000
G0 Z25.0000
 X167.5000
G1 Z2.0000
 X169.5000
G0 Z25.0000
 X186.1235
G1 Z2.0000
 X187.8765
G0 Z25.0000
 X204.5000
G1 Z2.0000
G0 Z25.0000
 X270.6354
G1 Z2.0000
 X275.6129
G0 Z25.0000
 X288.1136
G1 Z2.0000
 X303.8864
G0 Z25.0000
 X339.0290
G1 Z2.0000
 X362.7040
 Y261.0000
 X335.5332
G0 Z25.0000
 X303.8864
G1 Z2.0000
 X288.1136
G0 Z25.0000
 X275.5704
G1 Z2.0000
 X271.2824
G0 Z25.0000
 X169.5000
G1 Z2.0000
 X167.5000
G0 Z25.0000
 X141.5000
G1 Z2.0000
 X140.4319
G0 Z25.0000
 X72.2374
G1 Z2.0000
 X71.1026
G0 Z25.0000
 X31.7070
G1 Z2.0000
 X16.2930
G0 Z25.0000
 X3.3847
G1 Z2.0000
 X1.0000
 Y259.0000
 X2.7390
G0 Z25.0000
 X16.0083
G1 Z2.0000
 X31.9917
G0 Z25.0000
 X70.6226
G1 Z2.0000
 X71.7574
G0 Z25.0000
 X140.4324
G1 Z2.0000
 X141.5000
G0 Z25.0000
 X167.5000
G1 Z2.0000
 X169.5000
G0 Z25.0000
 X204.5000
G1 Z2.0000
G0 Z25.0000
 X271.9295
G1 Z2.0000
 X275.8069
G0 Z25.0000
 X288.6176
G1 Z2.0000
 X303.3824
G0 Z25.0000
 X332.0374
G1 Z2.0000
 X333.5091
G0 Z25.0000
 X348.4421
G1 Z2.0000
 X362.7040
 Y257.0000
 X352.2834
G0 Z25.0000
 X329.4331
G1 Z2.0000
 X328.5417
G0 Z25.0000
 X302.1931
G1 Z2.0000
 X289.8069
G0 Z25.0000
 X276.1709
G1 Z2.0000
 X272.5000
G0 Z25.0000
 X169.5000
G1 Z2.0000
 X167.8346
G0 Z25.0000
 X141.2174
G1 Z2.0000
 X139.9895
G0 Z25.0000
 X71.2774
G1 Z2.0000
 X70.1426
G0 Z25.0000
 X31.7070
G1 Z2.0000
 X16.2930
G0 Z25.0000
 X2.0934
G1 Z2.0000
 X1.0000
 Y255.0000
 X1.4477
G0 Z25.0000
 X17.1320
G1 Z2.0000
 X30.8680
G0 Z25.0000
 X69.6626
G1 Z2.0000
 X70.7974
G0 Z25.0000
 X139.3439
G1 Z2.0000
 X140.7374
G0 Z25.0000
 X168.3901
G1 Z2.0000
 X169.5000
G0 Z25.0000
 X204.5000
G1 Z2.0000
 X237.5000
G0 Z25.0000
 X272.5000
G1 Z2.0000
 X276.8237
G0 Z25.0000
 X292.1800
G1 Z2.0000
 X299.8200
G0 Z25.0000
 X325.0459
G1 Z2.0000
 X325.9373
G0 Z25.0000
 X354.8580
G1 Z2.0000
 X362.7040
 Y253.0000
 X356.8473
G0 Z25.0000
 X341.3350
G1 Z2.0000
 X340.6980
G0 Z25.0000
 X322.4415
G1 Z2.0000
 X321.5501
G0 Z25.0000
 X277.6248
G1 Z2.0000
 X272.5000
G0 Z25.0000
 X169.5000
G1 Z2.0000
 X168.9457
G0 Z25.0000
 X140.2574
G1 Z2.0000
 X138.6982
G0 Z25.0000
 X120.7632
G1 Z2.0000
 X110.2368
G0 Z25.0000
 X70.3174
G1 Z2.0000
 X69.1826
G0 Z25.0000
 X29.2636
G1 Z2.0000
 X18.7364
G0 Z25.0000
 X68.7026 Y251.0000
G1 Z2.0000
 X69.8374
G0 Z25.0000
 X108.6315
G1 Z2.0000
 X122.3685
G0 Z25.0000
 X138.0525
G1 Z2.0000
 X139.7774
G0 Z25.0000
 X169.5012
G1 Z2.0000
 X170.0705
G0 Z25.0000
 X237.5000
G1 Z2.0000
G0 Z25.0000
 X272.5000
G1 Z2.0000
 X278.8130
G0 Z25.0000
 X318.0543
G1 Z2.0000
 X318.9457
G0 Z25.0000
 X358.1870
G1 Z2.0000
 X362.7040
 Y249.0000
 X359.3752
G0 Z25.0000
 X315.4499
G1 Z2.0000
 X314.5585
G0 Z25.0000
 X296.3350
G1 Z2.0000
 X295.6980
G0 Z25.0000
 X280.1527
G1 Z2.0000
 X272.5000
G0 Z25.0000
 X170.7176
G1 Z2.0000
 X170.0568
G0 Z25.0000
 X139.2974
G1 Z2.0000
 X137.4069
G0 Z25.0000
 X123.2071
G1 Z2.0000
 X107.7929
G0 Z25.0000
 X69.3574
G1 Z2.0000
 X68.2226
G0 Z25.0000
 X67.7426 Y247.0000
G1 Z2.0000
 X68.8774
G0 Z25.0000
 X107.5083
G1 Z2.0000
 X123.4917
G0 Z25.0000
 X136.7612
G1 Z2.0000
 X138.8174
G0 Z25.0000
 X170.6124
G1 Z2.0000
 X171.3646
G0 Z25.0000
 X237.5000
G1 Z2.0000
G0 Z25.0000
 X254.1235
G1 Z2.0000
 X255.8765
G0 Z25.0000
 X272.5000
G1 Z2.0000
 X282.1420
G0 Z25.0000
 X311.0627
G1 Z2.0000
 X311.9541
G0 Z25.0000
 X337.1800
G1 Z2.0000
 X344.8200
G0 Z25.0000
 X360.1763
G1 Z2.0000
 X362.7040
 Y245.0000
 X360.8291
G0 Z25.0000
 X347.1931
G1 Z2.0000
 X334.8069
G0 Z25.0000
 X308.4583
G1 Z2.0000
 X307.5669
G0 Z25.0000
 X284.7166
G1 Z2.0000
 X272.5000
G0 Z25.0000
 X172.0117
G1 Z2.0000
 X171.1679
G0 Z25.0000
 X138.3374
G1 Z2.0000
 X136.1155
G0 Z25.0000
 X123.2071
G1 Z2.0000
 X107.7929
G0 Z25.0000
 X68.3974
G1 Z2.0000
 X67.2626
G0 Z25.0000
 X66.7826 Y243.0000
G1 Z2.0000
 X67.9174
G0 Z25.0000
 X108.6315
G1 Z2.0000
 X122.3685
G0 Z25.0000
 X135.4699
G1 Z2.0000
 X137.8574
G0 Z25.0000
 X171.7235
G1 Z2.0000
 X172.6587
G0 Z25.0000
 X237.5000
G1 Z2.0000
G0 Z25.0000
 X272.5000
G1 Z2.0000
 X288.5579
G0 Z25.0000
 X303.4909
G1 Z2.0000
 X304.9626
G0 Z25.0000
 X333.6176
G1 Z2.0000
 X348.3824
G0 Z25.0000
 X361.1931
G1 Z2.0000
 X362.7040
 Y241.0000
 X361.4296
G0 Z25.0000
 X348.8864
G1 Z2.0000
 X333.1136
G0 Z25.0000
 X301.4668
G1 Z2.0000
 X272.5000
G0 Z25.0000
 X173.3058
G1 Z2.0000
 X172.2790
G0 Z25.0000
 X137.3774
G1 Z2.0000
 X134.8242
G0 Z25.0000
 X120.7632
G1 Z2.0000
 X110.2368
G0 Z25.0000
 X67.4374
G1 Z2.0000
 X66.5000
G0 Z25.0000
 X1.0000 Y239.0000
G1 Z2.0000
 X2.4141
G0 Z25.0000
 X66.5000
G1 Z2.0000
 X67.0000
G0 Z25.0000
 X134.1785
G1 Z2.0000
 X136.8974
G0 Z25.0000
 X172.5000
G1 Z2.0000
 X173.9529
G0 Z25.0000
 X237.5000
G1 Z2.0000
G0 Z25.0000
 X272.5000
G1 Z2.0000
 X297.9710
G0 Z25.0000
 X333.1136
G1 Z2.0000
 X348.8864
G0 Z25.0000
 X361.3871
G1 Z2.0000
 X362.7040
 Y237.0000
 X361.2403
G0 Z25.0000
 X348.3824
G1 Z2.0000
 X333.6176
G0 Z25.0000
 X294.4752
G1 Z2.0000
 X272.5000
G0 Z25.0000
 X174.5999
G1 Z2.0000
 X172.5000
G0 Z25.0000
 X136.4174
G1 Z2.0000
 X133.5329
G0 Z25.0000
 X67.0000
G1 Z2.0000
 X66.5000
G0 Z25.0000
 X5.5204
G1 Z2.0000
 X1.0000
 Y235.0000
 X8.8754
G0 Z25.0000
 X66.5000
G1 Z2.0000
 X67.0000
G0 Z25.0000
 X132.8872
G1 Z2.0000
 X135.9374
G0 Z25.0000
 X172.5000
G1 Z2.0000
 X175.2470
G0 Z25.0000
 X237.5000
G1 Z2.0000
G0 Z25.0000
 X272.5000
G1 Z2.0000
 X292.5000
G0 Z25.0000
 X334.8069
G1 Z2.0000
 X347.1931
G0 Z25.0000
 X360.7887
G1 Z2.0000
 X362.7040
 Y233.0000
 X360.2752
G0 Z25.0000
 X344.8200
G1 Z2.0000
 X337.1800
G0 Z25.0000
 X292.5000
G1 Z2.0000
 X272.5000
G0 Z25.0000
 X175.8940
G1 Z2.0000
 X172.5000
G0 Z25.0000
 X135.5000
G1 Z2.0000
 X132.2416
G0 Z25.0000
 X67.0000
G1 Z2.0000
 X66.5000
G0 Z25.0000
 X12.2308
G1 Z2.0000
 X1.0000
 Y231.0000
 X15.5857
G0 Z25.0000
 X66.5000
G1 Z2.0000
 X67.0000
G0 Z25.0000
 X131.5959
G1 Z2.0000
 X135.5000
G0 Z25.0000
 X172.5000
G1 Z2.0000
 X176.5411
G0 Z25.0000
 X237.5000
G1 Z2.0000
G0 Z25.0000
 X272.5000
G1 Z2.0000
 X292.5000
G0 Z25.0000
 X359.6062
G1 Z2.0000
 X362.7040
 Y229.0000
 X358.9372
G0 Z25.0000
 X292.5000
G1 Z2.0000
 X272.5000
G0 Z25.0000
 X177.1882
G1 Z2.0000
 X172.5000
G0 Z25.0000
 X135.5000
G1 Z2.0000
 X130.9502
G0 Z25.0000
 X67.0000
G1 Z2.0000
 X66.5000
G0 Z25.0000
 X18.9407
G1 Z2.0000
 X1.0000
 Y227.0000
 X22.2957
G0 Z25.0000
 X66.5000
G1 Z2.0000
 X67.0000
G0 Z25.0000
 X130.3046
G1 Z2.0000
 X135.5000
G0 Z25.0000
 X172.5000
G1 Z2.0000
 X177.8352
G0 Z25.0000
 X237.5000
G1 Z2.0000
G0 Z25.0000
 X254.1235
G1 Z2.0000
 X255.8765
G0 Z25.0000
 X272.5000
G1 Z2.0000
 X292.5000
G0 Z25.0000
 X340.6980
G1 Z2.0000
 X341.3350
G0 Z25.0000
 X358.2682
G1 Z2.0000
 X362.7040
 Y225.0000
 X357.5992
G0 Z25.0000
 X321.8765
G1 Z2.0000
 X320.1235
G0 Z25.0000
 X301.8765
G1 Z2.0000
 X300.1235
G0 Z25.0000
 X292.5000
G1 Z2.0000
 X272.5000
G0 Z25.0000
 X178.4823
G1 Z2.0000
 X172.5000
G0 Z25.0000
 X135.5000
G1 Z2.0000
 X129.6589
G0 Z25.0000
 X67.0000
G1 Z2.0000
 X66.5000
G0 Z25.0000
 X25.6507
G1 Z2.0000
 X21.1180
G0 Z25.0000
 X21.7736 Y223.0000
G1 Z2.0000
 X29.0057
G0 Z25.0000
 X66.5000
G1 Z2.0000
 X67.0000
G0 Z25.0000
 X129.0132
G1 Z2.0000
 X135.5000
G0 Z25.0000
 X172.5000
G1 Z2.0000
 X179.1293
G0 Z25.0000
 X237.5000
G1 Z2.0000
G0 Z25.0000
 X272.5000
G1 Z2.0000
 X292.5000
G0 Z25.0000
 X356.9302
G1 Z2.0000
 X362.7040
 Y221.0000
 X356.2612
G0 Z25.0000
 X292.5000
G1 Z2.0000
 X272.5000
G0 Z25.0000
 X179.7764
G1 Z2.0000
 X172.5000
G0 Z25.0000
 X135.5000
G1 Z2.0000
 X128.3676
G0 Z25.0000
 X67.0000
G1 Z2.0000
 X66.5000
G0 Z25.0000
 X32.3606
G1 Z2.0000
 X22.2403
G0 Z25.0000
 X22.7070 Y219.0000
G1 Z2.0000
 X35.7156
G0 Z25.0000
 X66.5000
G1 Z2.0000
 X67.0000
G0 Z25.0000
 X127.7219
G1 Z2.0000
 X135.5000
G0 Z25.0000
 X172.5000
G1 Z2.0000
 X180.4234
G0 Z25.0000
 X272.5000
G1 Z2.0000
 X292.5000
G0 Z25.0000
 X355.5923
G1 Z2.0000
 X362.7040
 Y217.0000
 X354.9232
G0 Z25.0000
 X292.5000
G1 Z2.0000
 X172.5000
G0 Z25.0000
 X135.5000
G1 Z2.0000
 X127.0762
G0 Z25.0000
 X67.0000
G1 Z2.0000
 X66.5000
G0 Z25.0000
 X39.0706
G1 Z2.0000
 X23.1736
G0 Z25.0000
 X23.6403 Y215.0000
G1 Z2.0000
 X135.5000
G0 Z25.0000
 X172.5000
G1 Z2.0000
 X292.5000
G0 Z25.0000
 X354.2542
G1 Z2.0000
 X362.7040
 Y213.0000
 X353.5852
G0 Z25.0000
 X292.5000
G1 Z2.0000
 X172.5000
G0 Z25.0000
 X135.5000
G1 Z2.0000
 X24.1069
G0 Z25.0000
 X24.5736 Y211.0000
G1 Z2.0000
 X55.4183
G0 Z25.0000
 X115.5000
G1 Z2.0000
 X135.5000
G0 Z25.0000
 X172.5000
G1 Z2.0000
 X292.5000
G0 Z25.0000
 X352.9162
G1 Z2.0000
 X362.7040
 Y209.0000
 X352.1180
G0 Z25.0000
 X292.8820
G1 Z2.0000
 X210.1180
G0 Z25.0000
 X147.8820
G1 Z2.0000
 X115.5000
G0 Z25.0000
 X54.7493
G1 Z2.0000
 X25.0403
G0 Z25.0000
 X25.5069 Y207.0000
G1 Z2.0000
 X54.0804
G0 Z25.0000
 X115.5000
G1 Z2.0000
 X147.5000
G0 Z25.0000
 X210.5000
G1 Z2.0000
 X321.8820
G0 Z25.0000
 X321.5000 Y205.0000
G1 Z2.0000
 X314.5000
G0 Z25.0000
 X274.5000
G1 Z2.0000
 X272.2193
G0 Z25.0000
 X231.7807
G1 Z2.0000
 X210.5000
G0 Z25.0000
 X129.8820
G1 Z2.0000
 X115.5000
G0 Z25.0000
 X53.4114
G1 Z2.0000
 X25.9736
G0 Z25.0000
 X26.4403 Y203.0000
G1 Z2.0000
 X52.7424
G0 Z25.0000
 X115.5000
G1 Z2.0000
 X129.5000
G0 Z25.0000
 X210.5000
G1 Z2.0000
 X230.7151
G0 Z25.0000
 X273.2849
G1 Z2.0000
 X274.5000
G0 Z25.0000
 X314.5000
G1 Z2.0000
 X321.5000
 Y201.0000
 X314.5000
G0 Z25.0000
 X274.5000
G1 Z2.0000
 X273.5000
G0 Z25.0000
 X230.5000
G1 Z2.0000
 X210.5000
G0 Z25.0000
 X129.5000
G1 Z2.0000
 X115.5000
G0 Z25.0000
 X52.0735
G1 Z2.0000
 X26.9069
G0 Z25.0000
 X27.3847 Y199.0000
G1 Z2.0000
 X51.4045
G0 Z25.0000
 X115.5000
G1 Z2.0000
 X129.5000
G0 Z25.0000
 X210.5000
G1 Z2.0000
 X230.5000
G0 Z25.0000
 X273.5000
G1 Z2.0000
 X274.5000
G0 Z25.0000
 X282.1235
G1 Z2.0000
 X283.8765
G0 Z25.0000
 X302.1235
G1 Z2.0000
 X303.8765
G0 Z25.0000
 X314.5000
G1 Z2.0000
 X321.5000
 Y197.0000
 X314.5000
G0 Z25.0000
 X274.5000
G1 Z2.0000
 X273.5000
G0 Z25.0000
 X230.5000
G1 Z2.0000
 X210.5000
G0 Z25.0000
 X129.5000
G1 Z2.0000
 X115.5000
G0 Z25.0000
 X50.7355
G1 Z2.0000
 X28.4471
G0 Z25.0000
 X44.0333 Y195.0000
G1 Z2.0000
 X50.0666
G0 Z25.0000
 X115.5000
G1 Z2.0000
 X129.5000
G0 Z25.0000
 X210.5000
G1 Z2.0000
 X230.5000
G0 Z25.0000
 X273.5000
G1 Z2.0000
 X274.5000
G0 Z25.0000
 X314.5000
G1 Z2.0000
 X321.5000
G0 Z25.0000
 X352.1235
G1 Z2.0000
 X353.8765
G0 Z25.0000
 X321.5000 Y193.0000
G1 Z2.0000
 X314.5000
G0 Z25.0000
 X274.5000
G1 Z2.0000
 X273.5000
G0 Z25.0000
 X230.5000
G1 Z2.0000
 X211.1619
G0 Z25.0000
 X129.5000
G1 Z2.0000
 X115.5000
G0 Z25.0000
 X49.3976
G1 Z2.0000
 X46.0119
G0 Z25.0000
 X1.0332
G1 Z2.0000
 X1.0000
 Y191.0000
 X1.3332
G0 Z25.0000
 X46.5000
G1 Z2.0000
 X48.7286
G0 Z25.0000
 X115.5000
G1 Z2.0000
 X129.5000
G0 Z25.0000
 X147.6348
G1 Z2.0000
 X158.3652
G0 Z25.0000
 X212.2443
G1 Z2.0000
 X230.5000
G0 Z25.0000
 X273.5000
G1 Z2.0000
 X274.5000
G0 Z25.0000
 X314.5000
G1 Z2.0000
 X320.0826
G0 Z25.0000
 X318.6589 Y189.0000
G1 Z2.0000
 X314.5000
G0 Z25.0000
 X274.5000
G1 Z2.0000
 X273.5000
G0 Z25.0000
 X230.5000
G1 Z2.0000
 X213.3268
G0 Z25.0000
 X202.8200
G1 Z2.0000
 X195.1800
G0 Z25.0000
 X160.7378
G1 Z2.0000
 X145.2622
G0 Z25.0000
 X129.5000
G1 Z2.0000
 X115.5000
G0 Z25.0000
 X48.0596
G1 Z2.0000
 X46.5000
G0 Z25.0000
 X1.5000
G1 Z2.0000
 X1.0000
 Y187.0000
 X1.5000
G0 Z25.0000
 X33.1225
G1 Z2.0000
 X33.9478
G0 Z25.0000
 X46.2625
G1 Z2.0000
 X47.4375
G0 Z25.0000
 X61.7364
G1 Z2.0000
 X72.2636
G0 Z25.0000
 X115.5000
G1 Z2.0000
 X129.5000
G0 Z25.0000
 X143.8379
G1 Z2.0000
 X162.1621
G0 Z25.0000
 X192.8069
G1 Z2.0000
 X205.1931
G0 Z25.0000
 X214.4092
G1 Z2.0000
 X230.5000
G0 Z25.0000
 X273.5000
G1 Z2.0000
 X274.5000
G0 Z25.0000
 X314.5000
G1 Z2.0000
 X317.5722
G0 Z25.0000
 X329.1800
G1 Z2.0000
 X336.8200
G0 Z25.0000
 X339.1931 Y185.0000
G1 Z2.0000
 X326.8069
G0 Z25.0000
 X316.7585
G1 Z2.0000
 X314.5000
G0 Z25.0000
 X274.5000
G1 Z2.0000
 X273.5000
G0 Z25.0000
 X230.5000
G1 Z2.0000
 X215.4917
G0 Z25.0000
 X206.3824
G1 Z2.0000
 X191.6176
G0 Z25.0000
 X162.9962
G1 Z2.0000
 X143.0038
G0 Z25.0000
 X129.5000
G1 Z2.0000
 X115.1180
G0 Z25.0000
 X73.8680
G1 Z2.0000
 X60.1320
G0 Z25.0000
 X46.9854
G1 Z2.0000
 X41.8546
G0 Z25.0000
 X1.5543
G1 Z2.0000
 X1.0000
 Y183.0000
 X6.1647
G0 Z25.0000
 X38.9808
G1 Z2.0000
 X46.6337
G0 Z25.0000
 X59.2930
G1 Z2.0000
 X74.7070
G0 Z25.0000
 X111.7769
G1 Z2.0000
 X129.5000
G0 Z25.0000
 X142.6137
G1 Z2.0000
 X163.3863
G0 Z25.0000
 X191.1136
G1 Z2.0000
 X206.8864
G0 Z25.0000
 X216.5741
G1 Z2.0000
 X230.5000
G0 Z25.0000
 X273.5000
G1 Z2.0000
 X274.5000
G0 Z25.0000
 X314.5000
G1 Z2.0000
 X316.3379
G0 Z25.0000
 X325.6176
G1 Z2.0000
 X340.3824
G0 Z25.0000
 X340.8864 Y181.0000
G1 Z2.0000
 X325.1136
G0 Z25.0000
 X316.0720
G1 Z2.0000
 X314.5000
G0 Z25.0000
 X274.5000
G1 Z2.0000
 X273.5000
G0 Z25.0000
 X230.5000
G1 Z2.0000
 X217.6566
G0 Z25.0000
 X206.8864
G1 Z2.0000
 X191.1136
G0 Z25.0000
 X163.3863
G1 Z2.0000
 X142.6137
G0 Z25.0000
 X129.5000
G1 Z2.0000
 X108.2810
G0 Z25.0000
 X74.9917
G1 Z2.0000
 X59.0083
G0 Z25.0000
 X46.5913
G1 Z2.0000
 X37.1052
G0 Z25.0000
 X7.5000
G1 Z2.0000
 X1.0000
 Y179.0000
 X7.5000
G0 Z25.0000
 X35.7773
G1 Z2.0000
 X46.6245
G0 Z25.0000
 X59.2930
G1 Z2.0000
 X74.7070
G0 Z25.0000
 X104.7852
G1 Z2.0000
 X129.5000
G0 Z25.0000
 X143.0038
G1 Z2.0000
 X162.9962
G0 Z25.0000
 X191.6176
G1 Z2.0000
 X206.3824
G0 Z25.0000
 X218.7391
G1 Z2.0000
 X230.5000
G0 Z25.0000
 X273.5000
G1 Z2.0000
 X274.5000
G0 Z25.0000
 X282.1235
G1 Z2.0000
 X283.8765
G0 Z25.0000
 X302.1235
G1 Z2.0000
 X303.8765
G0 Z25.0000
 X314.5000
G1 Z2.0000
 X316.0720
G0 Z25.0000
 X325.1136
G1 Z2.0000
 X340.8864
G0 Z25.0000
 X340.3824 Y177.0000
G1 Z2.0000
 X325.6176
G0 Z25.0000
 X316.3379
G1 Z2.0000
 X314.5000
G0 Z25.0000
 X274.5000
G1 Z2.0000
 X273.5000
G0 Z25.0000
 X230.5000
G1 Z2.0000
 X219.8215
G0 Z25.0000
 X205.1931
G1 Z2.0000
 X192.8069
G0 Z25.0000
 X162.1621
G1 Z2.0000
 X143.8379
G0 Z25.0000
 X129.5000
G1 Z2.0000
 X101.2894
G0 Z25.0000
 X73.8680
G1 Z2.0000
 X60.1320
G0 Z25.0000
 X46.9888
G1 Z2.0000
 X34.8965
G0 Z25.0000
 X6.1647
G1 Z2.0000
 X1.0000
 Y175.0000
 X1.5543
G0 Z25.0000
 X34.3934
G1 Z2.0000
 X47.4233
G0 Z25.0000
 X61.7364
G1 Z2.0000
 X72.2636
G0 Z25.0000
 X97.7935
G1 Z2.0000
 X129.5000
G0 Z25.0000
 X145.2622
G1 Z2.0000
 X160.7378
G0 Z25.0000
 X195.1800
G1 Z2.0000
 X202.8200
G0 Z25.0000
 X220.9040
G1 Z2.0000
 X230.8820
G0 Z25.0000
 X273.1180
G1 Z2.0000
 X274.5000
G0 Z25.0000
 X314.5000
G1 Z2.0000
 X316.7585
G0 Z25.0000
 X326.8069
G1 Z2.0000
 X339.1931
G0 Z25.0000
 X336.8200 Y173.0000
G1 Z2.0000
 X329.1800
G0 Z25.0000
 X317.5722
G1 Z2.0000
 X314.5000
G0 Z25.0000
 X274.5000
G1 Z2.0000
 X221.9864
G0 Z25.0000
 X158.3652
G1 Z2.0000
 X147.6348
G0 Z25.0000
 X129.5000
G1 Z2.0000
 X94.2977
G0 Z25.0000
 X48.2244
G1 Z2.0000
 X34.1211
G0 Z25.0000
 X1.5000
G1 Z2.0000
 X1.0000
 Y171.0000
 X1.5000
G0 Z25.0000
 X34.1211
G1 Z2.0000
 X49.1546
G0 Z25.0000
 X90.8019
G1 Z2.0000
 X129.5000
G0 Z25.0000
 X223.0394
G1 Z2.0000
 X318.6589
G0 Z25.0000
 X320.0825 Y169.0000
G1 Z2.0000
 X319.5000
G0 Z25.0000
 X291.7807
G1 Z2.0000
 X223.7518
G0 Z25.0000
 X129.5000
G1 Z2.0000
 X87.3062
G0 Z25.0000
 X50.4714
G1 Z2.0000
 X34.4797
G0 Z25.0000
 X1.5000
G1 Z2.0000
 X1.0000
 Y167.0000
 X1.5000
G0 Z25.0000
 X35.0773
G1 Z2.0000
 X52.1464
G0 Z25.0000
 X83.8104
G1 Z2.0000
 X129.5000
G0 Z25.0000
 X182.1235
G1 Z2.0000
 X183.8765
G0 Z25.0000
 X214.1235
G1 Z2.0000
 X215.8765
G0 Z25.0000
 X223.9840
G1 Z2.0000
 X290.7151
G0 Z25.0000
 X319.5000
G1 Z2.0000
 X321.5000
G0 Z25.0000
 X353.8765 Y165.0000
G1 Z2.0000
 X352.1235
G0 Z25.0000
 X321.5000
G1 Z2.0000
 X319.5000
G0 Z25.0000
 X290.5000
G1 Z2.0000
 X223.7668
G0 Z25.0000
 X129.5000
G1 Z2.0000
 X80.3144
G0 Z25.0000
 X54.2114
G1 Z2.0000
 X35.9643
G0 Z25.0000
 X1.5000
G1 Z2.0000
 X1.0000
 Y163.0000
 X1.5000
G0 Z25.0000
 X37.3987
G1 Z2.0000
 X57.2220
G0 Z25.0000
 X76.7345
G1 Z2.0000
 X129.5000
G0 Z25.0000
 X223.0497
G1 Z2.0000
 X290.5000
G0 Z25.0000
 X297.1235
G1 Z2.0000
 X298.8765
G0 Z25.0000
 X319.5000
G1 Z2.0000
 X321.5000
 Y161.0000
 X319.5000
G0 Z25.0000
 X290.5000
G1 Z2.0000
 X221.6588
G0 Z25.0000
 X129.5000
G1 Z2.0000
 X96.7553
G0 Z25.0000
 X76.5734
G1 Z2.0000
 X71.0566
G0 Z25.0000
 X62.9456
G1 Z2.0000
 X39.4284
G0 Z25.0000
 X1.5000
G1 Z2.0000
 X1.0000
 Y159.0000
 X1.5000
G0 Z25.0000
 X42.5881
G1 Z2.0000
 X66.4507
G0 Z25.0000
 X104.7753
G1 Z2.0000
 X147.5000
G0 Z25.0000
 X219.0681
G1 Z2.0000
 X290.5000
G0 Z25.0000
 X319.5000
G1 Z2.0000
 X321.5000
 Y157.0000
 X319.5000
G0 Z25.0000
 X290.5000
G1 Z2.0000
 X214.7823
G0 Z25.0000
 X147.5000
G1 Z2.0000
 X110.9822
G0 Z25.0000
 X61.5006
G1 Z2.0000
 X46.4460
G0 Z25.0000
 X34.2893
G1 Z2.0000
 X32.7810
G0 Z25.0000
 X1.5000
G1 Z2.0000
 X1.0000
 Y155.0000
 X1.5000
G0 Z25.0000
 X46.5000
G1 Z2.0000
 X56.5506
G0 Z25.0000
 X115.0830
G1 Z2.0000
 X147.5000
G0 Z25.0000
 X210.4183
G1 Z2.0000
 X290.5000
G0 Z25.0000
 X319.5000
G1 Z2.0000
 X321.5000
G0 Z25.0000
 X321.8820 Y153.0000
G1 Z2.0000
 X319.5000
G0 Z25.0000
 X290.5000
G1 Z2.0000
 X244.7655
G0 Z25.0000
 X214.9024
G1 Z2.0000
 X170.5000
G0 Z25.0000
 X147.5000
G1 Z2.0000
 X119.1839
G0 Z25.0000
 X52.6879
G1 Z2.0000
 X46.5000
G0 Z25.0000
 X1.5000
G1 Z2.0000
 X1.0000
 Y151.0000
 X1.5000
G0 Z25.0000
 X46.0119
G1 Z2.0000
 X49.7228
G0 Z25.0000
 X122.7145
G1 Z2.0000
 X147.5000
G0 Z25.0000
 X170.5000
G1 Z2.0000
 X207.9762
G0 Z25.0000
 X252.7853
G1 Z2.0000
 X290.5000
G0 Z25.0000
 X319.5000
G1 Z2.0000
 X362.7040
 Y149.0000
 X342.1187
G0 Z25.0000
 X325.6382
G1 Z2.0000
 X319.5000
G0 Z25.0000
 X290.5000
G1 Z2.0000
 X257.0326
G0 Z25.0000
 X203.0261
G1 Z2.0000
 X170.5000
G0 Z25.0000
 X147.5000
G1 Z2.0000
 X125.2745
G0 Z25.0000
 X46.7577
G1 Z2.0000
 X44.0333
G0 Z25.0000
 X28.0620 Y147.0000
G1 Z2.0000
 X43.7926
G0 Z25.0000
 X127.8345
G1 Z2.0000
 X147.5000
G0 Z25.0000
 X170.5000
G1 Z2.0000
 X198.1710
G0 Z25.0000
 X261.1334
G1 Z2.0000
 X290.5000
G0 Z25.0000
 X319.5000
G1 Z2.0000
 X321.9959
G0 Z25.0000
 X348.0978
G1 Z2.0000
 X362.7040
 Y145.0000
 X354.0770
G0 Z25.0000
 X319.6184
G1 Z2.0000
 X311.0233
G0 Z25.0000
 X290.5000
G1 Z2.0000
 X265.2343
G0 Z25.0000
 X195.2057
G1 Z2.0000
 X170.5000
G0 Z25.0000
 X147.5000
G1 Z2.0000
 X130.3945
G0 Z25.0000
 X41.4017
G1 Z2.0000
 X26.9149
G0 Z25.0000
 X26.2482 Y143.0000
G1 Z2.0000
 X39.3821
G0 Z25.0000
 X132.9276
G1 Z2.0000
 X147.5000
G0 Z25.0000
 X170.5000
G1 Z2.0000
 X192.2405
G0 Z25.0000
 X267.9946
G1 Z2.0000
 X290.5000
G0 Z25.0000
 X310.5000
G1 Z2.0000
 X317.7987
G0 Z25.0000
 X360.0559
G1 Z2.0000
 X362.7040
G0 Z25.0000
 X316.2998 Y141.0000
G1 Z2.0000
 X310.5000
G0 Z25.0000
 X290.5000
G1 Z2.0000
 X270.5545
G0 Z25.0000
 X189.2752
G1 Z2.0000
 X170.5000
G0 Z25.0000
 X147.5000
G1 Z2.0000
 X134.6092
G0 Z25.0000
 X37.3624
G1 Z2.0000
 X25.5815
G0 Z25.0000
 X24.9148 Y139.0000
G1 Z2.0000
 X35.7914
G0 Z25.0000
 X136.2873
G1 Z2.0000
 X147.5000
G0 Z25.0000
 X170.5000
G1 Z2.0000
 X186.4116
G0 Z25.0000
 X273.1145
G1 Z2.0000
 X290.5000
G0 Z25.0000
 X310.5000
G1 Z2.0000
 X315.2757
G0 Z25.0000
 X337.8635 Y137.0000
G1 Z2.0000
 X329.5447
G0 Z25.0000
 X314.4233
G1 Z2.0000
 X310.5000
G0 Z25.0000
 X290.5000
G1 Z2.0000
 X275.6745
G0 Z25.0000
 X184.3919
G1 Z2.0000
 X170.5000
G0 Z25.0000
 X147.5000
G1 Z2.0000
 X137.9654
G0 Z25.0000
 X53.5883
G1 Z2.0000
 X52.6590
G0 Z25.0000
 X34.3219
G1 Z2.0000
 X24.2481
G0 Z25.0000
 X5.8764
G1 Z2.0000
 X4.1236
G0 Z25.0000
 X23.5813 Y135.0000
G1 Z2.0000
 X32.8524
G0 Z25.0000
 X50.2752
G1 Z2.0000
 X51.8316
G0 Z25.0000
 X139.6435
G1 Z2.0000
 X147.5000
G0 Z25.0000
 X170.5000
G1 Z2.0000
 X182.3723
G0 Z25.0000
 X277.7702
G1 Z2.0000
 X290.5000
G0 Z25.0000
 X310.5000
G1 Z2.0000
 X313.8393
G0 Z25.0000
 X327.3333
G1 Z2.0000
 X340.0757
G0 Z25.0000
 X341.1506 Y133.0000
G1 Z2.0000
 X326.2574
G0 Z25.0000
 X313.4636
G1 Z2.0000
 X310.5000
G0 Z25.0000
 X290.5000
G1 Z2.0000
 X279.4483
G0 Z25.0000
 X180.5260
G1 Z2.0000
 X170.5000
G0 Z25.0000
 X147.5000
G1 Z2.0000
 X141.3216
G0 Z25.0000
 X94.7446
G1 Z2.0000
 X74.9459
G0 Z25.0000
 X31.6565
G1 Z2.0000
 X22.9147
G0 Z25.0000
 X22.2479 Y131.0000
G1 Z2.0000
 X30.6232
G0 Z25.0000
 X69.5988
G1 Z2.0000
 X100.9905
G0 Z25.0000
 X142.6176
G1 Z2.0000
 X147.5000
G0 Z25.0000
 X170.5000
G1 Z2.0000
 X179.0567
G0 Z25.0000
 X281.1264
G1 Z2.0000
 X290.5000
G0 Z25.0000
 X310.5000
G1 Z2.0000
 X313.2735
G0 Z25.0000
 X325.7968
G1 Z2.0000
 X341.6112
G0 Z25.0000
 X341.5695 Y129.0000
G1 Z2.0000
 X325.8385
G0 Z25.0000
 X313.2040
G1 Z2.0000
 X310.5000
G0 Z25.0000
 X290.5000
G1 Z2.0000
 X282.8045
G0 Z25.0000
 X197.0235
G1 Z2.0000
 X195.4671
G0 Z25.0000
 X177.5872
G1 Z2.0000
 X170.5000
G0 Z25.0000
 X147.5000
G1 Z2.0000
 X143.6812
G0 Z25.0000
 X105.0264
G1 Z2.0000
 X90.1724
G0 Z25.0000
 X74.5000
G1 Z2.0000
 X65.4186
G0 Z25.0000
 X29.5900
G1 Z2.0000
 X21.5812
G0 Z25.0000
 X1.0000 Y127.0000
G1 Z2.0000
 X28.6032
G0 Z25.0000
 X62.3065
G1 Z2.0000
 X74.5000
G0 Z25.0000
 X92.2677
G1 Z2.0000
 X108.2459
G0 Z25.0000
 X144.7447
G1 Z2.0000
 X147.5000
G0 Z25.0000
 X170.5000
G1 Z2.0000
 X176.1731
G0 Z25.0000
 X193.6245
G1 Z2.0000
 X194.6401
G0 Z25.0000
 X225.1921
G1 Z2.0000
 X233.0103
G0 Z25.0000
 X284.4825
G1 Z2.0000
 X290.5000
G0 Z25.0000
 X310.5000
G1 Z2.0000
 X313.2040
G0 Z25.0000
 X326.3859
G1 Z2.0000
 X341.0221
G0 Z25.0000
 X339.7191 Y125.0000
G1 Z2.0000
 X327.6899
G0 Z25.0000
 X313.2040
G1 Z2.0000
 X310.5000
G0 Z25.0000
 X290.5000
G1 Z2.0000
 X286.0858
G0 Z25.0000
 X242.5982
G1 Z2.0000
 X220.1180
G0 Z25.0000
 X217.5857
G1 Z2.0000
 X216.2165
G0 Z25.0000
 X175.1400
G1 Z2.0000
 X170.5000
G0 Z25.0000
 X147.5000
G1 Z2.0000
 X145.8082
G0 Z25.0000
 X110.7891
G1 Z2.0000
 X94.3629
G0 Z25.0000
 X74.5000
G1 Z2.0000
 X69.1180
G0 Z25.0000
 X66.5854
G1 Z2.0000
 X59.0893
G0 Z25.0000
 X29.9392
G1 Z2.0000
 X1.0000
 Y123.0000
 X33.6283
G0 Z25.0000
 X55.4146
G1 Z2.0000
 X62.3848
G0 Z25.0000
 X70.2958
G1 Z2.0000
 X74.5000
G0 Z25.0000
 X96.4581
G1 Z2.0000
 X113.3323
G0 Z25.0000
 X146.8718
G1 Z2.0000
 X147.8820
G0 Z25.0000
 X170.1180
G1 Z2.0000
 X174.1068
G0 Z25.0000
 X210.9806
G1 Z2.0000
 X213.3849
G0 Z25.0000
 X221.2958
G1 Z2.0000
 X247.0084
G0 Z25.0000
 X287.1494
G1 Z2.0000
 X290.5000
G0 Z25.0000
 X310.5000
G1 Z2.0000
 X313.2040
G0 Z25.0000
 X330.3308
G1 Z2.0000
 X337.0776
G0 Z25.0000
 X313.2040 Y121.0000
G1 Z2.0000
 X310.5000
G0 Z25.0000
 X290.5000
G1 Z2.0000
 X288.2129
G0 Z25.0000
 X250.9743
G1 Z2.0000
 X222.4349
G0 Z25.0000
 X209.5548
G1 Z2.0000
 X207.8625
G0 Z25.0000
 X173.0737
G1 Z2.0000
 X147.9353
G0 Z25.0000
 X115.0365
G1 Z2.0000
 X98.5534
G0 Z25.0000
 X74.5000
G1 Z2.0000
 X71.4349
G0 Z25.0000
 X58.5549
G1 Z2.0000
 X47.6161
G0 Z25.0000
 X41.4136
G1 Z2.0000
 X1.0000
 Y119.0000
 X55.5175
G0 Z25.0000
 X72.3007
G1 Z2.0000
 X74.5000
G0 Z25.0000
 X100.6486
G1 Z2.0000
 X116.7147
G0 Z25.0000
 X148.8065
G1 Z2.0000
 X172.7039
G0 Z25.0000
 X204.7507
G1 Z2.0000
 X206.5172
G0 Z25.0000
 X223.3007
G1 Z2.0000
 X253.5175
G0 Z25.0000
 X289.2765
G1 Z2.0000
 X290.5000
G0 Z25.0000
 X310.5000
G1 Z2.0000
 X313.2040
 Y117.0000
 X310.5000
G0 Z25.0000
 X290.9878
G1 Z2.0000
 X290.3400
G0 Z25.0000
 X256.0607
G1 Z2.0000
 X224.0690
G0 Z25.0000
 X203.7721
G1 Z2.0000
 X201.2523
G0 Z25.0000
 X175.7842
G1 Z2.0000
 X149.3799
G0 Z25.0000
 X118.3929
G1 Z2.0000
 X102.7438
G0 Z25.0000
 X74.5000
G1 Z2.0000
 X73.0690
G0 Z25.0000
 X52.7722
G1 Z2.0000
 X1.0000
 Y115.0000
 X50.0269
G0 Z25.0000
 X73.7908
G1 Z2.0000
 X74.5000
G0 Z25.0000
 X104.8391
G1 Z2.0000
 X119.6001
G0 Z25.0000
 X149.9533
G1 Z2.0000
 X180.6222
G0 Z25.0000
 X196.4143
G1 Z2.0000
 X201.0269
G0 Z25.0000
 X224.7908
G1 Z2.0000
 X258.1974
G0 Z25.0000
 X291.4036
G1 Z2.0000
 X292.9667
G0 Z25.0000
 X310.1180
G1 Z2.0000
 X313.2040
 Y113.0000
 X292.4671
G0 Z25.0000
 X259.8756
G1 Z2.0000
 X225.2193
G0 Z25.0000
 X198.7747
G1 Z2.0000
 X150.5269
G0 Z25.0000
 X120.6718
G1 Z2.0000
 X106.9343
G0 Z25.0000
 X75.7387
G1 Z2.0000
 X74.2191
G0 Z25.0000
 X47.7747
G1 Z2.0000
 X1.0000
 Y111.0000
 X45.6056
G0 Z25.0000
 X74.4434
G1 Z2.0000
 X77.4530
G0 Z25.0000
 X109.0296
G1 Z2.0000
 X121.7434
G0 Z25.0000
 X151.1002
G1 Z2.0000
 X196.6056
G0 Z25.0000
 X225.4435
G1 Z2.0000
 X261.5537
G0 Z25.0000
 X293.0932
G1 Z2.0000
 X313.2040
 Y109.0000
 X293.6666
G0 Z25.0000
 X263.0643
G1 Z2.0000
 X225.5007
G0 Z25.0000
 X194.4365
G1 Z2.0000
 X151.6736
G0 Z25.0000
 X122.7655
G1 Z2.0000
 X111.1180
G0 Z25.0000
 X79.1672
G1 Z2.0000
 X74.5006
G0 Z25.0000
 X43.4365
G1 Z2.0000
 X1.0000
 Y107.0000
 X41.2674
G0 Z25.0000
 X74.3588
G1 Z2.0000
 X80.5000
G0 Z25.0000
 X111.5000
G1 Z2.0000
 X123.3527
G0 Z25.0000
 X152.2470
G1 Z2.0000
 X192.2674
G0 Z25.0000
 X225.3591
G1 Z2.0000
 X264.1360
G0 Z25.0000
 X294.2400
G1 Z2.0000
 X313.2040
 Y105.0000
 X294.8134
G0 Z25.0000
 X265.2076
G1 Z2.0000
 X224.9375
G0 Z25.0000
 X190.0983
G1 Z2.0000
 X152.5557
G0 Z25.0000
 X123.9399
G1 Z2.0000
 X111.5000
G0 Z25.0000
 X80.5000
G1 Z2.0000
 X73.9375
G0 Z25.0000
 X39.0983
G1 Z2.0000
 X1.0000
 Y103.0000
 X36.9293
G0 Z25.0000
 X73.3224
G1 Z2.0000
 X80.5000
G0 Z25.0000
 X111.5000
G1 Z2.0000
 X124.5271
G0 Z25.0000
 X152.6955
G1 Z2.0000
 X187.9293
G0 Z25.0000
 X224.3223
G1 Z2.0000
 X266.2792
G0 Z25.0000
 X295.3869
G1 Z2.0000
 X313.2040
 Y101.0000
 X295.9607
G0 Z25.0000
 X267.0591
G1 Z2.0000
 X223.4831
G0 Z25.0000
 X185.7602
G1 Z2.0000
 X152.8353
G0 Z25.0000
 X125.0703
G1 Z2.0000
 X111.5000
G0 Z25.0000
 X80.5000
G1 Z2.0000
 X72.4829
G0 Z25.0000
 X34.7602
G1 Z2.0000
 X1.0000
 Y99.0000
 X32.5911
G0 Z25.0000
 X71.2943
G1 Z2.0000
 X80.5000
G0 Z25.0000
 X111.5000
G1 Z2.0000
 X125.2293
G0 Z25.0000
 X152.9751
G1 Z2.0000
 X183.5911
G0 Z25.0000
 X222.2939
G1 Z2.0000
 X267.6463
G0 Z25.0000
 X296.4858
G1 Z2.0000
 X312.8189
G0 Z25.0000
 X312.2689 Y97.0000
G1 Z2.0000
 X296.6256
G0 Z25.0000
 X268.2334
G1 Z2.0000
 X220.8080
G0 Z25.0000
 X181.4220
G1 Z2.0000
 X153.1149
G0 Z25.0000
 X125.3882
G1 Z2.0000
 X111.5000
G0 Z25.0000
 X80.5000
G1 Z2.0000
 X69.8083
G0 Z25.0000
 X30.4220
G1 Z2.0000
 X1.0000
 Y95.0000
 X28.2529
G0 Z25.0000
 X67.9655
G1 Z2.0000
 X80.5000
G0 Z25.0000
 X111.5000
G1 Z2.0000
 X125.5471
G0 Z25.0000
 X153.2547
G1 Z2.0000
 X179.2529
G0 Z25.0000
 X218.9655
G1 Z2.0000
 X268.8206
G0 Z25.0000
 X296.7654
G1 Z2.0000
 X311.7189
G0 Z25.0000
 X311.1689 Y93.0000
G1 Z2.0000
 X296.9052
G0 Z25.0000
 X269.1498
G1 Z2.0000
 X217.0129
G0 Z25.0000
 X177.0838
G1 Z2.0000
 X153.3945
G0 Z25.0000
 X125.7059
G1 Z2.0000
 X111.5000
G0 Z25.0000
 X80.5000
G1 Z2.0000
 X66.0126
G0 Z25.0000
 X26.0838
G1 Z2.0000
 X1.0000
 Y91.0000
 X23.9147
G0 Z25.0000
 X64.0673
G1 Z2.0000
 X80.5000
G0 Z25.0000
 X111.5000
G1 Z2.0000
 X125.4726
G0 Z25.0000
 X153.2935
G1 Z2.0000
 X174.9147
G0 Z25.0000
 X215.0675
G1 Z2.0000
 X269.3087
G0 Z25.0000
 X297.0450
G1 Z2.0000
 X310.6189
G0 Z25.0000
 X326.4559
G1 Z2.0000
 X326.8156
G0 Z25.0000
 X332.0040
G1 Z2.0000
 X336.4040
G0 Z25.0000
 X341.5244
G1 Z2.0000
 X341.8841
G0 Z25.0000
 X353.1870
G1 Z2.0000
 X357.5860
 Y89.0000
 X353.1870
G0 Z25.0000
 X336.4040
G1 Z2.0000
 X332.0040
G0 Z25.0000
 X310.0688
G1 Z2.0000
 X297.1848
G0 Z25.0000
 X269.4676
G1 Z2.0000
 X213.1221
G0 Z25.0000
 X172.7456
G1 Z2.0000
 X153.0124
G0 Z25.0000
 X125.2174
G1 Z2.0000
 X111.5000
G0 Z25.0000
 X80.5000
G1 Z2.0000
 X62.1221
G0 Z25.0000
 X21.7456
G1 Z2.0000
 X1.0000
 Y87.0000
 X19.5765
G0 Z25.0000
 X60.6116
G1 Z2.0000
 X80.5000
G0 Z25.0000
 X111.5000
G1 Z2.0000
 X124.9621
G0 Z25.0000
 X152.7313
G1 Z2.0000
 X170.5765
G0 Z25.0000
 X211.6115
G1 Z2.0000
 X269.6266
G0 Z25.0000
 X297.3246
G1 Z2.0000
 X309.5188
G0 Z25.0000
 X308.9688 Y85.0000
G1 Z2.0000
 X297.4340
G0 Z25.0000
 X269.6003
G1 Z2.0000
 X210.3404
G0 Z25.0000
 X168.4075
G1 Z2.0000
 X152.4502
G0 Z25.0000
 X124.7068
G1 Z2.0000
 X111.5000
G0 Z25.0000
 X80.5000
G1 Z2.0000
 X59.3406
G0 Z25.0000
 X17.4075
G1 Z2.0000
 X1.0000
 Y83.0000
 X15.2384
G0 Z25.0000
 X58.0696
G1 Z2.0000
 X80.5000
G0 Z25.0000
 X111.5000
G1 Z2.0000
 X124.0970
G0 Z25.0000
 X152.1691
G1 Z2.0000
 X166.2384
G0 Z25.0000
 X209.0692
G1 Z2.0000
 X210.5000
G0 Z25.0000
 X246.2192
G1 Z2.0000
 X269.3450
G0 Z25.0000
 X297.1529
G1 Z2.0000
 X308.4188
G0 Z25.0000
 X307.8688 Y81.0000
G1 Z2.0000
 X296.8718
G0 Z25.0000
 X269.0897
G1 Z2.0000
 X247.2849
G0 Z25.0000
 X210.5000
G1 Z2.0000
 X207.9463
G0 Z25.0000
 X164.0693
G1 Z2.0000
 X151.8880
G0 Z25.0000
 X123.4049
G1 Z2.0000
 X111.5000
G0 Z25.0000
 X93.1647
G1 Z2.0000
 X91.5000
G0 Z25.0000
 X80.5000
G1 Z2.0000
 X56.9468
G0 Z25.0000
 X13.0693
G1 Z2.0000
 X1.0000
 Y79.0000
 X10.9002
G0 Z25.0000
 X56.1922
G1 Z2.0000
 X80.5000
G0 Z25.0000
 X91.5000
G1 Z2.0000
 X94.5000
G0 Z25.0000
 X111.5000
G1 Z2.0000
 X122.7127
G0 Z25.0000
 X151.6069
G1 Z2.0000
 X161.9002
G0 Z25.0000
 X207.1917
G1 Z2.0000
 X210.5000
G0 Z25.0000
 X247.5000
G1 Z2.0000
 X268.8345
G0 Z25.0000
 X296.5907
G1 Z2.0000
 X307.3188
G0 Z25.0000
 X306.7688 Y77.0000
G1 Z2.0000
 X296.3097
G0 Z25.0000
 X268.4431
G1 Z2.0000
 X247.5000
G0 Z25.0000
 X240.8765
G1 Z2.0000
 X239.1235
G0 Z25.0000
 X210.5000
G1 Z2.0000
 X206.4370
G0 Z25.0000
 X159.7311
G1 Z2.0000
 X151.0643
G0 Z25.0000
 X122.0206
G1 Z2.0000
 X111.5000
G0 Z25.0000
 X94.5000
G1 Z2.0000
 X91.5000
G0 Z25.0000
 X80.5000
G1 Z2.0000
 X55.4375
G0 Z25.0000
 X8.7311
G1 Z2.0000
 X1.0000
 Y75.0000
 X6.5620
G0 Z25.0000
 X54.6829
G1 Z2.0000
 X80.5000
G0 Z25.0000
 X91.5000
G1 Z2.0000
 X93.1647
G0 Z25.0000
 X111.5000
G1 Z2.0000
 X120.8878
G0 Z25.0000
 X150.3365
G1 Z2.0000
 X157.5620
G0 Z25.0000
 X205.6824
G1 Z2.0000
 X210.5000
G0 Z25.0000
 X247.5000
G1 Z2.0000
 X267.7509
G0 Z25.0000
 X296.0286
G1 Z2.0000
 X306.2188
G0 Z25.0000
 X305.6688 Y73.0000
G1 Z2.0000
 X295.7475
G0 Z25.0000
 X267.0588
G1 Z2.0000
 X247.5000
G0 Z25.0000
 X210.5000
G1 Z2.0000
 X205.1581
G0 Z25.0000
 X155.3929
G1 Z2.0000
 X149.6087
G0 Z25.0000
 X119.6905
G1 Z2.0000
 X111.5000
G0 Z25.0000
 X80.5000
G1 Z2.0000
 X54.1586
G0 Z25.0000
 X4.3929
G1 Z2.0000
 X1.0000
 Y71.0000
 X2.2238
G0 Z25.0000
 X53.8155
G1 Z2.0000
 X80.5000
G0 Z25.0000
 X111.5000
G1 Z2.0000
 X118.4931
G0 Z25.0000
 X148.8810
G1 Z2.0000
 X153.2238
G0 Z25.0000
 X204.8151
G1 Z2.0000
 X210.5000
G0 Z25.0000
 X247.5000
G1 Z2.0000
 X266.3667
G0 Z25.0000
 X295.4281
G1 Z2.0000
 X305.1188
G0 Z25.0000
 X326.4559
G1 Z2.0000
 X326.8156
G0 Z25.0000
 X332.0040
G1 Z2.0000
 X336.4040
G0 Z25.0000
 X341.5244
G1 Z2.0000
 X341.8841
G0 Z25.0000
 X353.1870
G1 Z2.0000
 X357.5860
 Y69.0000
 X353.1870
G0 Z25.0000
 X336.4040
G1 Z2.0000
 X332.0040
G0 Z25.0000
 X304.5688
G1 Z2.0000
 X294.7004
G0 Z25.0000
 X265.4865
G1 Z2.0000
 X247.5000
G0 Z25.0000
 X210.5000
G1 Z2.0000
 X204.4720
G0 Z25.0000
 X151.0548
G1 Z2.0000
 X148.1532
G0 Z25.0000
 X117.1036
G1 Z2.0000
 X111.5000
G0 Z25.0000
 X80.5000
G1 Z2.0000
 X53.4724
G0 Z25.0000
 X53.1946 Y67.0000
G1 Z2.0000
 X80.1340
G0 Z25.0000
 X111.1396
G1 Z2.0000
 X115.2562
G0 Z25.0000
 X147.4254
G1 Z2.0000
 X149.5028
G0 Z25.0000
 X204.1943
G1 Z2.0000
 X210.5000
G0 Z25.0000
 X247.5000
G1 Z2.0000
 X264.2891
G0 Z25.0000
 X293.9726
G1 Z2.0000
 X304.0188
G0 Z25.0000
 X303.4688 Y65.0000
G1 Z2.0000
 X293.2448
G0 Z25.0000
 X263.0918
G1 Z2.0000
 X247.5000
G0 Z25.0000
 X210.5000
G1 Z2.0000
 X204.1954
G0 Z25.0000
 X149.5000
G1 Z2.0000
 X146.6962
G0 Z25.0000
 X113.4087
G1 Z2.0000
 X109.8455
G0 Z25.0000
 X79.5340
G1 Z2.0000
 X53.1957
 X53.1968 Y63.0000
 X78.9340
G0 Z25.0000
 X108.5513
G1 Z2.0000
 X111.5865
G0 Z25.0000
 X145.4708
G1 Z2.0000
 X149.5000
G0 Z25.0000
 X204.1965
G1 Z2.0000
 X210.5000
G0 Z25.0000
 X247.5000
G1 Z2.0000
 X261.8945
G0 Z25.0000
 X292.5171
G1 Z2.0000
 X302.9188
G0 Z25.0000
 X302.3688 Y61.0000
G1 Z2.0000
 X291.7893
G0 Z25.0000
 X260.1799
G1 Z2.0000
 X247.5000
G0 Z25.0000
 X210.5000
G1 Z2.0000
 X204.1977
G0 Z25.0000
 X149.5000
G1 Z2.0000
 X144.2209
G0 Z25.0000
 X109.8926
G1 Z2.0000
 X107.2572
G0 Z25.0000
 X78.3340
G1 Z2.0000
 X53.1979
G0 Z25.0000
 X53.4613 Y59.0000
G1 Z2.0000
 X77.7340
G0 Z25.0000
 X105.9631
G1 Z2.0000
 X108.5114
G0 Z25.0000
 X142.9711
G1 Z2.0000
 X149.5000
G0 Z25.0000
 X204.4611
G1 Z2.0000
 X231.9765
G0 Z25.0000
 X247.5000
G1 Z2.0000
 X258.3324
G0 Z25.0000
 X291.0615
G1 Z2.0000
 X302.2040
 Y57.0000
 X290.0957
G0 Z25.0000
 X256.4850
G1 Z2.0000
 X247.5000
G0 Z25.0000
 X232.5000
G1 Z2.0000
 X204.8060
G0 Z25.0000
 X149.5000
G1 Z2.0000
 X141.7213
G0 Z25.0000
 X107.3584
G1 Z2.0000
 X104.6690
G0 Z25.0000
 X77.1340
G1 Z2.0000
 X53.8062
G0 Z25.0000
 X54.1510 Y55.0000
G1 Z2.0000
 X76.5340
G0 Z25.0000
 X103.3749
G1 Z2.0000
 X106.5269
G0 Z25.0000
 X121.3601
G1 Z2.0000
 X122.3756
G0 Z25.0000
 X140.4715
G1 Z2.0000
 X149.5000
G0 Z25.0000
 X205.1508
G1 Z2.0000
 X232.5000
G0 Z25.0000
 X247.5000
G1 Z2.0000
 X254.7396
G0 Z25.0000
 X288.8459
G1 Z2.0000
 X302.2040
G0 Z25.0000
 X309.3112
G1 Z2.0000
 X310.8968
G0 Z25.0000
 X356.5112
G1 Z2.0000
 X358.0968
G0 Z25.0000
 X358.2642 Y53.0000
G1 Z2.0000
 X356.3438
G0 Z25.0000
 X311.0642
G1 Z2.0000
 X309.1438
G0 Z25.0000
 X302.2040
G1 Z2.0000
 X287.5960
G0 Z25.0000
 X253.0879
G1 Z2.0000
 X247.5000
G0 Z25.0000
 X232.5000
G1 Z2.0000
 X205.6264
G0 Z25.0000
 X149.5000
G1 Z2.0000
 X139.2181
G0 Z25.0000
 X120.5328
G1 Z2.0000
 X118.9761
G0 Z25.0000
 X105.8128
G1 Z2.0000
 X102.0807
G0 Z25.0000
 X75.9340
G1 Z2.0000
 X54.6266
G0 Z25.0000
 X55.3132 Y51.0000
G1 Z2.0000
 X75.3340
G0 Z25.0000
 X100.7866
G1 Z2.0000
 X105.3784
G0 Z25.0000
 X137.3089
G1 Z2.0000
 X149.5000
G0 Z25.0000
 X206.3131
G1 Z2.0000
 X232.5000
G0 Z25.0000
 X247.5000
G1 Z2.0000
 X251.9349
G0 Z25.0000
 X286.3462
G1 Z2.0000
 X302.2040
 Y49.0000
 X285.0964
G0 Z25.0000
 X250.8839
G1 Z2.0000
 X247.5000
G0 Z25.0000
 X232.5000
G1 Z2.0000
 X206.9998
G0 Z25.0000
 X149.5000
G1 Z2.0000
 X135.3776
G0 Z25.0000
 X105.0497
G1 Z2.0000
 X99.4925
G0 Z25.0000
 X74.7340
G1 Z2.0000
 X55.9998
G0 Z25.0000
 X56.8629 Y47.0000
G1 Z2.0000
 X74.5000
G0 Z25.0000
 X98.1984
G1 Z2.0000
 X104.9469
G0 Z25.0000
 X133.4463
G1 Z2.0000
 X149.5000
G0 Z25.0000
 X207.8628
G1 Z2.0000
 X232.5000
G0 Z25.0000
 X247.5000
G1 Z2.0000
 X250.1698
G0 Z25.0000
 X264.1681
G1 Z2.0000
 X265.7244
G0 Z25.0000
 X283.8465
G1 Z2.0000
 X302.2040
G0 Z25.0000
 X326.2272
G1 Z2.0000
 X341.1808
G0 Z25.0000
 X344.6185 Y45.0000
G1 Z2.0000
 X322.7895
G0 Z25.0000
 X302.2040
G1 Z2.0000
 X282.2746
G0 Z25.0000
 X263.3411
G1 Z2.0000
 X262.4117
G0 Z25.0000
 X249.5427
G1 Z2.0000
 X247.5000
G0 Z25.0000
 X232.5000
G1 Z2.0000
 X208.8987
G0 Z25.0000
 X149.5000
G1 Z2.0000
 X131.5150
G0 Z25.0000
 X104.9805
G1 Z2.0000
 X96.9043
G0 Z25.0000
 X74.5000
G1 Z2.0000
 X57.8989
G0 Z25.0000
 X58.9350 Y43.0000
G1 Z2.0000
 X74.5000
G0 Z25.0000
 X95.6102
G1 Z2.0000
 X105.1939
G0 Z25.0000
 X129.5836
G1 Z2.0000
 X149.5000
G0 Z25.0000
 X209.9347
G1 Z2.0000
 X232.5000
G0 Z25.0000
 X247.5000
G1 Z2.0000
 X249.2141
G0 Z25.0000
 X280.3433
G1 Z2.0000
 X302.2040
G0 Z25.0000
 X320.4841
G1 Z2.0000
 X346.9239
G0 Z25.0000
 X348.7032 Y41.0000
G1 Z2.0000
 X318.7048
G0 Z25.0000
 X302.2040
G1 Z2.0000
 X278.4119
G0 Z25.0000
 X248.9301
G1 Z2.0000
 X247.5000
G0 Z25.0000
 X232.5000
G1 Z2.0000
 X211.2965
G0 Z25.0000
 X149.5000
G1 Z2.0000
 X126.7646
G0 Z25.0000
 X105.5927
G1 Z2.0000
 X94.3160
G0 Z25.0000
 X81.8763
G1 Z2.0000
 X80.1237
G0 Z25.0000
 X74.5000
G1 Z2.0000
 X60.2966
G0 Z25.0000
 X61.7401 Y39.0000
G1 Z2.0000
 X74.5000
G0 Z25.0000
 X93.0219
G1 Z2.0000
 X106.1498
G0 Z25.0000
 X123.4332
G1 Z2.0000
 X149.5000
G0 Z25.0000
 X212.7403
G1 Z2.0000
 X232.5000
G0 Z25.0000
 X247.5000
G1 Z2.0000
 X248.9637
G0 Z25.0000
 X276.4806
G1 Z2.0000
 X302.2040
G0 Z25.0000
 X317.5507
G1 Z2.0000
 X349.8579
G0 Z25.0000
 X350.8309 Y37.0000
G1 Z2.0000
 X316.5781
G0 Z25.0000
 X302.2040
G1 Z2.0000
 X274.5493
G0 Z25.0000
 X249.0022
G1 Z2.0000
 X247.5000
G0 Z25.0000
 X232.5000
G1 Z2.0000
 X214.3892
G0 Z25.0000
 X186.8481
G1 Z2.0000
 X185.1519
G0 Z25.0000
 X166.8481
G1 Z2.0000
 X165.1519
G0 Z25.0000
 X149.5000
G1 Z2.0000
 X118.8671
G0 Z25.0000
 X106.9410
G1 Z2.0000
 X91.7278
G0 Z25.0000
 X74.5000
G1 Z2.0000
 X63.3888
G0 Z25.0000
 X35.8480
G1 Z2.0000
 X34.1520
G0 Z25.0000
 X15.8480
G1 Z2.0000
 X14.1520
G0 Z25.0000
 X65.4428 Y35.0000
G1 Z2.0000
 X74.5000
G0 Z25.0000
 X90.4337
G1 Z2.0000
 X124.0880
G0 Z25.0000
 X138.0055
G1 Z2.0000
 X149.5000
G0 Z25.0000
 X216.4431
G1 Z2.0000
 X232.5000
G0 Z25.0000
 X247.5000
G1 Z2.0000
 X249.3934
G0 Z25.0000
 X272.2237
G1 Z2.0000
 X275.0880
G0 Z25.0000
 X289.0055
G1 Z2.0000
 X302.2040
G0 Z25.0000
 X315.9283
G1 Z2.0000
 X351.4807
G0 Z25.0000
 X351.9013 Y33.0000
G1 Z2.0000
 X315.5074
G0 Z25.0000
 X302.2040
G1 Z2.0000
 X292.6596
G0 Z25.0000
 X271.4773
G1 Z2.0000
 X269.3054
G0 Z25.0000
 X249.7920
G1 Z2.0000
 X247.5000
G0 Z25.0000
 X232.5000
G1 Z2.0000
 X218.4970
G0 Z25.0000
 X149.5000
G1 Z2.0000
 X141.6596
G0 Z25.0000
 X120.4773
G1 Z2.0000
 X89.1180
G0 Z25.0000
 X74.8820
G1 Z2.0000
 X67.4967
G0 Z25.0000
 X13.0000 Y31.0000
G1 Z2.0000
 X17.0000
G0 Z25.0000
 X33.0000
G1 Z2.0000
 X37.0000
G0 Z25.0000
 X69.9668
G1 Z2.0000
 X117.6593
G0 Z25.0000
 X144.7095
G1 Z2.0000
 X149.5000
G0 Z25.0000
 X164.0000
G1 Z2.0000
 X168.0000
G0 Z25.0000
 X184.0000
G1 Z2.0000
 X188.0000
G0 Z25.0000
 X220.9669
G1 Z2.0000
 X232.5000
G0 Z25.0000
 X247.0122
G1 Z2.0000
 X250.5454
G0 Z25.0000
 X265.3137
G1 Z2.0000
 X268.6593
G0 Z25.0000
 X295.7095
G1 Z2.0000
 X302.2040
G0 Z25.0000
 X315.2968
G1 Z2.0000
 X352.1115
G0 Z25.0000
 X352.0698 Y29.0000
G1 Z2.0000
 X315.3385
G0 Z25.0000
 X302.2040
G1 Z2.0000
 X298.0331
G0 Z25.0000
 X265.8365
G1 Z2.0000
 X259.4047
G0 Z25.0000
 X251.3366
G1 Z2.0000
 X245.0325
G0 Z25.0000
 X232.8820
G1 Z2.0000
 X224.1233
G0 Z25.0000
 X188.0000
G1 Z2.0000
 X184.0000
G0 Z25.0000
 X168.0000
G1 Z2.0000
 X164.0000
G0 Z25.0000
 X149.5000
G1 Z2.0000
 X147.0331
G0 Z25.0000
 X114.8365
G1 Z2.0000
 X73.1232
G0 Z25.0000
 X37.0000
G1 Z2.0000
 X33.0000
G0 Z25.0000
 X17.0000
G1 Z2.0000
 X13.0000
G0 Z25.0000
 X76.5305 Y27.0000
G1 Z2.0000
 X111.1026
G0 Z25.0000
 X149.1265
G1 Z2.0000
 X149.5000
G0 Z25.0000
 X227.5306
G1 Z2.0000
 X262.1026
G0 Z25.0000
 X300.1265
G1 Z2.0000
 X302.2040
G0 Z25.0000
 X315.5492
G1 Z2.0000
 X351.8596
G0 Z25.0000
 X351.3519 Y25.0000
G1 Z2.0000
 X316.0571
G0 Z25.0000
 X302.2040
G1 Z2.0000
 X299.6894
G0 Z25.0000
 X257.1172
G1 Z2.0000
 X232.8835
G0 Z25.0000
 X149.5000
G1 Z2.0000
 X148.6894
G0 Z25.0000
 X106.1172
G1 Z2.0000
 X81.8835
G0 Z25.0000
 X147.1339 Y23.0000
G1 Z2.0000
 X149.5000
G0 Z25.0000
 X298.1339
G1 Z2.0000
 X302.2040
G0 Z25.0000
 X316.7069
G1 Z2.0000
 X350.7021
G0 Z25.0000
 X349.6293 Y21.0000
G1 Z2.0000
 X317.7792
G0 Z25.0000
 X302.2040
G1 Z2.0000
 X296.5785
G0 Z25.0000
 X149.5000
G1 Z2.0000
 X145.5785
G0 Z25.0000
 X144.0231 Y19.0000
G1 Z2.0000
 X149.5000
G0 Z25.0000
 X295.0231
G1 Z2.0000
 X302.2040
G0 Z25.0000
 X319.0394
G1 Z2.0000
 X348.3686
G0 Z25.0000
 X346.5677 Y17.0000
G1 Z2.0000
 X320.8403
G0 Z25.0000
 X302.2040
G1 Z2.0000
 X293.2323
G0 Z25.0000
 X149.5000
G1 Z2.0000
 X142.2323
G0 Z25.0000
 X140.1806 Y15.0000
G1 Z2.0000
 X149.5000
G0 Z25.0000
 X291.1806
G1 Z2.0000
 X302.2040
G0 Z25.0000
 X323.3339
G1 Z2.0000
 X344.0741
G0 Z25.0000
 X340.2922 Y13.0000
G1 Z2.0000
 X327.1158
G0 Z25.0000
 X302.2040
G1 Z2.0000
 X289.1289
G0 Z25.0000
 X149.5000
G1 Z2.0000
 X138.1289
G0 Z25.0000
 X136.0213 Y11.0000
G1 Z2.0000
 X149.5000
G0 Z25.0000
 X287.0213
G1 Z2.0000
 X302.2040
 Y9.0000
 X284.6377
G0 Z25.0000
 X188.0000
G1 Z2.0000
 X184.0000
G0 Z25.0000
 X168.0000
G1 Z2.0000
 X164.0000
G0 Z25.0000
 X149.5000
G1 Z2.0000
 X133.6377
G0 Z25.0000
 X37.0000
G1 Z2.0000
 X33.0000
G0 Z25.0000
 X17.0000
G1 Z2.0000
 X13.0000
 Y7.0000
 X17.0000
G0 Z25.0000
 X33.0000
G1 Z2.0000
 X37.0000
G0 Z25.0000
 X131.2541
G1 Z2.0000
 X149.5000
G0 Z25.0000
 X164.0000
G1 Z2.0000
 X168.0000
G0 Z25.0000
 X184.0000
G1 Z2.0000
 X188.0000
G0 Z25.0000
 X282.2541
G1 Z2.0000
 X302.2040
G0 Z25.0000
 X309.1040
G1 Z2.0000
 X311.1040
G0 Z25.0000
 X356.3040
G1 Z2.0000
 X358.3040
G0 Z25.0000
 X357.9330 Y5.0000
G1 Z2.0000
 X356.6750
G0 Z25.0000
 X310.7330
G1 Z2.0000
 X309.4750
G0 Z25.0000
 X302.2040
G1 Z2.0000
 X279.8706
G0 Z25.0000
 X149.5000
G1 Z2.0000
 X128.8706
G0 Z25.0000
 X126.4870 Y3.0000
G1 Z2.0000
 X149.5000
G0 Z25.0000
 X277.4870
G1 Z2.0000
 X302.2040
 Y1.0000
 X275.1034
G0 Z25.0000
 X149.5000
G1 Z2.0000
 X124.1034
G0 Z25.0000
 X124.1035
G1 Z1.0000
 X149.5000
G0 Z25.0000
 X275.1035
G1 Z1.0000
 X302.2040
 Y3.0000
 X277.4870
G0 Z25.0000
 X149.5000
G1 Z1.0000
 X126.4870
G0 Z25.0000
 X128.8706 Y5.0000
G1 Z1.0000
 X149.5000
G0 Z25.0000
 X279.8706
G1 Z1.0000
 X302.2040
G0 Z25.0000
 X309.4750
G1 Z1.0000
 X310.7328
G0 Z25.0000
 X356.6750
G1 Z1.0000
 X357.9330
G0 Z25.0000
 X358.3040 Y7.0000
G1 Z1.0000
 X356.3040
G0 Z25.0000
 X311.1040
G1 Z1.0000
 X309.1040
G0 Z25.0000
 X302.2040
G1 Z1.0000
 X282.2541
G0 Z25.0000
 X188.0000
G1 Z1.0000
 X184.0000
G0 Z25.0000
 X168.0000
G1 Z1.0000
 X164.0000
G0 Z25.0000
 X149.5000
G1 Z1.0000
 X131.2541
G0 Z25.0000
 X37.0000
G1 Z1.0000
 X33.0000
G0 Z25.0000
 X17.0000
G1 Z1.0000
 X13.0000
 Y9.0000
 X17.0000
G0 Z25.0000
 X33.0000
G1 Z1.0000
 X37.0000
G0 Z25.0000
 X133.6377
G1 Z1.0000
 X149.5000
G0 Z25.0000
 X164.0000
G1 Z1.0000
 X168.0000
G0 Z25.0000
 X184.0000
G1 Z1.0000
 X188.0000
G0 Z25.0000
 X284.6377
G1 Z1.0000
 X302.2040
 Y11.0000
 X287.0213
G0 Z25.0000
 X149.5000
G1 Z1.0000
 X136.0213
G0 Z25.0000
 X138.1289 Y13.0000
G1 Z1.0000
 X149.5000
G0 Z25.0000
 X289.1289
G1 Z1.0000
 X302.2040
G0 Z25.0000
 X327.1159
G1 Z1.0000
 X340.2920
G0 Z25.0000
 X344.0741 Y15.0000
G1 Z1.0000
 X323.3340
G0 Z25.0000
 X302.2040
G1 Z1.0000
 X291.1806
G0 Z25.0000
 X149.5000
G1 Z1.0000
 X140.1806
G0 Z25.0000
 X142.2323 Y17.0000
G1 Z1.0000
 X149.5000
G0 Z25.0000
 X293.2323
G1 Z1.0000
 X302.2040
G0 Z25.0000
 X320.8403
G1 Z1.0000
 X346.5677
G0 Z25.0000
 X348.3686 Y19.0000
G1 Z1.0000
 X319.0394
G0 Z25.0000
 X302.2040
G1 Z1.0000
 X295.0230
G0 Z25.0000
 X149.5000
G1 Z1.0000
 X144.0230
G0 Z25.0000
 X145.5785 Y21.0000
G1 Z1.0000
 X149.5000
G0 Z25.0000
 X296.5785
G1 Z1.0000
 X302.2040
G0 Z25.0000
 X317.7792
G1 Z1.0000
 X349.6293
G0 Z25.0000
 X350.7021 Y23.0000
G1 Z1.0000
 X316.7069
G0 Z25.0000
 X302.2040
G1 Z1.0000
 X298.1339
G0 Z25.0000
 X149.5000
G1 Z1.0000
 X147.1339
G0 Z25.0000
 X81.8835 Y25.0000
G1 Z1.0000
 X106.1172
G0 Z25.0000
 X148.6894
G1 Z1.0000
 X149.5000
G0 Z25.0000
 X232.8835
G1 Z1.0000
 X257.1172
G0 Z25.0000
 X299.6894
G1 Z1.0000
 X302.2040
G0 Z25.0000
 X316.0571
G1 Z1.0000
 X351.3519
G0 Z25.0000
 X351.8594 Y27.0000
G1 Z1.0000
 X315.5492
G0 Z25.0000
 X302.2040
G1 Z1.0000
 X300.1265
G0 Z25.0000
 X262.1026
G1 Z1.0000
 X227.5306
G0 Z25.0000
 X149.5000
G1 Z1.0000
 X149.1265
G0 Z25.0000
 X111.1026
G1 Z1.0000
 X76.5305
G0 Z25.0000
 X13.0000 Y29.0000
G1 Z1.0000
 X17.0000
G0 Z25.0000
 X33.0000
G1 Z1.0000
 X37.0000
G0 Z25.0000
 X73.1232
G1 Z1.0000
 X114.8365
G0 Z25.0000
 X147.0331
G1 Z1.0000
 X149.5000
G0 Z25.0000
 X164.0000
G1 Z1.0000
 X168.0000
G0 Z25.0000
 X184.0000
G1 Z1.0000
 X188.0000
G0 Z25.0000
 X224.1233
G1 Z1.0000
 X232.8820
G0 Z25.0000
 X245.0325
G1 Z1.0000
 X251.3365
G0 Z25.0000
 X259.4047
G1 Z1.0000
 X265.8365
G0 Z25.0000
 X298.0331
G1 Z1.0000
 X302.2040
G0 Z25.0000
 X315.3387
G1 Z1.0000
 X352.0698
G0 Z25.0000
 X352.1115 Y31.0000
G1 Z1.0000
 X315.2968
G0 Z25.0000
 X302.2040
G1 Z1.0000
 X295.7095
G0 Z25.0000
 X268.6591
G1 Z1.0000
 X265.3137
G0 Z25.0000
 X250.5454
G1 Z1.0000
 X247.0122
G0 Z25.0000
 X232.5000
G1 Z1.0000
 X220.9669
G0 Z25.0000
 X188.0000
G1 Z1.0000
 X184.0000
G0 Z25.0000
 X168.0000
G1 Z1.0000
 X164.0000
G0 Z25.0000
 X149.5000
G1 Z1.0000
 X144.7095
G0 Z25.0000
 X117.6591
G1 Z1.0000
 X69.9668
G0 Z25.0000
 X37.0000
G1 Z1.0000
 X33.0000
G0 Z25.0000
 X17.0000
G1 Z1.0000
 X13.0000
G0 Z25.0000
 X67.4967 Y33.0000
G1 Z1.0000
 X74.8820
G0 Z25.0000
 X89.1180
G1 Z1.0000
 X120.4773
G0 Z25.0000
 X141.6596
G1 Z1.0000
 X149.5000
G0 Z25.0000
 X218.4971
G1 Z1.0000
 X232.5000
G0 Z25.0000
 X247.5000
G1 Z1.0000
 X249.7920
G0 Z25.0000
 X269.3054
G1 Z1.0000
 X271.4773
G0 Z25.0000
 X292.6596
G1 Z1.0000
 X302.2040
G0 Z25.0000
 X315.5074
G1 Z1.0000
 X351.9013
G0 Z25.0000
 X351.4807 Y35.0000
G1 Z1.0000
 X315.9283
G0 Z25.0000
 X302.2040
G1 Z1.0000
 X289.0055
G0 Z25.0000
 X275.0880
G1 Z1.0000
 X272.2238
G0 Z25.0000
 X249.3933
G1 Z1.0000
 X247.5000
G0 Z25.0000
 X232.5000
G1 Z1.0000
 X216.4431
G0 Z25.0000
 X149.5000
G1 Z1.0000
 X138.0055
G0 Z25.0000
 X124.0880
G1 Z1.0000
 X90.4337
G0 Z25.0000
 X74.5000
G1 Z1.0000
 X65.4428
G0 Z25.0000
 X14.1520 Y37.0000
G1 Z1.0000
 X15.8480
G0 Z25.0000
 X34.1520
G1 Z1.0000
 X35.8480
G0 Z25.0000
 X63.3888
G1 Z1.0000
 X74.5000
G0 Z25.0000
 X91.7278
G1 Z1.0000
 X106.9410
G0 Z25.0000
 X118.8671
G1 Z1.0000
 X149.5000
G0 Z25.0000
 X165.1519
G1 Z1.0000
 X166.8481
G0 Z25.0000
 X185.1519
G1 Z1.0000
 X186.8481
G0 Z25.0000
 X214.3892
G1 Z1.0000
 X232.5000
G0 Z25.0000
 X247.5000
G1 Z1.0000
 X249.0022
G0 Z25.0000
 X274.5493
G1 Z1.0000
 X302.2040
G0 Z25.0000
 X316.5781
G1 Z1.0000
 X350.8309
G0 Z25.0000
 X349.8578 Y39.0000
G1 Z1.0000
 X317.5508
G0 Z25.0000
 X302.2040
G1 Z1.0000
 X276.4806
G0 Z25.0000
 X248.9636
G1 Z1.0000
 X247.5000
G0 Z25.0000
 X232.5000
G1 Z1.0000
 X212.7403
G0 Z25.0000
 X149.5000
G1 Z1.0000
 X123.4332
G0 Z25.0000
 X106.1498
G1 Z1.0000
 X93.0219
G0 Z25.0000
 X74.5000
G1 Z1.0000
 X61.7401
G0 Z25.0000
 X60.2966 Y41.0000
G1 Z1.0000
 X74.5000
G0 Z25.0000
 X80.1237
G1 Z1.0000
 X81.8763
G0 Z25.0000
 X94.3160
G1 Z1.0000
 X105.5927
G0 Z25.0000
 X126.7646
G1 Z1.0000
 X149.5000
G0 Z25.0000
 X211.2965
G1 Z1.0000
 X232.5000
G0 Z25.0000
 X247.5000
G1 Z1.0000
 X248.9300
G0 Z25.0000
 X278.4119
G1 Z1.0000
 X302.2040
G0 Z25.0000
 X318.7051
G1 Z1.0000
 X348.7032
G0 Z25.0000
 X346.9239 Y43.0000
G1 Z1.0000
 X320.4841
G0 Z25.0000
 X302.2040
G1 Z1.0000
 X280.3433
G0 Z25.0000
 X249.2141
G1 Z1.0000
 X247.5000
G0 Z25.0000
 X232.5000
G1 Z1.0000
 X209.9348
G0 Z25.0000
 X149.5000
G1 Z1.0000
 X129.5837
G0 Z25.0000
 X105.1939
G1 Z1.0000
 X95.6102
G0 Z25.0000
 X74.5000
G1 Z1.0000
 X58.9350
G0 Z25.0000
 X57.8989 Y45.0000
G1 Z1.0000
 X74.5000
G0 Z25.0000
 X96.9043
G1 Z1.0000
 X104.9805
G0 Z25.0000
 X131.5150
G1 Z1.0000
 X149.5000
G0 Z25.0000
 X208.8988
G1 Z1.0000
 X232.5000
G0 Z25.0000
 X247.5000
G1 Z1.0000
 X249.5427
G0 Z25.0000
 X262.4117
G1 Z1.0000
 X263.3410
G0 Z25.0000
 X282.2746
G1 Z1.0000
 X302.2040
G0 Z25.0000
 X322.7895
G1 Z1.0000
 X344.6184
G0 Z25.0000
 X341.1808 Y47.0000
G1 Z1.0000
 X326.2273
G0 Z25.0000
 X302.2040
G1 Z1.0000
 X283.8467
G0 Z25.0000
 X265.7244
G1 Z1.0000
 X264.1681
G0 Z25.0000
 X250.1698
G1 Z1.0000
 X247.5000
G0 Z25.0000
 X232.5000
G1 Z1.0000
 X207.8628
G0 Z25.0000
 X149.5000
G1 Z1.0000
 X133.4463
G0 Z25.0000
 X104.9467
G1 Z1.0000
 X98.1984
G0 Z25.0000
 X74.5000
G1 Z1.0000
 X56.8629
G0 Z25.0000
 X55.9998 Y49.0000
G1 Z1.0000
 X74.7340
G0 Z25.0000
 X99.4925
G1 Z1.0000
 X105.0497
G0 Z25.0000
 X135.3776
G1 Z1.0000
 X149.5000
G0 Z25.0000
 X206.9998
G1 Z1.0000
 X232.5000
G0 Z25.0000
 X247.5000
G1 Z1.0000
 X250.8838
G0 Z25.0000
 X285.0966
G1 Z1.0000
 X302.2040
 Y51.0000
 X286.3463
G0 Z25.0000
 X251.9349
G1 Z1.0000
 X247.5000
G0 Z25.0000
 X232.5000
G1 Z1.0000
 X206.3131
G0 Z25.0000
 X149.5000
G1 Z1.0000
 X137.3089
G0 Z25.0000
 X105.3784
G1 Z1.0000
 X100.7866
G0 Z25.0000
 X75.3340
G1 Z1.0000
 X55.3132
G0 Z25.0000
 X54.6266 Y53.0000
G1 Z1.0000
 X75.9340
G0 Z25.0000
 X102.0807
G1 Z1.0000
 X105.8128
G0 Z25.0000
 X118.9761
G1 Z1.0000
 X120.5327
G0 Z25.0000
 X139.2181
G1 Z1.0000
 X149.5000
G0 Z25.0000
 X205.6264
G1 Z1.0000
 X232.5000
G0 Z25.0000
 X247.5000
G1 Z1.0000
 X253.0879
G0 Z25.0000
 X287.5961
G1 Z1.0000
 X302.2040
G0 Z25.0000
 X309.1441
G1 Z1.0000
 X311.0642
G0 Z25.0000
 X356.3438
G1 Z1.0000
 X358.2641
G0 Z25.0000
 X358.0966 Y55.0000
G1 Z1.0000
 X356.5113
G0 Z25.0000
 X310.8968
G1 Z1.0000
 X309.3112
G0 Z25.0000
 X302.2040
G1 Z1.0000
 X288.8459
G0 Z25.0000
 X254.7396
G1 Z1.0000
 X247.5000
G0 Z25.0000
 X232.5000
G1 Z1.0000
 X205.1508
G0 Z25.0000
 X149.5000
G1 Z1.0000
 X140.4715
G0 Z25.0000
 X122.3756
G1 Z1.0000
 X121.3601
G0 Z25.0000
 X106.5268
G1 Z1.0000
 X103.3749
G0 Z25.0000
 X76.5340
G1 Z1.0000
 X54.1510
G0 Z25.0000
 X53.8062 Y57.0000
G1 Z1.0000
 X77.1340
G0 Z25.0000
 X104.6690
G1 Z1.0000
 X107.3583
G0 Z25.0000
 X141.7214
G1 Z1.0000
 X149.5000
G0 Z25.0000
 X204.8060
G1 Z1.0000
 X232.5000
G0 Z25.0000
 X247.5000
G1 Z1.0000
 X256.4850
G0 Z25.0000
 X290.0957
