;PYCAM-META-DATA: Filename: /home/mvn/cutter-parts/part10.stl
;PYCAM-META-DATA: Timestamp: 2015-06-07 14:06:45.696487
;PYCAM-META-DATA: Version: 0.5.1
;Estimated machine time: 440 minutes
G40 (disable tool radius compensation)
G49 (disable tool length compensation)
G80 (cancel modal motion)
G54 (select coordinate system 1)
G90 (disable incremental moves)
G21 (metric)
G61 (exact path mode)
F200.00000
S1000.00000
;PYCAM_TOOLPATH_SETTINGS: START
;[Bounds]
;maxz = 3.0
;maxx = 66.085896
;maxy = 163.0649758
;minx = -3.914056
;miny = -13.6987338
;minz = -3.0
;
;[Tool]
;torus_radius = 0.125
;speed = 1000.0
;shape = SphericalCutter
;tool_radius = 1.0
;feedrate = 200.0
;
;[Process]
;engrave_offset = 0.0
;step_down = 1.0
;generator = PushCutter
;postprocessor = SimpleCutter
;milling_style = ignore
;material_allowance = 0.5
;pocketing_type = none
;path_direction = x
;
;PYCAM_TOOLPATH_SETTINGS: END
T4 M6
G0 Z25.0000
M3 (start spindle)
G04 P3 (wait for 3 seconds)
 X-3.9141 Y-13.6987
G1 Z3.0000
 X66.0859
 Y-11.7126
 X-3.9141
 Y-9.7265
 X66.0859
 Y-7.7404
 X-3.9141
 Y-5.7543
 X66.0859
 Y-3.7682
 X-3.9141
 Y-1.7821
 X66.0859
 Y0.2040
 X62.2039
G0 Z25.0000
 X-0.0321
G1 Z3.0000
 X-3.9141
 Y2.1901
 X-0.0321
G0 Z25.0000
 X62.2039
G1 Z3.0000
 X66.0859
 Y4.1762
 X62.2039
G0 Z25.0000
 X-0.0321
G1 Z3.0000
 X-3.9141
 Y6.1624
 X-0.0321
G0 Z25.0000
 X6.1044
G1 Z3.0000
 X8.8683
G0 Z25.0000
 X53.3035
G1 Z3.0000
 X56.0675
G0 Z25.0000
 X62.2039
G1 Z3.0000
 X66.0859
 Y8.1485
 X62.2039
G0 Z25.0000
 X55.7476
G1 Z3.0000
 X53.6240
G0 Z25.0000
 X8.5479
G1 Z3.0000
 X6.4242
G0 Z25.0000
 X-0.0321
G1 Z3.0000
 X-3.9141
 Y10.1346
 X-0.0321
G0 Z25.0000
 X62.2039
G1 Z3.0000
 X66.0859
 Y12.1207
 X62.2039
G0 Z25.0000
 X36.3297
G1 Z3.0000
 X25.8422
G0 Z25.0000
 X-0.0321
G1 Z3.0000
 X-3.9141
 Y14.1068
 X-0.0321
G0 Z25.0000
 X21.2954
G1 Z3.0000
 X40.8764
G0 Z25.0000
 X62.2039
G1 Z3.0000
 X66.0859
 Y16.0929
 X62.2039
G0 Z25.0000
 X43.6099
G1 Z3.0000
 X18.5620
G0 Z25.0000
 X-0.0321
G1 Z3.0000
 X-3.9141
 Y18.0790
 X-0.0321
G0 Z25.0000
 X16.7369
G1 Z3.0000
 X45.4350
G0 Z25.0000
 X62.2039
G1 Z3.0000
 X66.0859
 Y20.0651
 X62.2039
G0 Z25.0000
 X46.9122
G1 Z3.0000
 X15.2596
G0 Z25.0000
 X-0.0321
G1 Z3.0000
 X-3.9141
 Y22.0512
 X-0.0321
G0 Z25.0000
 X14.1134
G1 Z3.0000
 X48.0585
G0 Z25.0000
 X62.2039
G1 Z3.0000
 X66.0859
 Y24.0373
 X62.2039
G0 Z25.0000
 X48.8222
G1 Z3.0000
 X13.3493
G0 Z25.0000
 X-0.0321
G1 Z3.0000
 X-3.9141
 Y26.0234
 X-0.0321
G0 Z25.0000
 X12.7035
G1 Z3.0000
 X49.4675
G0 Z25.0000
 X62.2039
G1 Z3.0000
 X66.0859
 Y28.0096
 X62.2039
G0 Z25.0000
 X49.7314
G1 Z3.0000
 X12.4399
G0 Z25.0000
 X-0.0321
G1 Z3.0000
 X-3.9141
 Y29.9957
 X-0.0321
G0 Z25.0000
 X12.2313
G1 Z3.0000
 X49.9404
G0 Z25.0000
 X62.2039
G1 Z3.0000
 X66.0859
 Y31.9818
 X62.2039
G0 Z25.0000
 X49.7740
G1 Z3.0000
 X12.3974
G0 Z25.0000
 X-0.0321
G1 Z3.0000
 X-3.9141
 Y33.9679
 X-0.0321
G0 Z25.0000
 X12.6059
G1 Z3.0000
 X49.5651
G0 Z25.0000
 X62.2039
G1 Z3.0000
 X66.0859
 Y35.9540
 X62.2039
G0 Z25.0000
 X48.9538
G1 Z3.0000
 X13.2176
G0 Z25.0000
 X-0.0321
G1 Z3.0000
 X-3.9141
 Y37.9401
 X-0.0321
G0 Z25.0000
 X13.8795
G1 Z3.0000
 X48.2923
G0 Z25.0000
 X62.2039
G1 Z3.0000
 X66.0859
 Y39.9262
 X62.2039
G0 Z25.0000
 X47.1457
G1 Z3.0000
 X15.0261
G0 Z25.0000
 X-0.0321
G1 Z3.0000
 X-3.9141
 Y41.9123
 X-0.0321
G0 Z25.0000
 X16.3730
G1 Z3.0000
 X45.7989
G0 Z25.0000
 X62.2039
G1 Z3.0000
 X66.0859
 Y43.8984
 X62.2039
G0 Z25.0000
 X44.0107
G1 Z3.0000
 X18.1612
G0 Z25.0000
 X-0.0321
G1 Z3.0000
 X-3.9141
 Y45.8845
 X-0.0321
G0 Z25.0000
 X20.7391
G1 Z3.0000
 X41.4328
G0 Z25.0000
 X62.2039
G1 Z3.0000
 X66.0859
 Y47.8706
 X62.2039
G0 Z25.0000
 X37.5459
G1 Z3.0000
 X24.6260
G0 Z25.0000
 X-0.0321
G1 Z3.0000
 X-3.9141
 Y49.8568
 X-0.0321
G0 Z25.0000
 X62.2039
G1 Z3.0000
 X66.0859
 Y51.8429
 X62.2039
G0 Z25.0000
 X55.4941
G1 Z3.0000
 X53.8777
G0 Z25.0000
 X8.2942
G1 Z3.0000
 X6.6777
G0 Z25.0000
 X-0.0321
G1 Z3.0000
 X-3.9141
 Y53.8290
 X-0.0321
G0 Z25.0000
 X6.1044
G1 Z3.0000
 X8.8683
G0 Z25.0000
 X53.3035
G1 Z3.0000
 X56.0675
G0 Z25.0000
 X62.2039
G1 Z3.0000
 X66.0859
 Y55.8151
 X62.2039
G0 Z25.0000
 X55.3439
G1 Z3.0000
 X54.0278
G0 Z25.0000
 X8.1441
G1 Z3.0000
 X6.8280
G0 Z25.0000
 X-0.0321
G1 Z3.0000
 X-3.9141
 Y57.8012
 X-0.0321
G0 Z25.0000
 X62.2039
G1 Z3.0000
 X66.0859
 Y59.7873
 X62.2039
G0 Z25.0000
 X-0.0321
G1 Z3.0000
 X-3.9141
 Y61.7734
 X0.3596
G0 Z25.0000
 X62.2039
G1 Z3.0000
 X66.0859
 Y63.7595
 X62.2039
G0 Z25.0000
 X0.9058
G1 Z3.0000
 X-3.9141
 Y65.7456
 X1.4519
G0 Z25.0000
 X62.2039
G1 Z3.0000
 X66.0859
 Y67.7317
 X62.2039
G0 Z25.0000
 X1.9981
G1 Z3.0000
 X-3.9141
 Y69.7178
 X2.5443
G0 Z25.0000
 X22.9266
G1 Z3.0000
 X25.1086
G0 Z25.0000
 X29.0037
G1 Z3.0000
 X34.1681
G0 Z25.0000
 X37.9950
G1 Z3.0000
 X40.1769
G0 Z25.0000
 X50.1864
G1 Z3.0000
 X55.3498
G0 Z25.0000
 X62.2039
G1 Z3.0000
 X66.0859
 Y71.7040
 X62.2039
G0 Z25.0000
 X55.3498
G1 Z3.0000
 X50.1864
G0 Z25.0000
 X34.1681
G1 Z3.0000
 X29.0037
G0 Z25.0000
 X3.0905
G1 Z3.0000
 X-3.9141
 Y73.6901
 X3.6367
G0 Z25.0000
 X62.2039
G1 Z3.0000
 X66.0859
 Y75.6762
 X62.2039
G0 Z25.0000
 X4.1828
G1 Z3.0000
 X-3.9141
 Y77.6623
 X4.7290
G0 Z25.0000
 X62.2039
G1 Z3.0000
 X66.0859
 Y79.6484
 X62.2039
G0 Z25.0000
 X5.2752
G1 Z3.0000
 X-3.9141
 Y81.6345
 X5.8214
G0 Z25.0000
 X62.2039
G1 Z3.0000
 X66.0859
 Y83.6206
 X62.2039
G0 Z25.0000
 X6.3676
G1 Z3.0000
 X-3.9141
 Y85.6067
 X6.9138
G0 Z25.0000
 X62.2039
G1 Z3.0000
 X66.0859
 Y87.5928
 X62.2039
G0 Z25.0000
 X7.4599
G1 Z3.0000
 X-3.9141
 Y89.5789
 X8.0061
G0 Z25.0000
 X22.9842
G1 Z3.0000
 X25.0510
G0 Z25.0000
 X29.0037
G1 Z3.0000
 X34.1681
G0 Z25.0000
 X38.0525
G1 Z3.0000
 X40.1193
G0 Z25.0000
 X50.1864
G1 Z3.0000
 X55.3498
G0 Z25.0000
 X62.2039
G1 Z3.0000
 X66.0859
 Y91.5650
 X62.2039
G0 Z25.0000
 X55.3498
G1 Z3.0000
 X50.1864
G0 Z25.0000
 X34.1681
G1 Z3.0000
 X29.0037
G0 Z25.0000
 X8.5523
G1 Z3.0000
 X-3.9141
 Y93.5512
 X9.0985
G0 Z25.0000
 X62.2039
G1 Z3.0000
 X66.0859
 Y95.5373
 X62.2039
G0 Z25.0000
 X9.6447
G1 Z3.0000
 X-3.9141
 Y97.5234
 X10.1908
G0 Z25.0000
 X62.2039
G1 Z3.0000
 X66.0859
 Y99.5095
 X62.2039
G0 Z25.0000
 X10.7370
G1 Z3.0000
 X-3.9141
 Y101.4956
 X10.9679
G0 Z25.0000
 X62.2039
G1 Z3.0000
 X66.0859
 Y103.4817
 X62.2039
G0 Z25.0000
 X10.9679
G1 Z3.0000
 X-3.9141
 Y105.4678
 X10.9679
G0 Z25.0000
 X62.2039
G1 Z3.0000
 X66.0859
 Y107.4539
 X62.2039
G0 Z25.0000
 X10.9679
G1 Z3.0000
 X-3.9141
 Y109.4400
 X10.9679
G0 Z25.0000
 X62.2039
G1 Z3.0000
 X66.0859
 Y111.4261
 X62.2039
G0 Z25.0000
 X10.9679
G1 Z3.0000
 X-3.9141
 Y113.4122
 X10.9679
G0 Z25.0000
 X62.2039
G1 Z3.0000
 X66.0859
 Y115.3984
 X62.2039
G0 Z25.0000
 X10.9679
G1 Z3.0000
 X-3.9141
 Y117.3845
 X10.9679
G0 Z25.0000
 X62.2039
G1 Z3.0000
 X66.0859
 Y119.3706
 X62.2039
G0 Z25.0000
 X10.9679
G1 Z3.0000
 X-3.9141
 Y121.3567
 X10.9679
G0 Z25.0000
 X62.2039
G1 Z3.0000
 X66.0859
 Y123.3428
 X62.2039
G0 Z25.0000
 X35.8220
G1 Z3.0000
 X26.3498
G0 Z25.0000
 X10.9679
G1 Z3.0000
 X-3.9141
 Y125.3289
 X10.9679
G0 Z25.0000
 X24.2786
G1 Z3.0000
 X37.8933
G0 Z25.0000
 X62.2039
G1 Z3.0000
 X66.0859
 Y127.3150
 X62.2039
G0 Z25.0000
 X38.9076
G1 Z3.0000
 X23.2642
G0 Z25.0000
 X10.9679
G1 Z3.0000
 X-3.9141
 Y129.3011
 X10.9679
G0 Z25.0000
 X22.8046
G1 Z3.0000
 X39.3672
G0 Z25.0000
 X62.2039
G1 Z3.0000
 X66.0859
 Y131.2872
 X62.2039
G0 Z25.0000
 X39.3470
G1 Z3.0000
 X22.8248
G0 Z25.0000
 X11.0664
G1 Z3.0000
 X-3.9141
 Y133.2733
 X11.2551
G0 Z25.0000
 X23.3266
G1 Z3.0000
 X38.8452
G0 Z25.0000
 X62.2039
G1 Z3.0000
 X66.0859
 Y135.2594
 X62.2039
G0 Z25.0000
 X37.7375
G1 Z3.0000
 X24.4344
G0 Z25.0000
 X11.6947
G1 Z3.0000
 X-3.9141
 Y137.2456
 X12.2745
G0 Z25.0000
 X26.6146
G1 Z3.0000
 X35.5572
G0 Z25.0000
 X62.2039
G1 Z3.0000
 X66.0859
 Y139.2317
 X62.2039
G0 Z25.0000
 X13.2054
G1 Z3.0000
 X-3.9141
 Y141.2178
 X14.2747
G0 Z25.0000
 X61.5442
G1 Z3.0000
 X66.0859
 Y143.2039
 X55.6243
G0 Z25.0000
 X15.8246
G1 Z3.0000
 X-3.9141
 Y145.1900
 X17.7979
G0 Z25.0000
 X49.6868
G1 Z3.0000
 X66.0859
 Y147.1761
 X43.7494
G0 Z25.0000
 X20.4347
G1 Z3.0000
 X-3.9141
 Y149.1622
 X24.6253
G0 Z25.0000
 X37.8120
G1 Z3.0000
 X66.0859
 Y151.1483
 X-3.9141
 Y153.1344
 X66.0859
 Y155.1205
 X-3.9141
 Y157.1066
 X66.0859
 Y159.0928
 X-3.9141
 Y161.0789
 X66.0859
 Y163.0650
 X-3.9141
 Z2.0000
 X66.0859
 Y161.0789
 X-3.9141
 Y159.0928
 X66.0859
 Y157.1066
 X-3.9141
 Y155.1205
 X66.0859
 Y153.1344
 X-3.9141
 Y151.1483
 X66.0859
 Y149.1622
 X39.0161
G0 Z25.0000
 X23.4791
G1 Z2.0000
 X-3.9141
 Y147.1761
 X19.6786
G0 Z25.0000
 X44.9535
G1 Z2.0000
 X66.0859
 Y145.1900
 X50.8909
G0 Z25.0000
 X17.2177
G1 Z2.0000
 X-3.9141
 Y143.2039
 X15.3401
G0 Z25.0000
 X56.8283
G1 Z2.0000
 X66.0859
 Y141.2178
 X62.1859
G0 Z25.0000
 X13.8000
G1 Z2.0000
 X-3.9141
 Y139.2317
 X12.7762
G0 Z25.0000
 X62.5859
G1 Z2.0000
 X66.0859
 Y137.2456
 X62.5859
G0 Z25.0000
 X34.7966
G1 Z2.0000
 X27.3752
G0 Z25.0000
 X11.8766
G1 Z2.0000
 X-3.9141
 Y135.2594
 X11.2968
G0 Z25.0000
 X24.9484
G1 Z2.0000
 X37.2235
G0 Z25.0000
 X62.5859
G1 Z2.0000
 X66.0859
 Y133.2733
 X62.5859
G0 Z25.0000
 X38.4436
G1 Z2.0000
 X23.7282
G0 Z25.0000
 X10.8715
G1 Z2.0000
 X-3.9141
 Y131.2872
 X10.6827
G0 Z25.0000
 X23.2089
G1 Z2.0000
 X38.9629
G0 Z25.0000
 X62.5859
G1 Z2.0000
 X66.0859
 Y129.3011
 X62.5859
G0 Z25.0000
 X38.9831
G1 Z2.0000
 X23.1887
G0 Z25.0000
 X10.5859
G1 Z2.0000
 X-3.9141
 Y127.3150
 X10.5859
G0 Z25.0000
 X23.6658
G1 Z2.0000
 X38.5060
G0 Z25.0000
 X62.5859
G1 Z2.0000
 X66.0859
 Y125.3289
 X62.5859
G0 Z25.0000
 X37.3967
G1 Z2.0000
 X24.7752
G0 Z25.0000
 X10.5859
G1 Z2.0000
 X-3.9141
 Y123.3428
 X10.5859
G0 Z25.0000
 X26.9997
G1 Z2.0000
 X35.1721
G0 Z25.0000
 X62.5859
G1 Z2.0000
 X66.0859
 Y121.3567
 X62.5859
G0 Z25.0000
 X10.5859
G1 Z2.0000
 X-3.9141
 Y119.3706
 X10.5859
G0 Z25.0000
 X62.5859
G1 Z2.0000
 X66.0859
 Y117.3845
 X62.5859
G0 Z25.0000
 X10.5859
G1 Z2.0000
 X-3.9141
 Y115.3984
 X10.5859
G0 Z25.0000
 X62.5859
G1 Z2.0000
 X66.0859
 Y113.4122
 X62.5859
G0 Z25.0000
 X10.5859
G1 Z2.0000
 X-3.9141
 Y111.4261
 X10.5859
G0 Z25.0000
 X62.5859
G1 Z2.0000
 X66.0859
 Y109.4400
 X62.5859
G0 Z25.0000
 X10.5859
G1 Z2.0000
 X-3.9141
 Y107.4539
 X10.5859
G0 Z25.0000
 X62.5859
G1 Z2.0000
 X66.0859
 Y105.4678
 X62.5859
G0 Z25.0000
 X10.5859
G1 Z2.0000
 X-3.9141
 Y103.4817
 X10.5859
G0 Z25.0000
 X62.5859
G1 Z2.0000
 X66.0859
 Y101.4956
 X62.5859
G0 Z25.0000
 X10.5859
G1 Z2.0000
 X-3.9141
 Y99.5095
 X10.3409
G0 Z25.0000
 X62.5859
G1 Z2.0000
 X66.0859
 Y97.5234
 X62.5859
G0 Z25.0000
 X9.7947
G1 Z2.0000
 X-3.9141
 Y95.5373
 X9.2485
G0 Z25.0000
 X62.5859
G1 Z2.0000
 X66.0859
 Y93.5512
 X62.5859
G0 Z25.0000
 X8.7023
G1 Z2.0000
 X-3.9141
 Y91.5650
 X8.1561
G0 Z25.0000
 X29.3857
G1 Z2.0000
 X33.7861
G0 Z25.0000
 X50.5684
G1 Z2.0000
 X54.9678
G0 Z25.0000
 X62.5859
G1 Z2.0000
 X66.0859
 Y89.5789
 X62.5859
G0 Z25.0000
 X54.9678
G1 Z2.0000
 X50.5684
G0 Z25.0000
 X39.7059
G1 Z2.0000
 X38.4660
G0 Z25.0000
 X33.7861
G1 Z2.0000
 X29.3857
G0 Z25.0000
 X24.6376
G1 Z2.0000
 X23.3976
G0 Z25.0000
 X7.6100
G1 Z2.0000
 X-3.9141
 Y87.5928
 X7.0638
G0 Z25.0000
 X62.5859
G1 Z2.0000
 X66.0859
 Y85.6067
 X62.5859
G0 Z25.0000
 X6.5176
G1 Z2.0000
 X-3.9141
 Y83.6206
 X5.9714
G0 Z25.0000
 X62.5859
G1 Z2.0000
 X66.0859
 Y81.6345
 X62.5859
G0 Z25.0000
 X5.4252
G1 Z2.0000
 X-3.9141
 Y79.6484
 X4.8791
G0 Z25.0000
 X62.5859
G1 Z2.0000
 X66.0859
 Y77.6623
 X62.5859
G0 Z25.0000
 X4.3329
G1 Z2.0000
 X-3.9141
 Y75.6762
 X3.7867
G0 Z25.0000
 X62.5859
G1 Z2.0000
 X66.0859
 Y73.6901
 X62.5859
G0 Z25.0000
 X3.2405
G1 Z2.0000
 X-3.9141
 Y71.7040
 X2.6943
G0 Z25.0000
 X29.3857
G1 Z2.0000
 X33.7861
G0 Z25.0000
 X50.5684
G1 Z2.0000
 X54.9678
G0 Z25.0000
 X62.5859
G1 Z2.0000
 X66.0859
 Y69.7178
 X62.5859
G0 Z25.0000
 X54.9678
G1 Z2.0000
 X50.5684
G0 Z25.0000
 X39.7634
G1 Z2.0000
 X38.4084
G0 Z25.0000
 X33.7861
G1 Z2.0000
 X29.3857
G0 Z25.0000
 X24.6951
G1 Z2.0000
 X23.3401
G0 Z25.0000
 X2.1482
G1 Z2.0000
 X-3.9141
 Y67.7317
 X1.6020
G0 Z25.0000
 X62.5859
G1 Z2.0000
 X66.0859
 Y65.7456
 X62.5859
G0 Z25.0000
 X1.0558
G1 Z2.0000
 X-3.9141
 Y63.7595
 X0.5096
G0 Z25.0000
 X62.5859
G1 Z2.0000
 X66.0859
 Y61.7734
 X62.5859
G0 Z25.0000
 X-0.0366
G1 Z2.0000
 X-3.9141
 Y59.7873
 X-0.4141
G0 Z25.0000
 X62.5859
G1 Z2.0000
 X66.0859
 Y57.8012
 X62.5859
G0 Z25.0000
 X-0.4141
G1 Z2.0000
 X-3.9141
 Y55.8151
 X-0.4141
G0 Z25.0000
 X62.5859
G1 Z2.0000
 X66.0859
 Y53.8290
 X62.5859
G0 Z25.0000
 X55.6855
G1 Z2.0000
 X53.6855
G0 Z25.0000
 X8.4863
G1 Z2.0000
 X6.4863
G0 Z25.0000
 X-0.4141
G1 Z2.0000
 X-3.9141
 Y51.8429
 X-0.4141
G0 Z25.0000
 X62.5859
G1 Z2.0000
 X66.0859
 Y49.8568
 X62.5859
G0 Z25.0000
 X-0.4141
G1 Z2.0000
 X-3.9141
 Y47.8706
 X-0.4141
G0 Z25.0000
 X25.7775
G1 Z2.0000
 X36.3944
G0 Z25.0000
 X62.5859
G1 Z2.0000
 X66.0859
 Y45.8845
 X62.5859
G0 Z25.0000
 X40.7830
G1 Z2.0000
 X21.3888
G0 Z25.0000
 X-0.4141
G1 Z2.0000
 X-3.9141
 Y43.8984
 X-0.4141
G0 Z25.0000
 X18.6752
G1 Z2.0000
 X43.4967
G0 Z25.0000
 X62.5859
G1 Z2.0000
 X66.0859
 Y41.9123
 X62.5859
G0 Z25.0000
 X45.2849
G1 Z2.0000
 X16.8870
G0 Z25.0000
 X-0.4141
G1 Z2.0000
 X-3.9141
 Y39.9262
 X-0.4141
G0 Z25.0000
 X15.4672
G1 Z2.0000
 X46.7047
G0 Z25.0000
 X62.5859
G1 Z2.0000
 X66.0859
 Y37.9401
 X62.5859
G0 Z25.0000
 X47.8512
G1 Z2.0000
 X14.3206
G0 Z25.0000
 X-0.4141
G1 Z2.0000
 X-3.9141
 Y35.9540
 X-0.4141
G0 Z25.0000
 X13.6192
G1 Z2.0000
 X48.5522
G0 Z25.0000
 X62.5859
G1 Z2.0000
 X66.0859
 Y33.9679
 X62.5859
G0 Z25.0000
 X49.1810
G1 Z2.0000
 X12.9900
G0 Z25.0000
 X-0.4141
G1 Z2.0000
 X-3.9141
 Y31.9818
 X-0.4141
G0 Z25.0000
 X12.7814
G1 Z2.0000
 X49.3900
G0 Z25.0000
 X62.5859
G1 Z2.0000
 X66.0859
 Y29.9957
 X62.5859
G0 Z25.0000
 X49.5563
G1 Z2.0000
 X12.6154
G0 Z25.0000
 X-0.4141
G1 Z2.0000
 X-3.9141
 Y28.0096
 X-0.4141
G0 Z25.0000
 X12.8239
G1 Z2.0000
 X49.3473
G0 Z25.0000
 X62.5859
G1 Z2.0000
 X66.0859
 Y26.0234
 X62.5859
G0 Z25.0000
 X49.0658
G1 Z2.0000
 X13.1052
G0 Z25.0000
 X-0.4141
G1 Z2.0000
 X-3.9141
 Y24.0373
 X-0.4141
G0 Z25.0000
 X13.7509
G1 Z2.0000
 X48.4205
G0 Z25.0000
 X62.5859
G1 Z2.0000
 X66.0859
 Y22.0512
 X62.5859
G0 Z25.0000
 X47.6174
G1 Z2.0000
 X14.5544
G0 Z25.0000
 X-0.4141
G1 Z2.0000
 X-3.9141
 Y20.0651
 X-0.4141
G0 Z25.0000
 X15.7007
G1 Z2.0000
 X46.4712
G0 Z25.0000
 X62.5859
G1 Z2.0000
 X66.0859
 Y18.0790
 X62.5859
G0 Z25.0000
 X44.9210
G1 Z2.0000
 X17.2509
G0 Z25.0000
 X-0.4141
G1 Z2.0000
 X-3.9141
 Y16.0929
 X-0.4141
G0 Z25.0000
 X19.2118
G1 Z2.0000
 X42.9601
G0 Z25.0000
 X62.5859
G1 Z2.0000
 X66.0859
 Y14.1068
 X62.5859
G0 Z25.0000
 X40.1601
G1 Z2.0000
 X22.0117
G0 Z25.0000
 X-0.4141
G1 Z2.0000
 X-3.9141
 Y12.1207
 X-0.4141
G0 Z25.0000
 X27.6796
G1 Z2.0000
 X34.4923
G0 Z25.0000
 X62.5859
G1 Z2.0000
 X66.0859
 Y10.1346
 X62.5859
G0 Z25.0000
 X-0.4141
G1 Z2.0000
 X-3.9141
 Y8.1485
 X-0.4141
G0 Z25.0000
 X6.8376
G1 Z2.0000
 X8.1344
G0 Z25.0000
 X54.0375
G1 Z2.0000
 X55.3342
G0 Z25.0000
 X62.5859
G1 Z2.0000
 X66.0859
 Y6.1624
 X62.5859
G0 Z25.0000
 X55.6855
G1 Z2.0000
 X53.6855
G0 Z25.0000
 X8.4863
G1 Z2.0000
 X6.4863
G0 Z25.0000
 X-0.4141
G1 Z2.0000
 X-3.9141
 Y4.1762
 X-0.4141
G0 Z25.0000
 X62.5859
G1 Z2.0000
 X66.0859
 Y2.1901
 X62.5859
G0 Z25.0000
 X-0.4141
G1 Z2.0000
 X-3.9141
 Y0.2040
 X-0.4141
G0 Z25.0000
 X62.5859
G1 Z2.0000
 X66.0859
 Y-1.7821
 X-3.9141
 Y-3.7682
 X66.0859
 Y-5.7543
 X-3.9141
 Y-7.7404
 X66.0859
 Y-9.7265
 X-3.9141
 Y-11.7126
 X66.0859
 Y-13.6987
 X-3.9141
 Z1.0000
 X66.0859
 Y-11.7126
 X-3.9141
 Y-9.7265
 X66.0859
 Y-7.7404
 X-3.9141
 Y-5.7543
 X66.0859
 Y-3.7682
 X-3.9141
 Y-1.7821
 X66.0859
 Y0.2040
 X62.5859
G0 Z25.0000
 X-0.4141
G1 Z1.0000
 X-3.9141
 Y2.1901
 X-0.4141
G0 Z25.0000
 X62.5859
G1 Z1.0000
 X66.0859
 Y4.1762
 X62.5859
G0 Z25.0000
 X-0.4141
G1 Z1.0000
 X-3.9141
 Y6.1624
 X-0.4141
G0 Z25.0000
 X6.4863
G1 Z1.0000
 X8.4863
G0 Z25.0000
 X53.6855
G1 Z1.0000
 X55.6855
G0 Z25.0000
 X62.5859
G1 Z1.0000
 X66.0859
 Y8.1485
 X62.5859
G0 Z25.0000
 X55.3342
G1 Z1.0000
 X54.0375
G0 Z25.0000
 X8.1344
G1 Z1.0000
 X6.8376
G0 Z25.0000
 X-0.4141
G1 Z1.0000
 X-3.9141
 Y10.1346
 X-0.4141
G0 Z25.0000
 X62.5859
G1 Z1.0000
 X66.0859
 Y12.1207
 X62.5859
G0 Z25.0000
 X34.4922
G1 Z1.0000
 X27.6796
G0 Z25.0000
 X-0.4141
G1 Z1.0000
 X-3.9141
 Y14.1068
 X-0.4141
G0 Z25.0000
 X22.0117
G1 Z1.0000
 X40.1601
G0 Z25.0000
 X62.5859
G1 Z1.0000
 X66.0859
 Y16.0929
 X62.5859
G0 Z25.0000
 X42.9600
G1 Z1.0000
 X19.2118
G0 Z25.0000
 X-0.4141
G1 Z1.0000
 X-3.9141
 Y18.0790
 X-0.4141
G0 Z25.0000
 X17.2509
G1 Z1.0000
 X44.9210
G0 Z25.0000
 X62.5859
G1 Z1.0000
 X66.0859
 Y20.0651
 X62.5859
G0 Z25.0000
 X46.4712
G1 Z1.0000
 X15.7007
G0 Z25.0000
 X-0.4141
G1 Z1.0000
 X-3.9141
 Y22.0512
 X-0.4141
G0 Z25.0000
 X14.5544
G1 Z1.0000
 X47.6174
G0 Z25.0000
 X62.5859
G1 Z1.0000
 X66.0859
 Y24.0373
 X62.5859
G0 Z25.0000
 X48.4205
G1 Z1.0000
 X13.7509
G0 Z25.0000
 X-0.4141
G1 Z1.0000
 X-3.9141
 Y26.0234
 X-0.4141
G0 Z25.0000
 X13.1052
G1 Z1.0000
 X49.0658
G0 Z25.0000
 X62.5859
G1 Z1.0000
 X66.0859
 Y28.0096
 X62.5859
G0 Z25.0000
 X49.3473
G1 Z1.0000
 X12.8240
G0 Z25.0000
 X-0.4141
G1 Z1.0000
 X-3.9141
 Y29.9957
 X-0.4141
G0 Z25.0000
 X12.6154
G1 Z1.0000
 X49.5563
G0 Z25.0000
 X62.5859
G1 Z1.0000
 X66.0859
 Y31.9818
 X62.5859
G0 Z25.0000
 X49.3900
G1 Z1.0000
 X12.7814
G0 Z25.0000
 X-0.4141
G1 Z1.0000
 X-3.9141
 Y33.9679
 X-0.4141
G0 Z25.0000
 X12.9900
G1 Z1.0000
 X49.1810
G0 Z25.0000
 X62.5859
G1 Z1.0000
 X66.0859
 Y35.9540
 X62.5859
G0 Z25.0000
 X48.5522
G1 Z1.0000
 X13.6192
G0 Z25.0000
 X-0.4141
G1 Z1.0000
 X-3.9141
 Y37.9401
 X-0.4141
G0 Z25.0000
 X14.3206
G1 Z1.0000
 X47.8512
G0 Z25.0000
 X62.5859
G1 Z1.0000
 X66.0859
 Y39.9262
 X62.5859
G0 Z25.0000
 X46.7047
G1 Z1.0000
 X15.4672
G0 Z25.0000
 X-0.4141
G1 Z1.0000
 X-3.9141
 Y41.9123
 X-0.4141
G0 Z25.0000
 X16.8870
G1 Z1.0000
 X45.2849
G0 Z25.0000
 X62.5859
G1 Z1.0000
 X66.0859
 Y43.8984
 X62.5859
G0 Z25.0000
 X43.4967
G1 Z1.0000
 X18.6752
G0 Z25.0000
 X-0.4141
G1 Z1.0000
 X-3.9141
 Y45.8845
 X-0.4141
G0 Z25.0000
 X21.3889
G1 Z1.0000
 X40.7830
G0 Z25.0000
 X62.5859
G1 Z1.0000
 X66.0859
 Y47.8706
 X62.5859
G0 Z25.0000
 X36.3944
G1 Z1.0000
 X25.7775
G0 Z25.0000
 X-0.4141
G1 Z1.0000
 X-3.9141
 Y49.8568
 X-0.4141
G0 Z25.0000
 X62.5859
G1 Z1.0000
 X66.0859
 Y51.8429
 X62.5859
G0 Z25.0000
 X-0.4141
G1 Z1.0000
 X-3.9141
 Y53.8290
 X-0.4141
G0 Z25.0000
 X6.4863
G1 Z1.0000
 X8.4863
G0 Z25.0000
 X53.6855
G1 Z1.0000
 X55.6855
G0 Z25.0000
 X62.5859
G1 Z1.0000
 X66.0859
 Y55.8151
 X62.5859
G0 Z25.0000
 X-0.4141
G1 Z1.0000
 X-3.9141
 Y57.8012
 X-0.4141
G0 Z25.0000
 X62.5859
G1 Z1.0000
 X66.0859
 Y59.7873
 X62.5859
G0 Z25.0000
 X-0.4141
G1 Z1.0000
 X-3.9141
 Y61.7734
 X-0.0366
G0 Z25.0000
 X62.5859
G1 Z1.0000
 X66.0859
 Y63.7595
 X62.5859
G0 Z25.0000
 X0.5096
G1 Z1.0000
 X-3.9141
 Y65.7456
 X1.0558
G0 Z25.0000
 X62.5859
G1 Z1.0000
 X66.0859
 Y67.7317
 X62.5859
G0 Z25.0000
 X1.6020
G1 Z1.0000
 X-3.9141
 Y69.7178
 X2.1482
G0 Z25.0000
 X23.3401
G1 Z1.0000
 X24.6951
G0 Z25.0000
 X29.3857
G1 Z1.0000
 X33.7861
G0 Z25.0000
 X38.4084
G1 Z1.0000
 X39.7634
G0 Z25.0000
 X50.5684
G1 Z1.0000
 X54.9678
G0 Z25.0000
 X62.5859
G1 Z1.0000
 X66.0859
 Y71.7040
 X62.5859
G0 Z25.0000
 X54.9678
G1 Z1.0000
 X50.5684
G0 Z25.0000
 X33.7861
G1 Z1.0000
 X29.3857
G0 Z25.0000
 X2.6943
G1 Z1.0000
 X-3.9141
 Y73.6901
 X3.2405
G0 Z25.0000
 X62.5859
G1 Z1.0000
 X66.0859
 Y75.6762
 X62.5859
G0 Z25.0000
 X3.7867
G1 Z1.0000
 X-3.9141
 Y77.6623
 X4.3329
G0 Z25.0000
 X62.5859
G1 Z1.0000
 X66.0859
 Y79.6484
 X62.5859
G0 Z25.0000
 X4.8791
G1 Z1.0000
 X-3.9141
 Y81.6345
 X5.4252
G0 Z25.0000
 X62.5859
G1 Z1.0000
 X66.0859
 Y83.6206
 X62.5859
G0 Z25.0000
 X5.9714
G1 Z1.0000
 X-3.9141
 Y85.6067
 X6.5176
G0 Z25.0000
 X62.5859
G1 Z1.0000
 X66.0859
 Y87.5928
 X62.5859
G0 Z25.0000
 X7.0638
G1 Z1.0000
 X-3.9141
 Y89.5789
 X7.6100
G0 Z25.0000
 X23.3976
G1 Z1.0000
 X24.6376
G0 Z25.0000
 X29.3857
G1 Z1.0000
 X33.7861
G0 Z25.0000
 X38.4660
G1 Z1.0000
 X39.7059
G0 Z25.0000
 X50.5684
G1 Z1.0000
 X54.9678
G0 Z25.0000
 X62.5859
G1 Z1.0000
 X66.0859
 Y91.5650
 X62.5859
G0 Z25.0000
 X54.9678
G1 Z1.0000
 X50.5684
G0 Z25.0000
 X33.7861
G1 Z1.0000
 X29.3857
G0 Z25.0000
 X8.1561
G1 Z1.0000
 X-3.9141
 Y93.5512
 X8.7023
G0 Z25.0000
 X62.5859
G1 Z1.0000
 X66.0859
 Y95.5373
 X62.5859
G0 Z25.0000
 X9.2485
G1 Z1.0000
 X-3.9141
 Y97.5234
 X9.7947
G0 Z25.0000
 X62.5859
G1 Z1.0000
 X66.0859
 Y99.5095
 X62.5859
G0 Z25.0000
 X10.3409
G1 Z1.0000
 X-3.9141
 Y101.4956
 X10.5859
G0 Z25.0000
 X62.5859
G1 Z1.0000
 X66.0859
 Y103.4817
 X62.5859
G0 Z25.0000
 X10.5859
G1 Z1.0000
 X-3.9141
 Y105.4678
 X10.5859
G0 Z25.0000
 X62.5859
G1 Z1.0000
 X66.0859
 Y107.4539
 X62.5859
G0 Z25.0000
 X10.5859
G1 Z1.0000
 X-3.9141
 Y109.4400
 X10.5859
G0 Z25.0000
 X62.5859
G1 Z1.0000
 X66.0859
 Y111.4261
 X62.5859
G0 Z25.0000
 X10.5859
G1 Z1.0000
 X-3.9141
 Y113.4122
 X10.5859
G0 Z25.0000
 X62.5859
G1 Z1.0000
 X66.0859
 Y115.3984
 X62.5859
G0 Z25.0000
 X10.5859
G1 Z1.0000
 X-3.9141
 Y117.3845
 X10.5859
G0 Z25.0000
 X62.5859
G1 Z1.0000
 X66.0859
 Y119.3706
 X62.5859
G0 Z25.0000
 X10.5859
G1 Z1.0000
 X-3.9141
 Y121.3567
 X10.5859
G0 Z25.0000
 X62.5859
G1 Z1.0000
 X66.0859
 Y123.3428
 X62.5859
G0 Z25.0000
 X35.1721
G1 Z1.0000
 X26.9997
G0 Z25.0000
 X10.5859
G1 Z1.0000
 X-3.9141
 Y125.3289
 X10.5859
G0 Z25.0000
 X24.7754
G1 Z1.0000
 X37.3967
G0 Z25.0000
 X62.5859
G1 Z1.0000
 X66.0859
 Y127.3150
 X62.5859
G0 Z25.0000
 X38.5060
G1 Z1.0000
 X23.6658
G0 Z25.0000
 X10.5859
G1 Z1.0000
 X-3.9141
 Y129.3011
 X10.5859
G0 Z25.0000
 X23.1887
G1 Z1.0000
 X38.9831
G0 Z25.0000
 X62.5859
G1 Z1.0000
 X66.0859
 Y131.2872
 X62.5859
G0 Z25.0000
 X38.9629
G1 Z1.0000
 X23.2089
G0 Z25.0000
 X10.6827
G1 Z1.0000
 X-3.9141
 Y133.2733
 X10.8714
G0 Z25.0000
 X23.7283
G1 Z1.0000
 X38.4436
G0 Z25.0000
 X62.5859
G1 Z1.0000
 X66.0859
 Y135.2594
 X62.5859
G0 Z25.0000
 X37.2235
G1 Z1.0000
 X24.9484
G0 Z25.0000
 X11.2968
G1 Z1.0000
 X-3.9141
 Y137.2456
 X11.8766
G0 Z25.0000
 X27.3753
G1 Z1.0000
 X34.7961
G0 Z25.0000
 X62.5859
G1 Z1.0000
 X66.0859
 Y139.2317
 X62.5859
G0 Z25.0000
 X12.7762
G1 Z1.0000
 X-3.9141
 Y141.2178
 X13.8000
G0 Z25.0000
 X62.1859
G1 Z1.0000
 X66.0859
 Y143.2039
 X56.8290
G0 Z25.0000
 X15.3401
G1 Z1.0000
 X-3.9141
 Y145.1900
 X17.2177
G0 Z25.0000
 X50.8912
G1 Z1.0000
 X66.0859
 Y147.1761
 X44.9535
G0 Z25.0000
 X19.6784
G1 Z1.0000
 X-3.9141
 Y149.1622
 X23.4791
G0 Z25.0000
 X39.0161
G1 Z1.0000
 X66.0859
 Y151.1483
 X-3.9141
 Y153.1344
 X66.0859
 Y155.1205
 X-3.9141
 Y157.1066
 X66.0859
 Y159.0928
 X-3.9141
 Y161.0789
 X66.0859
 Y163.0650
 X-3.9141
 Z0.0000
 X66.0859
 Y161.0789
 X-3.9141
 Y159.0928
 X66.0859
 Y157.1066
 X-3.9141
 Y155.1205
 X66.0859
 Y153.1344
 X-3.9141
 Y151.1483
 X66.0859
 Y149.1622
 X39.0161
G0 Z25.0000
 X23.4791
G1 Z0.0000
 X-3.9141
 Y147.1761
 X19.6784
G0 Z25.0000
 X44.9535
G1 Z0.0000
 X66.0859
 Y145.1900
 X50.8912
G0 Z25.0000
 X17.2177
G1 Z0.0000
 X-3.9141
 Y143.2039
 X15.3401
G0 Z25.0000
 X56.8285
G1 Z0.0000
 X66.0859
 Y141.2178
 X62.1859
G0 Z25.0000
 X13.8000
G1 Z0.0000
 X-3.9141
 Y139.2317
 X12.7762
G0 Z25.0000
 X62.5859
G1 Z0.0000
 X66.0859
 Y137.2456
 X62.5859
G0 Z25.0000
 X34.7965
G1 Z0.0000
 X27.3753
G0 Z25.0000
 X11.8766
G1 Z0.0000
 X-3.9141
 Y135.2594
 X11.2968
G0 Z25.0000
 X24.9484
G1 Z0.0000
 X37.2235
G0 Z25.0000
 X62.5859
G1 Z0.0000
 X66.0859
 Y133.2733
 X62.5859
G0 Z25.0000
 X38.4436
G1 Z0.0000
 X23.7282
G0 Z25.0000
 X10.8714
G1 Z0.0000
 X-3.9141
 Y131.2872
 X10.6827
G0 Z25.0000
 X23.2089
G1 Z0.0000
 X38.9629
G0 Z25.0000
 X62.5859
G1 Z0.0000
 X66.0859
 Y129.3011
 X62.5859
G0 Z25.0000
 X38.9831
G1 Z0.0000
 X23.1887
G0 Z25.0000
 X10.5859
G1 Z0.0000
 X-3.9141
 Y127.3150
 X10.5859
G0 Z25.0000
 X23.6658
G1 Z0.0000
 X38.5060
G0 Z25.0000
 X62.5859
G1 Z0.0000
 X66.0859
 Y125.3289
 X62.5859
G0 Z25.0000
 X37.3967
G1 Z0.0000
 X24.7752
G0 Z25.0000
 X10.5859
G1 Z0.0000
 X-3.9141
 Y123.3428
 X10.5859
G0 Z25.0000
 X26.9997
G1 Z0.0000
 X35.1721
G0 Z25.0000
 X62.5859
G1 Z0.0000
 X66.0859
 Y121.3567
 X62.5859
G0 Z25.0000
 X10.5859
G1 Z0.0000
 X-3.9141
 Y119.3706
 X10.5859
G0 Z25.0000
 X62.5859
G1 Z0.0000
 X66.0859
 Y117.3845
 X62.5859
G0 Z25.0000
 X10.5859
G1 Z0.0000
 X-3.9141
 Y115.3984
 X10.5859
G0 Z25.0000
 X62.5859
G1 Z0.0000
 X66.0859
 Y113.4122
 X62.5859
G0 Z25.0000
 X10.5859
G1 Z0.0000
 X-3.9141
 Y111.4261
 X10.5859
G0 Z25.0000
 X62.5859
G1 Z0.0000
 X66.0859
 Y109.4400
 X62.5859
G0 Z25.0000
 X10.5859
G1 Z0.0000
 X-3.9141
 Y107.4539
 X10.5859
G0 Z25.0000
 X62.5859
G1 Z0.0000
 X66.0859
 Y105.4678
 X62.5859
G0 Z25.0000
 X10.5859
G1 Z0.0000
 X-3.9141
 Y103.4817
 X10.5859
G0 Z25.0000
 X62.5859
G1 Z0.0000
 X66.0859
 Y101.4956
 X62.5859
G0 Z25.0000
 X10.5859
G1 Z0.0000
 X-3.9141
 Y99.5095
 X10.3409
G0 Z25.0000
 X62.5859
G1 Z0.0000
 X66.0859
 Y97.5234
 X62.5859
G0 Z25.0000
 X9.7947
G1 Z0.0000
 X-3.9141
 Y95.5373
 X9.2485
G0 Z25.0000
 X62.5859
G1 Z0.0000
 X66.0859
 Y93.5512
 X62.5859
G0 Z25.0000
 X8.7023
G1 Z0.0000
 X-3.9141
 Y91.5650
 X8.1561
G0 Z25.0000
 X29.3857
G1 Z0.0000
 X33.7861
G0 Z25.0000
 X50.5684
G1 Z0.0000
 X54.9678
G0 Z25.0000
 X62.5859
G1 Z0.0000
 X66.0859
 Y89.5789
 X62.5859
G0 Z25.0000
 X54.9678
G1 Z0.0000
 X50.5684
G0 Z25.0000
 X39.7059
G1 Z0.0000
 X38.4660
G0 Z25.0000
 X33.7861
G1 Z0.0000
 X29.3857
G0 Z25.0000
 X24.6376
G1 Z0.0000
 X23.3976
G0 Z25.0000
 X7.6100
G1 Z0.0000
 X-3.9141
 Y87.5928
 X7.0638
G0 Z25.0000
 X62.5859
G1 Z0.0000
 X66.0859
 Y85.6067
 X62.5859
G0 Z25.0000
 X6.5176
G1 Z0.0000
 X-3.9141
 Y83.6206
 X5.9714
G0 Z25.0000
 X62.5859
G1 Z0.0000
 X66.0859
 Y81.6345
 X62.5859
G0 Z25.0000
 X5.4252
G1 Z0.0000
 X-3.9141
 Y79.6484
 X4.8791
G0 Z25.0000
 X62.5859
G1 Z0.0000
 X66.0859
 Y77.6623
 X62.5859
G0 Z25.0000
 X4.3329
G1 Z0.0000
 X-3.9141
 Y75.6762
 X3.7867
G0 Z25.0000
 X62.5859
G1 Z0.0000
 X66.0859
 Y73.6901
 X62.5859
G0 Z25.0000
 X3.2405
G1 Z0.0000
 X-3.9141
 Y71.7040
 X2.6943
G0 Z25.0000
 X29.3857
G1 Z0.0000
 X33.7861
G0 Z25.0000
 X50.5684
G1 Z0.0000
 X54.9678
G0 Z25.0000
 X62.5859
G1 Z0.0000
 X66.0859
 Y69.7178
 X62.5859
G0 Z25.0000
 X54.9678
G1 Z0.0000
 X50.5684
G0 Z25.0000
 X39.7634
G1 Z0.0000
 X38.4084
G0 Z25.0000
 X33.7861
G1 Z0.0000
 X29.3857
G0 Z25.0000
 X24.6951
G1 Z0.0000
 X23.3401
G0 Z25.0000
 X2.1482
G1 Z0.0000
 X-3.9141
 Y67.7317
 X1.6020
G0 Z25.0000
 X62.5859
G1 Z0.0000
 X66.0859
 Y65.7456
 X62.5859
G0 Z25.0000
 X1.0558
G1 Z0.0000
 X-3.9141
 Y63.7595
 X0.5096
G0 Z25.0000
 X62.5859
G1 Z0.0000
 X66.0859
 Y61.7734
 X62.5859
G0 Z25.0000
 X-0.0366
G1 Z0.0000
 X-3.9141
 Y59.7873
 X-0.4141
G0 Z25.0000
 X62.5859
G1 Z0.0000
 X66.0859
 Y57.8012
 X62.5859
G0 Z25.0000
 X-0.4141
G1 Z0.0000
 X-3.9141
 Y55.8151
 X-0.4141
G0 Z25.0000
 X62.5859
G1 Z0.0000
 X66.0859
 Y53.8290
 X62.5859
G0 Z25.0000
 X55.6855
G1 Z0.0000
 X53.6855
G0 Z25.0000
 X8.4863
G1 Z0.0000
 X6.4863
G0 Z25.0000
 X-0.4141
G1 Z0.0000
 X-3.9141
 Y51.8429
 X-0.4141
G0 Z25.0000
 X62.5859
G1 Z0.0000
 X66.0859
 Y49.8568
 X62.5859
G0 Z25.0000
 X-0.4141
G1 Z0.0000
 X-3.9141
 Y47.8706
 X-0.4141
G0 Z25.0000
 X25.7775
G1 Z0.0000
 X36.3944
G0 Z25.0000
 X62.5859
G1 Z0.0000
 X66.0859
 Y45.8845
 X62.5859
G0 Z25.0000
 X40.7830
G1 Z0.0000
 X21.3889
G0 Z25.0000
 X-0.4141
G1 Z0.0000
 X-3.9141
 Y43.8984
 X-0.4141
G0 Z25.0000
 X18.6752
G1 Z0.0000
 X43.4967
G0 Z25.0000
 X62.5859
G1 Z0.0000
 X66.0859
 Y41.9123
 X62.5859
G0 Z25.0000
 X45.2849
G1 Z0.0000
 X16.8870
G0 Z25.0000
 X-0.4141
G1 Z0.0000
 X-3.9141
 Y39.9262
 X-0.4141
G0 Z25.0000
 X15.4672
G1 Z0.0000
 X46.7047
G0 Z25.0000
 X62.5859
G1 Z0.0000
 X66.0859
 Y37.9401
 X62.5859
G0 Z25.0000
 X47.8512
G1 Z0.0000
 X14.3206
G0 Z25.0000
 X-0.4141
G1 Z0.0000
 X-3.9141
 Y35.9540
 X-0.4141
G0 Z25.0000
 X13.6192
G1 Z0.0000
 X48.5522
G0 Z25.0000
 X62.5859
G1 Z0.0000
 X66.0859
 Y33.9679
 X62.5859
G0 Z25.0000
 X49.1810
G1 Z0.0000
 X12.9900
G0 Z25.0000
 X-0.4141
G1 Z0.0000
 X-3.9141
 Y31.9818
 X-0.4141
G0 Z25.0000
 X12.7814
G1 Z0.0000
 X49.3900
G0 Z25.0000
 X62.5859
G1 Z0.0000
 X66.0859
 Y29.9957
 X62.5859
G0 Z25.0000
 X49.5563
G1 Z0.0000
 X12.6154
G0 Z25.0000
 X-0.4141
G1 Z0.0000
 X-3.9141
 Y28.0096
 X-0.4141
G0 Z25.0000
 X12.8240
G1 Z0.0000
 X49.3473
G0 Z25.0000
 X62.5859
G1 Z0.0000
 X66.0859
 Y26.0234
 X62.5859
G0 Z25.0000
 X49.0658
G1 Z0.0000
 X13.1052
G0 Z25.0000
 X-0.4141
G1 Z0.0000
 X-3.9141
 Y24.0373
 X-0.4141
G0 Z25.0000
 X13.7509
G1 Z0.0000
 X48.4205
G0 Z25.0000
 X62.5859
G1 Z0.0000
 X66.0859
 Y22.0512
 X62.5859
G0 Z25.0000
 X47.6174
G1 Z0.0000
 X14.5544
G0 Z25.0000
 X-0.4141
G1 Z0.0000
 X-3.9141
 Y20.0651
 X-0.4141
G0 Z25.0000
 X15.7007
G1 Z0.0000
 X46.4712
G0 Z25.0000
 X62.5859
G1 Z0.0000
 X66.0859
 Y18.0790
 X62.5859
G0 Z25.0000
 X44.9210
G1 Z0.0000
 X17.2509
G0 Z25.0000
 X-0.4141
G1 Z0.0000
 X-3.9141
 Y16.0929
 X-0.4141
G0 Z25.0000
 X19.2118
G1 Z0.0000
 X42.9600
G0 Z25.0000
 X62.5859
G1 Z0.0000
 X66.0859
 Y14.1068
 X62.5859
G0 Z25.0000
 X40.1601
G1 Z0.0000
 X22.0117
G0 Z25.0000
 X-0.4141
G1 Z0.0000
 X-3.9141
 Y12.1207
 X-0.4141
G0 Z25.0000
 X27.6796
G1 Z0.0000
 X34.4922
G0 Z25.0000
 X62.5859
G1 Z0.0000
 X66.0859
 Y10.1346
 X62.5859
G0 Z25.0000
 X-0.4141
G1 Z0.0000
 X-3.9141
 Y8.1485
 X-0.4141
G0 Z25.0000
 X6.8376
G1 Z0.0000
 X8.1344
G0 Z25.0000
 X54.0375
G1 Z0.0000
 X55.3342
G0 Z25.0000
 X62.5859
G1 Z0.0000
 X66.0859
 Y6.1624
 X62.5859
G0 Z25.0000
 X55.6855
G1 Z0.0000
 X53.6855
G0 Z25.0000
 X8.4863
G1 Z0.0000
 X6.4863
G0 Z25.0000
 X-0.4141
G1 Z0.0000
 X-3.9141
 Y4.1762
 X-0.4141
G0 Z25.0000
 X62.5859
G1 Z0.0000
 X66.0859
 Y2.1901
 X62.5859
G0 Z25.0000
 X-0.4141
G1 Z0.0000
 X-3.9141
 Y0.2040
 X-0.4141
G0 Z25.0000
 X62.5859
G1 Z0.0000
 X66.0859
 Y-1.7821
 X-3.9141
 Y-3.7682
 X66.0859
 Y-5.7543
 X-3.9141
 Y-7.7404
 X66.0859
 Y-9.7265
 X-3.9141
 Y-11.7126
 X66.0859
 Y-13.6987
 X-3.9141
 Z-1.0000
 X66.0859
 Y-11.7126
 X-3.9141
 Y-9.7265
 X66.0859
 Y-7.7404
 X-3.9141
 Y-5.7543
 X66.0859
 Y-3.7682
 X-3.9141
 Y-1.7821
 X66.0859
 Y0.2040
 X62.5859
G0 Z25.0000
 X-0.4141
G1 Z-1.0000
 X-3.9141
 Y2.1901
 X-0.4141
G0 Z25.0000
 X62.5859
G1 Z-1.0000
 X66.0859
 Y4.1762
 X62.5859
G0 Z25.0000
 X-0.4141
G1 Z-1.0000
 X-3.9141
 Y6.1624
 X-0.4141
G0 Z25.0000
 X6.4863
G1 Z-1.0000
 X8.4863
G0 Z25.0000
 X53.6855
G1 Z-1.0000
 X55.6855
G0 Z25.0000
 X62.5859
G1 Z-1.0000
 X66.0859
 Y8.1485
 X62.5859
G0 Z25.0000
 X55.3342
G1 Z-1.0000
 X54.0375
G0 Z25.0000
 X8.1344
G1 Z-1.0000
 X6.8376
G0 Z25.0000
 X-0.4141
G1 Z-1.0000
 X-3.9141
 Y10.1346
 X-0.4141
G0 Z25.0000
 X62.5859
G1 Z-1.0000
 X66.0859
 Y12.1207
 X62.5859
G0 Z25.0000
 X34.4923
G1 Z-1.0000
 X27.6796
G0 Z25.0000
 X-0.4141
G1 Z-1.0000
 X-3.9141
 Y14.1068
 X-0.4141
G0 Z25.0000
 X22.0117
G1 Z-1.0000
 X40.1601
G0 Z25.0000
 X62.5859
G1 Z-1.0000
 X66.0859
 Y16.0929
 X62.5859
G0 Z25.0000
 X42.9600
G1 Z-1.0000
 X19.2118
G0 Z25.0000
 X-0.4141
G1 Z-1.0000
 X-3.9141
 Y18.0790
 X-0.4141
G0 Z25.0000
 X17.2509
G1 Z-1.0000
 X44.9210
G0 Z25.0000
 X62.5859
G1 Z-1.0000
 X66.0859
 Y20.0651
 X62.5859
G0 Z25.0000
 X46.4712
G1 Z-1.0000
 X15.7007
G0 Z25.0000
 X-0.4141
G1 Z-1.0000
 X-3.9141
 Y22.0512
 X-0.4141
G0 Z25.0000
 X14.5544
G1 Z-1.0000
 X47.6174
G0 Z25.0000
 X62.5859
G1 Z-1.0000
 X66.0859
 Y24.0373
 X62.5859
G0 Z25.0000
 X48.4205
G1 Z-1.0000
 X13.7509
G0 Z25.0000
 X-0.4141
G1 Z-1.0000
 X-3.9141
 Y26.0234
 X-0.4141
G0 Z25.0000
 X13.1052
G1 Z-1.0000
 X49.0658
G0 Z25.0000
 X62.5859
G1 Z-1.0000
 X66.0859
 Y28.0096
 X62.5859
G0 Z25.0000
 X49.3473
G1 Z-1.0000
 X12.8240
G0 Z25.0000
 X-0.4141
G1 Z-1.0000
 X-3.9141
 Y29.9957
 X-0.4141
G0 Z25.0000
 X12.6154
G1 Z-1.0000
 X49.5563
G0 Z25.0000
 X62.5859
G1 Z-1.0000
 X66.0859
 Y31.9818
 X62.5859
G0 Z25.0000
 X49.3900
G1 Z-1.0000
 X12.7814
G0 Z25.0000
 X-0.4141
G1 Z-1.0000
 X-3.9141
 Y33.9679
 X-0.4141
G0 Z25.0000
 X12.9900
G1 Z-1.0000
 X49.1810
G0 Z25.0000
 X62.5859
G1 Z-1.0000
 X66.0859
 Y35.9540
 X62.5859
G0 Z25.0000
 X48.5522
G1 Z-1.0000
 X13.6192
G0 Z25.0000
 X-0.4141
G1 Z-1.0000
 X-3.9141
 Y37.9401
 X-0.4141
G0 Z25.0000
 X14.3206
G1 Z-1.0000
 X47.8512
G0 Z25.0000
 X62.5859
G1 Z-1.0000
 X66.0859
 Y39.9262
 X62.5859
G0 Z25.0000
 X46.7047
G1 Z-1.0000
 X15.4672
G0 Z25.0000
 X-0.4141
G1 Z-1.0000
 X-3.9141
 Y41.9123
 X-0.4141
G0 Z25.0000
 X16.8870
G1 Z-1.0000
 X45.2849
G0 Z25.0000
 X62.5859
G1 Z-1.0000
 X66.0859
 Y43.8984
 X62.5859
G0 Z25.0000
 X43.4967
G1 Z-1.0000
 X18.6752
G0 Z25.0000
 X-0.4141
G1 Z-1.0000
 X-3.9141
 Y45.8845
 X-0.4141
G0 Z25.0000
 X21.3889
G1 Z-1.0000
 X40.7830
G0 Z25.0000
 X62.5859
G1 Z-1.0000
 X66.0859
 Y47.8706
 X62.5859
G0 Z25.0000
 X36.3944
G1 Z-1.0000
 X25.7775
G0 Z25.0000
 X-0.4141
G1 Z-1.0000
 X-3.9141
 Y49.8568
 X-0.4141
G0 Z25.0000
 X62.5859
G1 Z-1.0000
 X66.0859
 Y51.8429
 X62.5859
G0 Z25.0000
 X-0.4141
G1 Z-1.0000
 X-3.9141
 Y53.8290
 X-0.4141
G0 Z25.0000
 X6.4863
G1 Z-1.0000
 X8.4863
G0 Z25.0000
 X53.6855
G1 Z-1.0000
 X55.6855
G0 Z25.0000
 X62.5859
G1 Z-1.0000
 X66.0859
 Y55.8151
 X62.5859
G0 Z25.0000
 X-0.4141
G1 Z-1.0000
 X-3.9141
 Y57.8012
 X-0.4141
G0 Z25.0000
 X62.5859
G1 Z-1.0000
 X66.0859
 Y59.7873
 X62.5859
G0 Z25.0000
 X-0.4141
G1 Z-1.0000
 X-3.9141
 Y61.7734
 X-0.0366
G0 Z25.0000
 X62.5859
G1 Z-1.0000
 X66.0859
 Y63.7595
 X62.5859
G0 Z25.0000
 X0.5096
G1 Z-1.0000
 X-3.9141
 Y65.7456
 X1.0558
G0 Z25.0000
 X62.5859
G1 Z-1.0000
 X66.0859
 Y67.7317
 X62.5859
G0 Z25.0000
 X1.6020
G1 Z-1.0000
 X-3.9141
 Y69.7178
 X2.1482
G0 Z25.0000
 X23.3401
G1 Z-1.0000
 X24.6951
G0 Z25.0000
 X29.3857
G1 Z-1.0000
 X33.7861
G0 Z25.0000
 X38.4084
G1 Z-1.0000
 X39.7634
G0 Z25.0000
 X50.5684
G1 Z-1.0000
 X54.9678
G0 Z25.0000
 X62.5859
G1 Z-1.0000
 X66.0859
 Y71.7040
 X62.5859
G0 Z25.0000
 X54.9678
G1 Z-1.0000
 X50.5684
G0 Z25.0000
 X33.7861
G1 Z-1.0000
 X29.3857
G0 Z25.0000
 X2.6943
G1 Z-1.0000
 X-3.9141
 Y73.6901
 X3.2405
G0 Z25.0000
 X62.5859
G1 Z-1.0000
 X66.0859
 Y75.6762
 X62.5859
G0 Z25.0000
 X3.7867
G1 Z-1.0000
 X-3.9141
 Y77.6623
 X4.3329
G0 Z25.0000
 X62.5859
G1 Z-1.0000
 X66.0859
 Y79.6484
 X62.5859
G0 Z25.0000
 X4.8791
G1 Z-1.0000
 X-3.9141
 Y81.6345
 X5.4252
G0 Z25.0000
 X62.5859
G1 Z-1.0000
 X66.0859
 Y83.6206
 X62.5859
G0 Z25.0000
 X5.9714
G1 Z-1.0000
 X-3.9141
 Y85.6067
 X6.5176
G0 Z25.0000
 X62.5859
G1 Z-1.0000
 X66.0859
 Y87.5928
 X62.5859
G0 Z25.0000
 X7.0638
G1 Z-1.0000
 X-3.9141
 Y89.5789
 X7.6100
G0 Z25.0000
 X23.3976
G1 Z-1.0000
 X24.6376
G0 Z25.0000
 X29.3857
G1 Z-1.0000
 X33.7861
G0 Z25.0000
 X38.4660
G1 Z-1.0000
 X39.7059
G0 Z25.0000
 X50.5684
G1 Z-1.0000
 X54.9678
G0 Z25.0000
 X62.5859
G1 Z-1.0000
 X66.0859
 Y91.5650
 X62.5859
G0 Z25.0000
 X54.9678
G1 Z-1.0000
 X50.5684
G0 Z25.0000
 X33.7861
G1 Z-1.0000
 X29.3857
G0 Z25.0000
 X8.1561
G1 Z-1.0000
 X-3.9141
 Y93.5512
 X8.7023
G0 Z25.0000
 X62.5859
G1 Z-1.0000
 X66.0859
 Y95.5373
 X62.5859
G0 Z25.0000
 X9.2485
G1 Z-1.0000
 X-3.9141
 Y97.5234
 X9.7947
G0 Z25.0000
 X62.5859
G1 Z-1.0000
 X66.0859
 Y99.5095
 X62.5859
G0 Z25.0000
 X10.3409
G1 Z-1.0000
 X-3.9141
 Y101.4956
 X10.5859
G0 Z25.0000
 X62.5859
G1 Z-1.0000
 X66.0859
 Y103.4817
 X62.5859
G0 Z25.0000
 X10.5859
G1 Z-1.0000
 X-3.9141
 Y105.4678
 X10.5859
G0 Z25.0000
 X62.5859
G1 Z-1.0000
 X66.0859
 Y107.4539
 X62.5859
G0 Z25.0000
 X10.5859
G1 Z-1.0000
 X-3.9141
 Y109.4400
 X10.5859
G0 Z25.0000
 X62.5859
G1 Z-1.0000
 X66.0859
 Y111.4261
 X62.5859
G0 Z25.0000
 X10.5859
G1 Z-1.0000
 X-3.9141
 Y113.4122
 X10.5859
G0 Z25.0000
 X62.5859
G1 Z-1.0000
 X66.0859
 Y115.3984
 X62.5859
G0 Z25.0000
 X10.5859
G1 Z-1.0000
 X-3.9141
 Y117.3845
 X10.5859
G0 Z25.0000
 X62.5859
G1 Z-1.0000
 X66.0859
 Y119.3706
 X62.5859
G0 Z25.0000
 X10.5859
G1 Z-1.0000
 X-3.9141
 Y121.3567
 X10.5859
G0 Z25.0000
 X62.5859
G1 Z-1.0000
 X66.0859
 Y123.3428
 X62.5859
G0 Z25.0000
 X35.1721
G1 Z-1.0000
 X26.9997
G0 Z25.0000
 X10.5859
G1 Z-1.0000
 X-3.9141
 Y125.3289
 X10.5859
G0 Z25.0000
 X24.7752
G1 Z-1.0000
 X37.3967
G0 Z25.0000
 X62.5859
G1 Z-1.0000
 X66.0859
 Y127.3150
 X62.5859
G0 Z25.0000
 X38.5060
G1 Z-1.0000
 X23.6658
G0 Z25.0000
 X10.5859
G1 Z-1.0000
 X-3.9141
 Y129.3011
 X10.5859
G0 Z25.0000
 X23.1887
G1 Z-1.0000
 X38.9831
G0 Z25.0000
 X62.5859
G1 Z-1.0000
 X66.0859
 Y131.2872
 X62.5859
G0 Z25.0000
 X38.9629
G1 Z-1.0000
 X23.2089
G0 Z25.0000
 X10.6827
G1 Z-1.0000
 X-3.9141
 Y133.2733
 X10.8714
G0 Z25.0000
 X23.7282
G1 Z-1.0000
 X38.4436
G0 Z25.0000
 X62.5859
G1 Z-1.0000
 X66.0859
 Y135.2594
 X62.5859
G0 Z25.0000
 X37.2235
G1 Z-1.0000
 X24.9484
G0 Z25.0000
 X11.2968
G1 Z-1.0000
 X-3.9141
 Y137.2456
 X11.8766
G0 Z25.0000
 X27.3753
G1 Z-1.0000
 X34.7965
G0 Z25.0000
 X62.5859
G1 Z-1.0000
 X66.0859
 Y139.2317
 X62.5859
G0 Z25.0000
 X12.7762
G1 Z-1.0000
 X-3.9141
 Y141.2178
 X13.8000
G0 Z25.0000
 X62.1859
G1 Z-1.0000
 X66.0859
 Y143.2039
 X56.8285
G0 Z25.0000
 X15.3401
G1 Z-1.0000
 X-3.9141
 Y145.1900
 X17.2177
G0 Z25.0000
 X50.8909
G1 Z-1.0000
 X66.0859
 Y147.1761
 X44.9535
G0 Z25.0000
 X19.6784
G1 Z-1.0000
 X-3.9141
 Y149.1622
 X23.4791
G0 Z25.0000
 X39.0161
G1 Z-1.0000
 X66.0859
 Y151.1483
 X-3.9141
 Y153.1344
 X66.0859
 Y155.1205
 X-3.9141
 Y157.1066
 X66.0859
 Y159.0928
 X-3.9141
 Y161.0789
 X66.0859
 Y163.0650
 X-3.9141
 Z-2.0000
 X66.0859
 Y161.0789
 X-3.9141
 Y159.0928
 X66.0859
 Y157.1066
 X-3.9141
 Y155.1205
 X66.0859
 Y153.1344
 X-3.9141
 Y151.1483
 X66.0859
 Y149.1622
 X39.0161
G0 Z25.0000
 X23.4791
G1 Z-2.0000
 X-3.9141
 Y147.1761
 X19.6784
G0 Z25.0000
 X44.9535
G1 Z-2.0000
 X66.0859
 Y145.1900
 X50.8909
G0 Z25.0000
 X17.2177
G1 Z-2.0000
 X-3.9141
 Y143.2039
 X15.3401
G0 Z25.0000
 X56.8285
G1 Z-2.0000
 X66.0859
 Y141.2178
 X62.1859
G0 Z25.0000
 X13.8000
G1 Z-2.0000
 X-3.9141
 Y139.2317
 X12.7762
G0 Z25.0000
 X62.5859
G1 Z-2.0000
 X66.0859
 Y137.2456
 X62.5859
G0 Z25.0000
 X34.7965
G1 Z-2.0000
 X27.3753
G0 Z25.0000
 X11.8766
G1 Z-2.0000
 X-3.9141
 Y135.2594
 X11.2968
G0 Z25.0000
 X24.9484
G1 Z-2.0000
 X37.2235
G0 Z25.0000
 X62.5859
G1 Z-2.0000
 X66.0859
 Y133.2733
 X62.5859
G0 Z25.0000
 X38.4436
G1 Z-2.0000
 X23.7282
G0 Z25.0000
 X10.8714
G1 Z-2.0000
 X-3.9141
 Y131.2872
 X10.6827
G0 Z25.0000
 X23.2089
G1 Z-2.0000
 X38.9629
G0 Z25.0000
 X62.5859
G1 Z-2.0000
 X66.0859
 Y129.3011
 X62.5859
G0 Z25.0000
 X38.9831
G1 Z-2.0000
 X23.1887
G0 Z25.0000
 X10.5859
G1 Z-2.0000
 X-3.9141
 Y127.3150
 X10.5859
G0 Z25.0000
 X23.6658
G1 Z-2.0000
 X38.5060
G0 Z25.0000
 X62.5859
G1 Z-2.0000
 X66.0859
 Y125.3289
 X62.5859
G0 Z25.0000
 X37.3967
G1 Z-2.0000
 X24.7752
G0 Z25.0000
 X10.5859
G1 Z-2.0000
 X-3.9141
 Y123.3428
 X10.5859
G0 Z25.0000
 X26.9997
G1 Z-2.0000
 X35.1721
G0 Z25.0000
 X62.5859
G1 Z-2.0000
 X66.0859
 Y121.3567
 X62.5859
G0 Z25.0000
 X10.5859
G1 Z-2.0000
 X-3.9141
 Y119.3706
 X10.5859
G0 Z25.0000
 X62.5859
G1 Z-2.0000
 X66.0859
 Y117.3845
 X62.5859
G0 Z25.0000
 X10.5859
G1 Z-2.0000
 X-3.9141
 Y115.3984
 X10.5859
G0 Z25.0000
 X62.5859
G1 Z-2.0000
 X66.0859
 Y113.4122
 X62.5859
G0 Z25.0000
 X10.5859
G1 Z-2.0000
 X-3.9141
 Y111.4261
 X10.5859
G0 Z25.0000
 X62.5859
G1 Z-2.0000
 X66.0859
 Y109.4400
 X62.5859
G0 Z25.0000
 X10.5859
G1 Z-2.0000
 X-3.9141
 Y107.4539
 X10.5859
G0 Z25.0000
 X62.5859
G1 Z-2.0000
 X66.0859
 Y105.4678
 X62.5859
G0 Z25.0000
 X10.5859
G1 Z-2.0000
 X-3.9141
 Y103.4817
 X10.5859
G0 Z25.0000
 X62.5859
G1 Z-2.0000
 X66.0859
 Y101.4956
 X62.5859
G0 Z25.0000
 X10.5859
G1 Z-2.0000
 X-3.9141
 Y99.5095
 X10.3409
G0 Z25.0000
 X62.5859
G1 Z-2.0000
 X66.0859
 Y97.5234
 X62.5859
G0 Z25.0000
 X9.7947
G1 Z-2.0000
 X-3.9141
 Y95.5373
 X9.2485
G0 Z25.0000
 X62.5859
G1 Z-2.0000
 X66.0859
 Y93.5512
 X62.5859
G0 Z25.0000
 X8.7023
G1 Z-2.0000
 X-3.9141
 Y91.5650
 X8.1561
G0 Z25.0000
 X29.3857
G1 Z-2.0000
 X33.7861
G0 Z25.0000
 X50.5684
G1 Z-2.0000
 X54.9678
G0 Z25.0000
 X62.5859
G1 Z-2.0000
 X66.0859
 Y89.5789
 X62.5859
G0 Z25.0000
 X54.9678
G1 Z-2.0000
 X50.5684
G0 Z25.0000
 X39.7059
G1 Z-2.0000
 X38.4660
G0 Z25.0000
 X33.7861
G1 Z-2.0000
 X29.3857
G0 Z25.0000
 X24.6376
G1 Z-2.0000
 X23.3976
G0 Z25.0000
 X7.6100
G1 Z-2.0000
 X-3.9141
 Y87.5928
 X7.0638
G0 Z25.0000
 X62.5859
G1 Z-2.0000
 X66.0859
 Y85.6067
 X62.5859
G0 Z25.0000
 X6.5176
G1 Z-2.0000
 X-3.9141
 Y83.6206
 X5.9714
G0 Z25.0000
 X62.5859
G1 Z-2.0000
 X66.0859
 Y81.6345
 X62.5859
G0 Z25.0000
 X5.4252
G1 Z-2.0000
 X-3.9141
 Y79.6484
 X4.8791
G0 Z25.0000
 X62.5859
G1 Z-2.0000
 X66.0859
 Y77.6623
 X62.5859
G0 Z25.0000
 X4.3329
G1 Z-2.0000
 X-3.9141
 Y75.6762
 X3.7867
G0 Z25.0000
 X62.5859
G1 Z-2.0000
 X66.0859
 Y73.6901
 X62.5859
G0 Z25.0000
 X3.2405
G1 Z-2.0000
 X-3.9141
 Y71.7040
 X2.6943
G0 Z25.0000
 X29.3857
G1 Z-2.0000
 X33.7861
G0 Z25.0000
 X50.5684
G1 Z-2.0000
 X54.9678
G0 Z25.0000
 X62.5859
G1 Z-2.0000
 X66.0859
 Y69.7178
 X62.5859
G0 Z25.0000
 X54.9678
G1 Z-2.0000
 X50.5684
G0 Z25.0000
 X39.7634
G1 Z-2.0000
 X38.4084
G0 Z25.0000
 X33.7861
G1 Z-2.0000
 X29.3857
G0 Z25.0000
 X24.6951
G1 Z-2.0000
 X23.3401
G0 Z25.0000
 X2.1482
G1 Z-2.0000
 X-3.9141
 Y67.7317
 X1.6020
G0 Z25.0000
 X62.5859
G1 Z-2.0000
 X66.0859
 Y65.7456
 X62.5859
G0 Z25.0000
 X1.0558
G1 Z-2.0000
 X-3.9141
 Y63.7595
 X0.5096
G0 Z25.0000
 X62.5859
G1 Z-2.0000
 X66.0859
 Y61.7734
 X62.5859
G0 Z25.0000
 X-0.0366
G1 Z-2.0000
 X-3.9141
 Y59.7873
 X-0.4141
G0 Z25.0000
 X62.5859
G1 Z-2.0000
 X66.0859
 Y57.8012
 X62.5859
G0 Z25.0000
 X-0.4141
G1 Z-2.0000
 X-3.9141
 Y55.8151
 X-0.4141
G0 Z25.0000
 X62.5859
G1 Z-2.0000
 X66.0859
 Y53.8290
 X62.5859
G0 Z25.0000
 X55.6855
G1 Z-2.0000
 X53.6855
G0 Z25.0000
 X8.4863
G1 Z-2.0000
 X6.4863
G0 Z25.0000
 X-0.4141
G1 Z-2.0000
 X-3.9141
 Y51.8429
 X-0.4141
G0 Z25.0000
 X62.5859
G1 Z-2.0000
 X66.0859
 Y49.8568
 X62.5859
G0 Z25.0000
 X-0.4141
G1 Z-2.0000
 X-3.9141
 Y47.8706
 X-0.4141
G0 Z25.0000
 X25.7775
G1 Z-2.0000
 X36.3944
G0 Z25.0000
 X62.5859
G1 Z-2.0000
 X66.0859
 Y45.8845
 X62.5859
G0 Z25.0000
 X40.7830
G1 Z-2.0000
 X21.3889
G0 Z25.0000
 X-0.4141
G1 Z-2.0000
 X-3.9141
 Y43.8984
 X-0.4141
G0 Z25.0000
 X18.6752
G1 Z-2.0000
 X43.4967
G0 Z25.0000
 X62.5859
G1 Z-2.0000
 X66.0859
 Y41.9123
 X62.5859
G0 Z25.0000
 X45.2849
G1 Z-2.0000
 X16.8870
G0 Z25.0000
 X-0.4141
G1 Z-2.0000
 X-3.9141
 Y39.9262
 X-0.4141
G0 Z25.0000
 X15.4672
G1 Z-2.0000
 X46.7047
G0 Z25.0000
 X62.5859
G1 Z-2.0000
 X66.0859
 Y37.9401
 X62.5859
G0 Z25.0000
 X47.8512
G1 Z-2.0000
 X14.3206
G0 Z25.0000
 X-0.4141
G1 Z-2.0000
 X-3.9141
 Y35.9540
 X-0.4141
G0 Z25.0000
 X13.6192
G1 Z-2.0000
 X48.5522
G0 Z25.0000
 X62.5859
G1 Z-2.0000
 X66.0859
 Y33.9679
 X62.5859
G0 Z25.0000
 X49.1810
G1 Z-2.0000
 X12.9900
G0 Z25.0000
 X-0.4141
G1 Z-2.0000
 X-3.9141
 Y31.9818
 X-0.4141
G0 Z25.0000
 X12.7814
G1 Z-2.0000
 X49.3900
G0 Z25.0000
 X62.5859
G1 Z-2.0000
 X66.0859
 Y29.9957
 X62.5859
G0 Z25.0000
 X49.5563
G1 Z-2.0000
 X12.6154
G0 Z25.0000
 X-0.4141
G1 Z-2.0000
 X-3.9141
 Y28.0096
 X-0.4141
G0 Z25.0000
 X12.8239
G1 Z-2.0000
 X49.3473
G0 Z25.0000
 X62.5859
G1 Z-2.0000
 X66.0859
 Y26.0234
 X62.5859
G0 Z25.0000
 X49.0658
G1 Z-2.0000
 X13.1052
G0 Z25.0000
 X-0.4141
G1 Z-2.0000
 X-3.9141
 Y24.0373
 X-0.4141
G0 Z25.0000
 X13.7509
G1 Z-2.0000
 X48.4205
G0 Z25.0000
 X62.5859
G1 Z-2.0000
 X66.0859
 Y22.0512
 X62.5859
G0 Z25.0000
 X47.6174
G1 Z-2.0000
 X14.5544
G0 Z25.0000
 X-0.4141
G1 Z-2.0000
 X-3.9141
 Y20.0651
 X-0.4141
G0 Z25.0000
 X15.7007
G1 Z-2.0000
 X46.4712
G0 Z25.0000
 X62.5859
G1 Z-2.0000
 X66.0859
 Y18.0790
 X62.5859
G0 Z25.0000
 X44.9210
G1 Z-2.0000
 X17.2509
G0 Z25.0000
 X-0.4141
G1 Z-2.0000
 X-3.9141
 Y16.0929
 X-0.4141
G0 Z25.0000
 X19.2118
G1 Z-2.0000
 X42.9600
G0 Z25.0000
 X62.5859
G1 Z-2.0000
 X66.0859
 Y14.1068
 X62.5859
G0 Z25.0000
 X40.1601
G1 Z-2.0000
 X22.0117
G0 Z25.0000
 X-0.4141
G1 Z-2.0000
 X-3.9141
 Y12.1207
 X-0.4141
G0 Z25.0000
 X27.6797
G1 Z-2.0000
 X34.4923
G0 Z25.0000
 X62.5859
G1 Z-2.0000
 X66.0859
 Y10.1346
 X62.5859
G0 Z25.0000
 X-0.4141
G1 Z-2.0000
 X-3.9141
 Y8.1485
 X-0.4141
G0 Z25.0000
 X6.8376
G1 Z-2.0000
 X8.1344
G0 Z25.0000
 X54.0375
G1 Z-2.0000
 X55.3342
G0 Z25.0000
 X62.5859
G1 Z-2.0000
 X66.0859
 Y6.1624
 X62.5859
G0 Z25.0000
 X55.6855
G1 Z-2.0000
 X53.6855
G0 Z25.0000
 X8.4863
G1 Z-2.0000
 X6.4863
G0 Z25.0000
 X-0.4141
G1 Z-2.0000
 X-3.9141
 Y4.1762
 X-0.4141
G0 Z25.0000
 X62.5859
G1 Z-2.0000
 X66.0859
 Y2.1901
 X62.5859
G0 Z25.0000
 X-0.4141
G1 Z-2.0000
 X-3.9141
 Y0.2040
 X-0.4141
G0 Z25.0000
 X62.5859
G1 Z-2.0000
 X66.0859
 Y-1.7821
 X-3.9141
 Y-3.7682
 X66.0859
 Y-5.7543
 X-3.9141
 Y-7.7404
 X66.0859
 Y-9.7265
 X-3.9141
 Y-11.7126
 X66.0859
 Y-13.6987
 X-3.9141
 Z-3.0000
 X66.0859
 Y-11.7126
 X-3.9141
 Y-9.7265
 X66.0859
 Y-7.7404
 X-3.9141
 Y-5.7543
 X66.0859
 Y-3.7682
 X-3.9141
 Y-1.7821
 X66.0859
 Y0.2040
 X62.5859
G0 Z25.0000
 X-0.4141
G1 Z-3.0000
 X-3.9141
 Y2.1901
 X-0.4141
G0 Z25.0000
 X62.5859
G1 Z-3.0000
 X66.0859
 Y4.1762
 X62.5859
G0 Z25.0000
 X-0.4141
G1 Z-3.0000
 X-3.9141
 Y6.1624
 X-0.4141
G0 Z25.0000
 X6.4863
G1 Z-3.0000
 X8.4863
G0 Z25.0000
 X53.6855
G1 Z-3.0000
 X55.6855
G0 Z25.0000
 X62.5859
G1 Z-3.0000
 X66.0859
 Y8.1485
 X62.5859
G0 Z25.0000
 X55.3342
G1 Z-3.0000
 X54.0375
G0 Z25.0000
 X8.1344
G1 Z-3.0000
 X6.8376
G0 Z25.0000
 X-0.4141
G1 Z-3.0000
 X-3.9141
 Y10.1346
 X-0.4141
G0 Z25.0000
 X62.5859
G1 Z-3.0000
 X66.0859
 Y12.1207
 X62.5859
G0 Z25.0000
 X34.4923
G1 Z-3.0000
 X27.6797
G0 Z25.0000
 X-0.4141
G1 Z-3.0000
 X-3.9141
 Y14.1068
 X-0.4141
G0 Z25.0000
 X22.0117
G1 Z-3.0000
 X40.1601
G0 Z25.0000
 X62.5859
G1 Z-3.0000
 X66.0859
 Y16.0929
 X62.5859
G0 Z25.0000
 X42.9600
G1 Z-3.0000
 X19.2118
G0 Z25.0000
 X-0.4141
G1 Z-3.0000
 X-3.9141
 Y18.0790
 X-0.4141
G0 Z25.0000
 X17.2509
G1 Z-3.0000
 X44.9210
G0 Z25.0000
 X62.5859
G1 Z-3.0000
 X66.0859
 Y20.0651
 X62.5859
G0 Z25.0000
 X46.4712
G1 Z-3.0000
 X15.7007
G0 Z25.0000
 X-0.4141
G1 Z-3.0000
 X-3.9141
 Y22.0512
 X-0.4141
G0 Z25.0000
 X14.5544
G1 Z-3.0000
 X47.6174
G0 Z25.0000
 X62.5859
G1 Z-3.0000
 X66.0859
 Y24.0373
 X62.5859
G0 Z25.0000
 X48.4205
G1 Z-3.0000
 X13.7509
G0 Z25.0000
 X-0.4141
G1 Z-3.0000
 X-3.9141
 Y26.0234
 X-0.4141
G0 Z25.0000
 X13.1052
G1 Z-3.0000
 X49.0658
G0 Z25.0000
 X62.5859
G1 Z-3.0000
 X66.0859
 Y28.0096
 X62.5859
G0 Z25.0000
 X49.3473
G1 Z-3.0000
 X12.8239
G0 Z25.0000
 X-0.4141
G1 Z-3.0000
 X-3.9141
 Y29.9957
 X-0.4141
G0 Z25.0000
 X12.6154
G1 Z-3.0000
 X49.5563
G0 Z25.0000
 X62.5859
G1 Z-3.0000
 X66.0859
 Y31.9818
 X62.5859
G0 Z25.0000
 X49.3900
G1 Z-3.0000
 X12.7814
G0 Z25.0000
 X-0.4141
G1 Z-3.0000
 X-3.9141
 Y33.9679
 X-0.4141
G0 Z25.0000
 X12.9900
G1 Z-3.0000
 X49.1810
G0 Z25.0000
 X62.5859
G1 Z-3.0000
 X66.0859
 Y35.9540
 X62.5859
G0 Z25.0000
 X48.5522
G1 Z-3.0000
 X13.6192
G0 Z25.0000
 X-0.4141
G1 Z-3.0000
 X-3.9141
 Y37.9401
 X-0.4141
G0 Z25.0000
 X14.3206
G1 Z-3.0000
 X47.8512
G0 Z25.0000
 X62.5859
G1 Z-3.0000
 X66.0859
 Y39.9262
 X62.5859
G0 Z25.0000
 X46.7047
G1 Z-3.0000
 X15.4672
G0 Z25.0000
 X-0.4141
G1 Z-3.0000
 X-3.9141
 Y41.9123
 X-0.4141
G0 Z25.0000
 X16.8870
G1 Z-3.0000
 X45.2849
G0 Z25.0000
 X62.5859
G1 Z-3.0000
 X66.0859
 Y43.8984
 X62.5859
G0 Z25.0000
 X43.4967
G1 Z-3.0000
 X18.6752
G0 Z25.0000
 X-0.4141
G1 Z-3.0000
 X-3.9141
 Y45.8845
 X-0.4141
G0 Z25.0000
 X21.3889
G1 Z-3.0000
 X40.7830
G0 Z25.0000
 X62.5859
G1 Z-3.0000
 X66.0859
 Y47.8706
 X62.5859
G0 Z25.0000
 X36.3944
G1 Z-3.0000
 X25.7775
G0 Z25.0000
 X-0.4141
G1 Z-3.0000
 X-3.9141
 Y49.8568
 X-0.4141
G0 Z25.0000
 X62.5859
G1 Z-3.0000
 X66.0859
 Y51.8429
 X62.5859
G0 Z25.0000
 X-0.4141
G1 Z-3.0000
 X-3.9141
 Y53.8290
 X-0.4141
G0 Z25.0000
 X6.4863
G1 Z-3.0000
 X8.4863
G0 Z25.0000
 X53.6855
G1 Z-3.0000
 X55.6855
G0 Z25.0000
 X62.5859
G1 Z-3.0000
 X66.0859
 Y55.8151
 X62.5859
G0 Z25.0000
 X-0.4141
G1 Z-3.0000
 X-3.9141
 Y57.8012
 X-0.4141
G0 Z25.0000
 X62.5859
G1 Z-3.0000
 X66.0859
 Y59.7873
 X62.5859
G0 Z25.0000
 X-0.4141
G1 Z-3.0000
 X-3.9141
 Y61.7734
 X-0.0366
G0 Z25.0000
 X62.5859
G1 Z-3.0000
 X66.0859
 Y63.7595
 X62.5859
G0 Z25.0000
 X0.5096
G1 Z-3.0000
 X-3.9141
 Y65.7456
 X1.0558
G0 Z25.0000
 X62.5859
G1 Z-3.0000
 X66.0859
 Y67.7317
 X62.5859
G0 Z25.0000
 X1.6020
G1 Z-3.0000
 X-3.9141
 Y69.7178
 X2.1482
G0 Z25.0000
 X23.3401
G1 Z-3.0000
 X24.6951
G0 Z25.0000
 X29.3857
G1 Z-3.0000
 X33.7861
G0 Z25.0000
 X38.4084
G1 Z-3.0000
 X39.7634
G0 Z25.0000
 X50.5684
G1 Z-3.0000
 X54.9678
G0 Z25.0000
 X62.5859
G1 Z-3.0000
 X66.0859
 Y71.7040
 X62.5859
G0 Z25.0000
 X54.9678
G1 Z-3.0000
 X50.5684
G0 Z25.0000
 X33.7861
G1 Z-3.0000
 X29.3857
G0 Z25.0000
 X2.6943
G1 Z-3.0000
 X-3.9141
 Y73.6901
 X3.2405
G0 Z25.0000
 X62.5859
G1 Z-3.0000
 X66.0859
 Y75.6762
 X62.5859
G0 Z25.0000
 X3.7867
G1 Z-3.0000
 X-3.9141
 Y77.6623
 X4.3329
G0 Z25.0000
 X62.5859
G1 Z-3.0000
 X66.0859
 Y79.6484
 X62.5859
G0 Z25.0000
 X4.8791
G1 Z-3.0000
 X-3.9141
 Y81.6345
 X5.4252
G0 Z25.0000
 X62.5859
G1 Z-3.0000
 X66.0859
 Y83.6206
 X62.5859
G0 Z25.0000
 X5.9714
G1 Z-3.0000
 X-3.9141
 Y85.6067
 X6.5176
G0 Z25.0000
 X62.5859
G1 Z-3.0000
 X66.0859
 Y87.5928
 X62.5859
G0 Z25.0000
 X7.0638
G1 Z-3.0000
 X-3.9141
 Y89.5789
 X7.6100
G0 Z25.0000
 X23.3976
G1 Z-3.0000
 X24.6376
G0 Z25.0000
 X29.3857
G1 Z-3.0000
 X33.7861
G0 Z25.0000
 X38.4660
G1 Z-3.0000
 X39.7059
G0 Z25.0000
 X50.5684
G1 Z-3.0000
 X54.9678
G0 Z25.0000
 X62.5859
G1 Z-3.0000
 X66.0859
 Y91.5650
 X62.5859
G0 Z25.0000
 X54.9678
G1 Z-3.0000
 X50.5684
G0 Z25.0000
 X33.7861
G1 Z-3.0000
 X29.3857
G0 Z25.0000
 X8.1561
G1 Z-3.0000
 X-3.9141
 Y93.5512
 X8.7023
G0 Z25.0000
 X62.5859
G1 Z-3.0000
 X66.0859
 Y95.5373
 X62.5859
G0 Z25.0000
 X9.2485
G1 Z-3.0000
 X-3.9141
 Y97.5234
 X9.7947
G0 Z25.0000
 X62.5859
G1 Z-3.0000
 X66.0859
 Y99.5095
 X62.5859
G0 Z25.0000
 X10.3409
G1 Z-3.0000
 X-3.9141
 Y101.4956
 X10.5859
G0 Z25.0000
 X62.5859
G1 Z-3.0000
 X66.0859
 Y103.4817
 X62.5859
G0 Z25.0000
 X10.5859
G1 Z-3.0000
 X-3.9141
 Y105.4678
 X10.5859
G0 Z25.0000
 X62.5859
G1 Z-3.0000
 X66.0859
 Y107.4539
 X62.5859
G0 Z25.0000
 X10.5859
G1 Z-3.0000
 X-3.9141
 Y109.4400
 X10.5859
G0 Z25.0000
 X62.5859
G1 Z-3.0000
 X66.0859
 Y111.4261
 X62.5859
G0 Z25.0000
 X10.5859
G1 Z-3.0000
 X-3.9141
 Y113.4122
 X10.5859
G0 Z25.0000
 X62.5859
G1 Z-3.0000
 X66.0859
 Y115.3984
 X62.5859
G0 Z25.0000
 X10.5859
G1 Z-3.0000
 X-3.9141
 Y117.3845
 X10.5859
G0 Z25.0000
 X62.5859
G1 Z-3.0000
 X66.0859
 Y119.3706
 X62.5859
G0 Z25.0000
 X10.5859
G1 Z-3.0000
 X-3.9141
 Y121.3567
 X10.5859
G0 Z25.0000
 X62.5859
G1 Z-3.0000
 X66.0859
 Y123.3428
 X62.5859
G0 Z25.0000
 X35.1721
G1 Z-3.0000
 X26.9997
G0 Z25.0000
 X10.5859
G1 Z-3.0000
 X-3.9141
 Y125.3289
 X10.5859
G0 Z25.0000
 X24.7752
G1 Z-3.0000
 X37.3965
G0 Z25.0000
 X62.5859
G1 Z-3.0000
 X66.0859
 Y127.3150
 X62.5859
G0 Z25.0000
 X38.5060
G1 Z-3.0000
 X23.6658
G0 Z25.0000
 X10.5859
G1 Z-3.0000
 X-3.9141
 Y129.3011
 X10.5859
G0 Z25.0000
 X23.1887
G1 Z-3.0000
 X38.9831
G0 Z25.0000
 X62.5859
G1 Z-3.0000
 X66.0859
 Y131.2872
 X62.5859
G0 Z25.0000
 X38.9629
G1 Z-3.0000
 X23.2089
G0 Z25.0000
 X10.6827
G1 Z-3.0000
 X-3.9141
 Y133.2733
 X10.8714
G0 Z25.0000
 X23.7282
G1 Z-3.0000
 X38.4435
G0 Z25.0000
 X62.5859
G1 Z-3.0000
 X66.0859
 Y135.2594
 X62.5859
G0 Z25.0000
 X37.2235
G1 Z-3.0000
 X24.9484
G0 Z25.0000
 X11.2967
G1 Z-3.0000
 X-3.9141
 Y137.2456
 X11.8766
G0 Z25.0000
 X27.3758
G1 Z-3.0000
 X34.7965
G0 Z25.0000
 X62.5859
G1 Z-3.0000
 X66.0859
 Y139.2317
 X62.5859
G0 Z25.0000
 X12.7762
G1 Z-3.0000
 X-3.9141
 Y141.2178
 X13.8000
G0 Z25.0000
 X62.1859
G1 Z-3.0000
 X66.0859
 Y143.2039
 X56.8285
G0 Z25.0000
 X15.3401
G1 Z-3.0000
 X-3.9141
 Y145.1900
 X17.2177
G0 Z25.0000
 X50.8909
G1 Z-3.0000
 X66.0859
 Y147.1761
 X44.9535
G0 Z25.0000
 X19.6784
G1 Z-3.0000
 X-3.9141
 Y149.1622
 X23.4791
G0 Z25.0000
 X39.0161
G1 Z-3.0000
 X66.0859
 Y151.1483
 X-3.9141
 Y153.1344
 X66.0859
 Y155.1205
 X-3.9141
 Y157.1066
 X66.0859
 Y159.0928
 X-3.9141
 Y161.0789
 X66.0859
 Y163.0650
 X-3.9141
G0 Z25.0000
M5 (stop spindle)
G04 P3 (wait for 3 seconds)
G0 Z25.0000
M2 (end program)
